DeferredRenderingProject/Assets/LUTs/Cool.CUBE
#Created by: Adobe Photoshop Export Color Lookup Plugin
TITLE "Cool"
#LUT size
LUT_3D_SIZE 8
#data domain
#LUT data points
DOMAIN_MIN 0.000000 0.000000 0.000000
DOMAIN_MAX 0.903226 0.903226 0.903226
0.000000 0.000000 0.000000
0.075592 0.001617 0.013519
0.177002 0.002991 0.027313
0.289764 0.004303 0.042450
0.410400 0.005554 0.060425
0.537018 0.006622 0.081970
0.668518 0.007538 0.105927
0.804688 0.008484 0.128937
0.003601 0.078461 0.036194
0.082672 0.082245 0.047607
0.185913 0.084381 0.058197
0.300171 0.086273 0.072083
0.422852 0.087524 0.090088
0.551941 0.088287 0.112549
0.686798 0.088562 0.136230
0.826935 0.088531 0.160309
0.005981 0.181122 0.078949
0.085480 0.186218 0.088226
0.189575 0.188416 0.097687
0.303925 0.190765 0.109711
0.426239 0.192688 0.124725
0.554932 0.194397 0.140869
0.688843 0.195831 0.159393
0.827454 0.196960 0.178558
0.007721 0.294220 0.130463
0.086914 0.300354 0.139648
0.191986 0.302734 0.146118
0.306915 0.305420 0.154724
0.429718 0.307922 0.165405
0.558533 0.310181 0.178040
0.692596 0.312225 0.192047
0.831268 0.314087 0.207428
0.009583 0.415314 0.178467
0.087280 0.423248 0.187988
0.193970 0.425079 0.192535
0.309601 0.427856 0.199402
0.432861 0.430664 0.207886
0.562012 0.433380 0.217590
0.696320 0.435883 0.228882
0.835144 0.438202 0.241333
0.011444 0.542847 0.223755
0.086975 0.552887 0.234894
0.195526 0.553955 0.237335
0.311951 0.556732 0.242889
0.435760 0.559601 0.249725
0.565308 0.562561 0.257996
0.699921 0.565369 0.267212
0.838959 0.567993 0.277771
0.013397 0.675690 0.267242
0.085236 0.688873 0.280273
0.196228 0.688538 0.281158
0.313995 0.690918 0.285339
0.438232 0.693848 0.291351
0.568329 0.696899 0.298248
0.703308 0.699890 0.306274
0.842590 0.702820 0.315155
0.015381 0.813232 0.309174
0.081757 0.830658 0.325409
0.196625 0.827972 0.323883
0.315521 0.829926 0.327148
0.440704 0.832703 0.332092
0.571106 0.835785 0.338135
0.706512 0.838928 0.345032
0.846100 0.842072 0.352997
0.000000 0.000336 0.176117
0.069244 0.002563 0.203308
0.173370 0.003357 0.206970
0.287537 0.004639 0.212616
0.409363 0.006073 0.219635
0.537292 0.007568 0.227844
0.670410 0.009064 0.237183
0.808014 0.010590 0.247437
0.003235 0.078308 0.208466
0.076508 0.084686 0.218811
0.182281 0.085815 0.222595
0.298248 0.087463 0.228851
0.421875 0.089142 0.236816
0.552612 0.090393 0.246979
0.688538 0.091522 0.258423
0.830475 0.091980 0.271667
0.006531 0.182373 0.225311
0.080872 0.190247 0.235657
0.187866 0.191315 0.238861
0.303772 0.193542 0.244507
0.427246 0.195892 0.251617
0.557220 0.197906 0.260132
0.692139 0.199982 0.269806
0.832031 0.201660 0.281006
0.009674 0.297913 0.246948
0.083832 0.307281 0.258118
0.192230 0.308167 0.260376
0.308929 0.310425 0.265381
0.432678 0.313049 0.271820
0.562469 0.315552 0.279510
0.697540 0.317902 0.288452
0.837036 0.320221 0.298309
0.012665 0.421265 0.272736
0.085724 0.432556 0.285034
0.196014 0.432648 0.286346
0.313324 0.434967 0.290894
0.437531 0.437744 0.296753
0.567627 0.440491 0.303741
0.702728 0.443237 0.311707
0.842346 0.445801 0.320709
0.015533 0.550629 0.302094
0.085724 0.564758 0.316132
0.198792 0.563507 0.315796
0.317139 0.565582 0.319672
0.441833 0.568420 0.324921
0.572205 0.571350 0.331329
0.707672 0.574158 0.338623
0.847321 0.577057 0.346771
0.018280 0.685059 0.333374
0.084595 0.702637 0.349854
0.200775 0.699615 0.347931
0.320129 0.701355 0.351105
0.445526 0.704132 0.355774
0.576385 0.707092 0.361481
0.712097 0.710144 0.368164
0.851990 0.713165 0.375519
0.020905 0.823853 0.366302
0.080536 0.846741 0.386444
0.201691 0.840515 0.381836
0.322510 0.841736 0.384094
0.448822 0.844238 0.388214
0.580170 0.847198 0.393433
0.716064 0.850342 0.399506
0.856354 0.853546 0.406250
0.000000 0.001465 0.301514
0.050323 0.007690 0.357117
0.163635 0.005371 0.354431
0.281769 0.005524 0.358307
0.405182 0.006744 0.362396
0.534210 0.008148 0.367310
0.668182 0.009705 0.373047
0.806549 0.011353 0.379456
0.002686 0.078369 0.351685
0.057983 0.092621 0.370636
0.173035 0.089020 0.367249
0.291779 0.089569 0.370514
0.416901 0.090820 0.375610
0.548401 0.092102 0.382172
0.685699 0.093018 0.390411
0.827881 0.093811 0.399414
0.006256 0.182587 0.363495
0.062531 0.199615 0.382813
0.179138 0.195251 0.378906
0.298187 0.196045 0.381592
0.423248 0.197876 0.386047
0.554077 0.199829 0.391663
0.690216 0.201752 0.398346
0.830688 0.203644 0.405884
0.009857 0.298767 0.377411
0.065399 0.318390 0.397919
0.184509 0.312836 0.393097
0.304138 0.313721 0.395325
0.429474 0.315765 0.399506
0.560486 0.317993 0.404724
0.696198 0.320435 0.410736
0.836548 0.322784 0.417694
0.013458 0.423004 0.394073
0.066376 0.446167 0.416504
0.188812 0.438660 0.410065
0.309448 0.439270 0.411987
0.435333 0.441437 0.415802
0.566406 0.443970 0.420624
0.702545 0.446564 0.426422
0.842773 0.449219 0.432922
0.016937 0.553497 0.413269
0.065643 0.580933 0.438324
0.192261 0.570862 0.429840
0.314209 0.571136 0.431305
0.440643 0.573212 0.434753
0.572205 0.575867 0.439453
0.708374 0.578644 0.444885
0.848785 0.581543 0.450989
0.020386 0.689117 0.434814
0.061890 0.722809 0.463959
0.195099 0.708435 0.452332
0.318146 0.708252 0.453217
0.445404 0.710175 0.456360
0.577332 0.712860 0.460663
0.713837 0.715759 0.465790
0.854523 0.718719 0.471588
0.023712 0.829193 0.458527
0.055878 0.870605 0.492859
0.196686 0.850891 0.477203
0.321411 0.849945 0.477325
0.449524 0.851654 0.480103
0.582001 0.854248 0.484100
0.718903 0.857147 0.488953
0.859924 0.860229 0.494385
0.000000 0.003296 0.410370
0.014557 0.021149 0.506317
0.144287 0.010315 0.491638
0.268311 0.008636 0.492004
0.396912 0.008240 0.496399
0.528290 0.009064 0.500275
0.663300 0.010468 0.504425
0.802582 0.011993 0.509003
0.001740 0.078735 0.483368
0.023132 0.109833 0.520538
0.155273 0.095581 0.505096
0.279724 0.093536 0.504486
0.407654 0.093689 0.507477
0.540955 0.094330 0.512451
0.678711 0.095245 0.518372
0.821808 0.095795 0.525757
0.005646 0.182648 0.493988
0.028625 0.218109 0.530975
0.161835 0.202484 0.515533
0.287109 0.200165 0.514404
0.415161 0.200653 0.516876
0.547638 0.202026 0.520844
0.684601 0.203735 0.525726
0.826019 0.205414 0.531525
0.009521 0.298859 0.505188
0.033539 0.337189 0.541992
0.167267 0.320923 0.527100
0.293549 0.318268 0.525543
0.421814 0.318909 0.527649
0.554443 0.320557 0.531189
0.691315 0.322571 0.535706
0.832550 0.324738 0.541016
0.013397 0.423431 0.517883
0.038239 0.464050 0.554504
0.172211 0.447418 0.540222
0.299347 0.444489 0.538391
0.428314 0.445038 0.540253
0.561066 0.446869 0.543579
0.698120 0.449188 0.547882
0.839355 0.451569 0.552856
0.017242 0.554443 0.532349
0.042755 0.596863 0.568726
0.175812 0.580688 0.555450
0.304535 0.577026 0.553101
0.434082 0.577576 0.554688
0.567322 0.579437 0.557892
0.704620 0.581787 0.561890
0.845978 0.584442 0.566650
0.021057 0.690735 0.548523
0.047180 0.734772 0.584656
0.178680 0.719452 0.572632
0.309052 0.714996 0.569702
0.439362 0.715363 0.571014
0.573120 0.717102 0.573883
0.710785 0.719604 0.577789
0.852356 0.722321 0.582306
0.024811 0.831543 0.566315
0.051483 0.876923 0.602234
0.180389 0.863220 0.591888
0.312897 0.857605 0.588196
0.444183 0.857605 0.589142
0.578552 0.859314 0.591858
0.716705 0.861725 0.595490
0.858459 0.864594 0.599854
0.000000 0.006866 0.498444
0.011169 0.023010 0.626923
0.110382 0.020752 0.625732
0.246613 0.014435 0.618835
0.379486 0.012604 0.620697
0.516479 0.011566 0.625793
0.655914 0.011627 0.630981
0.796356 0.012909 0.634399
0.000580 0.079498 0.607391
0.021301 0.110565 0.643036
0.123535 0.108276 0.641235
0.261017 0.100098 0.633545
0.393768 0.098206 0.634125
0.529114 0.098022 0.637146
0.668427 0.098389 0.641724
0.812714 0.098602 0.647888
0.004761 0.182861 0.617981
0.027527 0.218292 0.653412
0.130890 0.216095 0.651703
0.269592 0.206879 0.643585
0.402100 0.205292 0.643402
0.537201 0.205475 0.645782
0.675873 0.206543 0.649445
0.818573 0.207764 0.654083
0.008881 0.298889 0.628082
0.032715 0.337250 0.663208
0.136383 0.335571 0.662201
0.276611 0.325287 0.653625
0.409576 0.323608 0.653259
0.544739 0.324066 0.655182
0.683319 0.325409 0.658478
0.825653 0.327148 0.662567
0.012939 0.423584 0.638885
0.037750 0.464142 0.673950
0.140747 0.463379 0.673676
0.282562 0.452026 0.664612
0.416321 0.450104 0.663940
0.551849 0.450623 0.665741
0.690643 0.452179 0.668823
0.832977 0.454132 0.672699
0.017029 0.554779 0.650818
0.042511 0.597229 0.685669
0.143707 0.598114 0.686768
0.287994 0.585236 0.676910
0.422546 0.583038 0.676025
0.558441 0.583588 0.677612
0.697571 0.585114 0.680450
0.840027 0.587280 0.684113
0.021118 0.691467 0.663971
0.047241 0.735443 0.698761
0.145844 0.738312 0.701324
0.292725 0.723907 0.690552
0.428223 0.721313 0.689362
0.564667 0.721802 0.690796
0.704132 0.723389 0.693512
0.846924 0.725616 0.697021
0.025146 0.832642 0.678436
0.051849 0.878021 0.713074
0.146423 0.883942 0.717773
0.296844 0.867157 0.705688
0.433411 0.864227 0.704193
0.570557 0.864471 0.705383
0.710419 0.866119 0.707916
0.853455 0.868378 0.711273
0.000000 0.011475 0.576569
0.006622 0.026031 0.740601
0.033875 0.050690 0.773956
0.215088 0.023926 0.742218
0.355438 0.019257 0.740265
0.495544 0.017151 0.743164
0.639465 0.015656 0.748840
0.787628 0.014374 0.756104
0.000000 0.080841 0.720459
0.018860 0.111816 0.759949
0.047394 0.143219 0.792816
0.233826 0.110016 0.760254
0.373932 0.104950 0.756805
0.512756 0.103363 0.757782
0.654480 0.102783 0.761078
0.799957 0.102631 0.765839
0.003723 0.183258 0.736908
0.026062 0.218750 0.770996
0.054016 0.254547 0.804382
0.243622 0.217224 0.770966
0.384155 0.211761 0.766998
0.522858 0.210419 0.767395
0.663971 0.210388 0.769714
0.807983 0.211151 0.773224
0.008057 0.299042 0.746552
0.031708 0.337372 0.780518
0.059235 0.376434 0.814301
0.250763 0.336304 0.780487
0.392120 0.330353 0.776306
0.531067 0.328979 0.776367
0.672119 0.329224 0.778351
0.816040 0.330353 0.781494
0.012268 0.423645 0.756348
0.036957 0.464203 0.790253
0.065033 0.505371 0.823914
0.256958 0.463593 0.790619
0.399109 0.457245 0.786163
0.538574 0.455780 0.785980
0.679779 0.456177 0.787750
0.823792 0.457428 0.790619
0.016541 0.554901 0.766876
0.041992 0.597321 0.800659
0.070557 0.640259 0.834198
0.262329 0.597504 0.801483
0.405579 0.590576 0.796753
0.545593 0.588959 0.796448
0.687103 0.589386 0.798096
0.831268 0.590851 0.800751
0.020813 0.691742 0.778229
0.046906 0.735718 0.811890
0.075867 0.780121 0.845367
0.267059 0.736847 0.813477
0.411499 0.729279 0.808411
0.552185 0.727478 0.807922
0.694031 0.727936 0.809387
0.838470 0.729370 0.811890
0.025055 0.833099 0.790619
0.051758 0.878540 0.824127
0.081146 0.924286 0.857513
0.271057 0.880981 0.826569
0.416931 0.872650 0.821045
0.558197 0.870667 0.820404
0.700653 0.871002 0.821747
0.845337 0.872528 0.824127
0.000000 0.017700 0.642548
0.001923 0.029785 0.849365
0.023804 0.056671 0.883026
0.169342 0.039368 0.865265
0.322906 0.029236 0.856140
0.468292 0.025116 0.856384
0.615417 0.022369 0.860718
0.765381 0.020386 0.866791
0.000000 0.083344 0.818359
0.016174 0.113464 0.872742
0.041626 0.146332 0.905762
0.192017 0.126373 0.887360
0.347107 0.114441 0.877167
0.491791 0.110382 0.875671
0.636658 0.108551 0.877289
0.783691 0.107849 0.880646
0.002502 0.183990 0.851654
0.024292 0.219452 0.884735
0.050964 0.255890 0.917664
0.203247 0.234253 0.899261
0.359406 0.221069 0.888580
0.503998 0.217041 0.886383
0.648346 0.215668 0.887207
0.794373 0.215576 0.889496
0.007050 0.299377 0.861298
0.030426 0.337677 0.894257
0.057892 0.376770 0.927155
0.210968 0.354034 0.908905
0.368073 0.339935 0.897919
0.513000 0.335693 0.895416
0.657410 0.334442 0.895905
0.803345 0.334625 0.897827
0.011505 0.423737 0.870667
0.035980 0.464355 0.903534
0.063934 0.505493 0.936279
0.216949 0.482391 0.918549
0.375397 0.467224 0.907227
0.520966 0.462646 0.904541
0.665588 0.461487 0.904816
0.811676 0.461761 0.906525
0.015900 0.554993 0.880280
0.041199 0.597382 0.913086
0.069733 0.640320 0.945770
0.222168 0.617218 0.928741
0.381989 0.600952 0.917053
0.528259 0.596130 0.914185
0.673096 0.594910 0.914246
0.819550 0.595245 0.915894
0.020294 0.691803 0.890564
0.046326 0.735809 0.923248
0.075256 0.780243 0.955811
0.226440 0.757629 0.939819
0.387970 0.740173 0.927551
0.534973 0.735046 0.924530
0.680328 0.733673 0.924469
0.826996 0.734009 0.925903
0.024658 0.833344 0.901459
0.051331 0.878754 0.934113
0.080688 0.924500 0.966583
0.229492 0.903107 0.951843
0.393463 0.884125 0.938965
0.541229 0.878540 0.935669
0.687195 0.877075 0.935516
0.834229 0.877380 0.936859
0.000000 0.024200 0.708435
0.000000 0.035706 0.931793
0.017426 0.061096 0.987854
0.090363 0.069855 0.999084
0.282562 0.042450 0.971832
0.435181 0.035370 0.967499
0.585419 0.031433 0.968994
0.737183 0.028687 0.973358
0.000000 0.086456 0.910278
0.013062 0.115570 0.981934
0.041046 0.149353 1.000000
0.120361 0.161469 1.000000
0.311646 0.127502 0.996918
0.464966 0.119659 0.991364
0.614380 0.115997 0.991089
0.763611 0.114410 0.992828
0.001251 0.184906 0.963104
0.022308 0.220428 0.995270
0.057312 0.257111 1.000000
0.138519 0.270996 1.000000
0.325958 0.236267 1.000000
0.478699 0.227112 1.000000
0.627289 0.223572 1.000000
0.774506 0.223175 1.000000
0.005920 0.299805 0.972961
0.031006 0.337738 1.000000
0.072968 0.374359 1.000000
0.155304 0.389771 1.000000
0.338501 0.356293 1.000000
0.488525 0.348175 1.000000
0.634186 0.345917 1.000000
0.778412 0.346863 1.000000
0.010559 0.423920 0.981995
0.042664 0.461823 1.000000
0.091614 0.496674 1.000000
0.175476 0.513367 1.000000
0.353424 0.482483 1.000000
0.500366 0.475952 1.000000
0.643005 0.475281 1.000000
0.783722 0.478119 1.000000
0.015076 0.555054 0.991150
0.058167 0.589386 1.000000
0.116028 0.620880 1.000000
0.202332 0.638336 1.000000
0.373932 0.611511 1.000000
0.517242 0.607330 1.000000
0.656281 0.608765 1.000000
0.792450 0.614197 1.000000
0.020233 0.691498 1.000000
0.080139 0.717529 1.000000
0.149933 0.743713 1.000000
0.240753 0.760895 1.000000
0.404358 0.739899 1.000000
0.543732 0.738525 1.000000
0.678619 0.742767 1.000000
0.808807 0.751709 1.000000
0.037476 0.824432 1.000000
0.113220 0.842590 1.000000
0.199524 0.860779 1.000000
0.299866 0.874725 1.000000
0.453003 0.862091 1.000000
0.588959 0.863831 1.000000
0.720703 0.870758 1.000000
0.844391 0.883881 1.000000
