DeferredRenderingProject/Assets/LUTs/Cool.CUBE
#Created by: Adobe Photoshop Export Color Lookup Plugin
TITLE "Cool"
#LUT size
LUT_3D_SIZE 5
#data domain
#LUT data points
DOMAIN_MIN 0.000000 0.000000 0.000000
DOMAIN_MAX 0.903226 0.903226 0.903226
0.000000 0.000000 0.000000
0.150330 0.002686 0.023712
0.349182 0.004944 0.051361
0.569489 0.006866 0.087677
0.804688 0.008484 0.128937
0.005432 0.154297 0.067352
0.161682 0.160797 0.083099
0.363342 0.164520 0.106415
0.586914 0.167267 0.137360
0.827026 0.168823 0.172882
0.008667 0.353882 0.154785
0.165649 0.362366 0.167847
0.368896 0.367126 0.181580
0.593384 0.371521 0.200470
0.833130 0.375336 0.224121
0.011932 0.575592 0.234863
0.167603 0.586700 0.247498
0.373596 0.591248 0.256683
0.599335 0.596405 0.270264
0.839935 0.601288 0.287018
0.015381 0.813232 0.309174
0.167877 0.827881 0.323456
0.377319 0.831207 0.329407
0.604492 0.836548 0.339874
0.846100 0.842072 0.352997
0.000000 0.000977 0.274292
0.138763 0.004639 0.318176
0.344269 0.005859 0.325012
0.568268 0.008392 0.334503
0.807220 0.011200 0.346588
0.005493 0.155212 0.326294
0.152191 0.166199 0.340515
0.360229 0.168335 0.346832
0.587433 0.171692 0.357758
0.830414 0.174713 0.371826
0.011658 0.359772 0.353607
0.160309 0.373505 0.368378
0.370392 0.375732 0.373230
0.597778 0.380127 0.382721
0.840057 0.384583 0.394836
0.017578 0.586456 0.389740
0.165771 0.603241 0.405701
0.378815 0.604706 0.409302
0.607574 0.609375 0.417664
0.850311 0.614441 0.428467
0.023224 0.828247 0.433289
0.168152 0.849182 0.451477
0.385651 0.848846 0.453094
0.615875 0.853485 0.460388
0.859528 0.858856 0.470062
0.000000 0.004913 0.455902
0.094757 0.017242 0.561493
0.323334 0.010498 0.557312
0.557770 0.010040 0.565552
0.799744 0.012421 0.572205
0.004272 0.155426 0.554169
0.111877 0.183655 0.584198
0.342163 0.174652 0.577209
0.575043 0.175812 0.582489
0.821075 0.178101 0.591339
0.011200 0.360321 0.572784
0.120056 0.394196 0.603973
0.354004 0.383179 0.595581
0.587646 0.384888 0.599884
0.832855 0.388489 0.607300
0.018127 0.588348 0.595245
0.124725 0.628143 0.628601
0.364136 0.614105 0.618256
0.599121 0.615814 0.621979
0.845093 0.619904 0.628784
0.025085 0.832214 0.622223
0.124664 0.879913 0.659424
0.372498 0.860962 0.645935
0.609406 0.862305 0.648956
0.856293 0.866486 0.655182
0.000000 0.013031 0.593018
0.022644 0.046326 0.794342
0.278046 0.023346 0.770294
0.525360 0.018372 0.773071
0.782379 0.015747 0.784058
0.002319 0.156342 0.763397
0.043762 0.217468 0.822601
0.305725 0.188171 0.796661
0.551544 0.183594 0.795441
0.802856 0.183838 0.800629
0.009979 0.360413 0.780396
0.054718 0.429962 0.839142
0.319397 0.397644 0.813354
0.566223 0.392883 0.811249
0.817108 0.393982 0.815125
0.017487 0.588623 0.798126
0.064270 0.663940 0.856598
0.329987 0.630157 0.831543
0.578827 0.624664 0.828857
0.830475 0.626007 0.832306
0.024994 0.833191 0.818451
0.073486 0.912872 0.876587
0.338959 0.878723 0.852692
0.590149 0.872284 0.849365
0.842834 0.873627 0.852356
0.000000 0.024200 0.708435
0.011505 0.054169 0.979462
0.198944 0.050018 0.978729
0.472839 0.034149 0.967621
0.737183 0.028687 0.973358
0.000122 0.158173 0.960175
0.044189 0.219849 1.000000
0.239532 0.217743 1.000000
0.513855 0.196991 1.000000
0.773590 0.193848 1.000000
0.008270 0.360870 0.977509
0.069855 0.426056 1.000000
0.265503 0.427643 1.000000
0.530334 0.410614 1.000000
0.780853 0.411682 1.000000
0.016235 0.588776 0.993500
0.107666 0.644257 1.000000
0.304413 0.650177 1.000000
0.557404 0.640472 1.000000
0.795441 0.648590 1.000000
0.037476 0.824432 1.000000
0.177185 0.856201 1.000000
0.382233 0.864227 1.000000
0.622375 0.865051 1.000000
0.844391 0.883881 1.000000
