DeferredRenderingProject/Assets/LUTs/Cool.CUBE
#Created by: Adobe Photoshop Export Color Lookup Plugin
TITLE "Cool"
#LUT size
LUT_3D_SIZE 32
#data domain
DOMAIN_MIN 0.0 0.0 0.0
DOMAIN_MAX 1.0 1.0 1.0
#LUT data points
0.000000 0.000000 0.000000
0.013184 0.000580 0.004700
0.031891 0.000916 0.007660
0.052612 0.001343 0.011139
0.075592 0.001617 0.013519
0.099396 0.002014 0.016296
0.124359 0.002350 0.019958
0.150330 0.002686 0.023712
0.177002 0.002991 0.027313
0.204315 0.003326 0.031036
0.232117 0.003693 0.034637
0.260773 0.004028 0.038086
0.289764 0.004303 0.042450
0.319275 0.004639 0.046783
0.349182 0.004944 0.051361
0.379578 0.005249 0.055359
0.410400 0.005554 0.060425
0.441437 0.005829 0.066071
0.473083 0.006073 0.070923
0.504883 0.006348 0.076202
0.537018 0.006622 0.081970
0.569489 0.006866 0.087677
0.602203 0.007111 0.093750
0.635254 0.007324 0.099731
0.668518 0.007538 0.105927
0.702148 0.007782 0.111542
0.736084 0.008026 0.117371
0.770264 0.008270 0.123199
0.804688 0.008484 0.128937
0.839355 0.008728 0.134796
0.874237 0.008942 0.140167
0.909424 0.009186 0.145782
0.001312 0.014160 0.012604
0.015625 0.015350 0.016235
0.034027 0.016144 0.021057
0.055573 0.016602 0.022949
0.078735 0.016998 0.025330
0.102875 0.017456 0.028778
0.128082 0.017883 0.031250
0.154755 0.018036 0.035553
0.181305 0.018585 0.038666
0.209198 0.018799 0.042786
0.237671 0.019073 0.046753
0.266907 0.019287 0.050934
0.296478 0.019531 0.055145
0.326935 0.019562 0.060760
0.357422 0.019745 0.065979
0.388214 0.019989 0.070770
0.420227 0.019989 0.075836
0.452301 0.019928 0.082336
0.484741 0.020020 0.088013
0.518158 0.019745 0.095459
0.551514 0.019623 0.101898
0.585266 0.019440 0.109222
0.619476 0.019226 0.116364
0.654053 0.018951 0.123688
0.688538 0.018829 0.130615
0.723724 0.018677 0.137054
0.757751 0.018860 0.142914
0.792084 0.019165 0.148438
0.826721 0.019440 0.153564
0.861481 0.019714 0.159424
0.896637 0.020020 0.164612
0.931946 0.020294 0.169678
0.002319 0.033234 0.021790
0.016968 0.034637 0.026062
0.035767 0.035553 0.028839
0.057465 0.036133 0.030518
0.080658 0.036560 0.033386
0.105347 0.036896 0.035858
0.130524 0.037445 0.038879
0.156891 0.037842 0.041992
0.183502 0.038452 0.045013
0.211670 0.038574 0.049072
0.240112 0.038910 0.052917
0.269012 0.039307 0.056732
0.298798 0.039490 0.061493
0.328674 0.039825 0.065796
0.359436 0.039978 0.071045
0.390747 0.040009 0.076508
0.422180 0.040222 0.081268
0.454285 0.040253 0.087097
0.487091 0.040070 0.093781
0.519684 0.040161 0.099518
0.552734 0.040161 0.105988
0.586792 0.039856 0.113098
0.621368 0.039520 0.120392
0.655457 0.039398 0.127533
0.691132 0.038818 0.135101
0.726044 0.038666 0.142090
0.761658 0.038330 0.149078
0.797668 0.037964 0.156158
0.834137 0.037567 0.163055
0.871185 0.036957 0.170685
0.908356 0.036469 0.178040
0.946014 0.035919 0.184875
0.002991 0.055084 0.028503
0.018097 0.056396 0.032990
0.036469 0.057709 0.035797
0.058289 0.058258 0.037231
0.081635 0.058746 0.039215
0.105896 0.059296 0.041992
0.131165 0.059875 0.044861
0.157806 0.060211 0.047852
0.184479 0.060822 0.050842
0.212524 0.061066 0.054688
0.240936 0.061493 0.058289
0.269775 0.061951 0.061768
0.299194 0.062317 0.066010
0.329468 0.062531 0.070435
0.359772 0.062836 0.075134
0.391022 0.062927 0.080292
0.422180 0.063354 0.084717
0.454010 0.063538 0.090149
0.486420 0.063538 0.096283
0.518982 0.063629 0.102020
0.551819 0.063782 0.107574
0.585327 0.063660 0.114441
0.618774 0.063812 0.120361
0.652863 0.063660 0.127380
0.687897 0.063354 0.134155
0.722473 0.063324 0.140625
0.757965 0.063110 0.147003
0.793549 0.062897 0.153564
0.829407 0.062653 0.160248
0.866028 0.062225 0.167358
0.902740 0.061859 0.174255
0.939728 0.061523 0.180481
0.003601 0.078461 0.036194
0.018463 0.080109 0.040863
0.037628 0.081146 0.042572
0.059235 0.081726 0.045837
0.082672 0.082245 0.047607
0.106964 0.082825 0.050385
0.132355 0.083435 0.052490
0.158630 0.083984 0.054871
0.185913 0.084381 0.058197
0.213654 0.084808 0.061584
0.241791 0.085419 0.064575
0.270874 0.085815 0.068268
0.300171 0.086273 0.072083
0.330414 0.086517 0.076508
0.360687 0.086884 0.080994
0.391571 0.087219 0.085510
0.422852 0.087524 0.090088
0.454407 0.087799 0.095642
0.486725 0.087952 0.101105
0.519287 0.088074 0.106842
0.551941 0.088287 0.112549
0.585236 0.088287 0.118805
0.618683 0.088440 0.124512
0.652527 0.088593 0.129944
0.686798 0.088562 0.136230
0.721619 0.088470 0.142456
0.756195 0.088623 0.148041
0.791718 0.088409 0.154449
0.826935 0.088531 0.160309
0.862915 0.088318 0.166687
0.899170 0.088226 0.172668
0.935822 0.087982 0.179291
0.004303 0.102783 0.045807
0.018860 0.104797 0.050476
0.038086 0.105835 0.052734
0.060455 0.106201 0.054230
0.083649 0.106964 0.055634
0.108276 0.107391 0.058502
0.133423 0.108215 0.060242
0.159943 0.108612 0.063354
0.186737 0.109314 0.066193
0.214691 0.109650 0.069672
0.242859 0.110291 0.072540
0.272064 0.110626 0.076111
0.301178 0.111237 0.079681
0.331329 0.111542 0.083923
0.361786 0.111908 0.088440
0.392456 0.112335 0.092651
0.423767 0.112610 0.097809
0.455200 0.113007 0.102600
0.487396 0.113220 0.107727
0.519745 0.113464 0.112823
0.552490 0.113586 0.118927
0.585754 0.113800 0.123932
0.618927 0.114166 0.129028
0.652832 0.114197 0.135193
0.686829 0.114380 0.140564
0.721252 0.114441 0.146515
0.755920 0.114624 0.151581
0.791107 0.114624 0.157440
0.826385 0.114655 0.163513
0.862183 0.114624 0.169098
0.897949 0.114685 0.174988
0.934265 0.114655 0.180664
0.004852 0.128174 0.056183
0.019531 0.130371 0.060425
0.039154 0.131165 0.062653
0.060974 0.131958 0.063660
0.084473 0.132507 0.065887
0.108948 0.133148 0.067688
0.134583 0.133667 0.070465
0.160980 0.134308 0.072632
0.187988 0.134857 0.075623
0.215546 0.135498 0.078430
0.243896 0.136047 0.081543
0.272736 0.136597 0.084595
0.302185 0.136993 0.088989
0.332184 0.137512 0.092194
0.362427 0.137939 0.096527
0.393341 0.138214 0.101044
0.424377 0.138733 0.105774
0.456268 0.138885 0.110809
0.488220 0.139282 0.115265
0.520416 0.139648 0.120483
0.553192 0.139862 0.125641
0.586182 0.140228 0.129944
0.619690 0.140411 0.135132
0.653351 0.140564 0.140961
0.687347 0.140839 0.145935
0.721588 0.141022 0.151337
0.756409 0.141174 0.156799
0.791168 0.141388 0.162079
0.826385 0.141541 0.167450
0.862000 0.141602 0.172882
0.897766 0.141693 0.178436
0.933838 0.141754 0.184052
0.005432 0.154297 0.067352
0.019653 0.156952 0.071747
0.039429 0.157745 0.073822
0.061707 0.158295 0.074860
0.085327 0.158844 0.076294
0.109802 0.159485 0.078674
0.135284 0.160156 0.081055
0.161682 0.160797 0.083099
0.188965 0.161255 0.085968
0.216492 0.161896 0.088684
0.244873 0.162476 0.091888
0.273743 0.163086 0.094757
0.303223 0.163544 0.098724
0.333130 0.164001 0.102386
0.363342 0.164520 0.106415
0.394165 0.164917 0.110596
0.425446 0.165283 0.115082
0.457092 0.165741 0.119049
0.488953 0.166107 0.123657
0.521210 0.166565 0.127960
0.554016 0.166901 0.132446
0.586914 0.167267 0.137360
0.620361 0.167480 0.142242
0.653900 0.167786 0.147430
0.687988 0.168060 0.152283
0.722351 0.168213 0.157623
0.756836 0.168579 0.162079
0.791687 0.168793 0.167084
0.827026 0.168823 0.172882
0.862274 0.169128 0.177612
0.897980 0.169312 0.182983
0.933899 0.169525 0.187744
0.005981 0.181122 0.078949
0.020233 0.183929 0.083221
0.039642 0.184937 0.085754
0.061920 0.185516 0.087036
0.085480 0.186218 0.088226
0.110260 0.186676 0.090576
0.135895 0.187347 0.092346
0.162262 0.187927 0.094879
0.189575 0.188416 0.097687
0.217316 0.188995 0.100555
0.245544 0.189667 0.103363
0.274597 0.190155 0.106293
0.303925 0.190765 0.109711
0.333984 0.191193 0.113068
0.364227 0.191711 0.116974
0.394958 0.192291 0.120636
0.426239 0.192688 0.124725
0.457733 0.193237 0.128143
0.489929 0.193573 0.132660
0.522308 0.193939 0.136932
0.554932 0.194397 0.140869
0.588013 0.194733 0.145599
0.621185 0.195190 0.149841
0.654816 0.195465 0.154907
0.688843 0.195831 0.159393
0.723145 0.196106 0.164276
0.757751 0.196350 0.168701
0.792572 0.196655 0.173553
0.827454 0.196960 0.178558
0.862915 0.197174 0.183380
0.898590 0.197418 0.188477
0.934570 0.197601 0.193115
0.006439 0.208527 0.092010
0.020111 0.211761 0.097412
0.039856 0.212769 0.098633
0.062195 0.213165 0.100464
0.085754 0.213837 0.101776
0.110748 0.214294 0.103729
0.136444 0.214966 0.104797
0.162872 0.215637 0.107391
0.190063 0.216248 0.109711
0.218079 0.216736 0.112396
0.246307 0.217407 0.114960
0.275208 0.218079 0.117615
0.304901 0.218475 0.120789
0.334686 0.219147 0.123810
0.365112 0.219666 0.127350
0.396027 0.220215 0.130463
0.427185 0.220734 0.134155
0.458771 0.221191 0.138367
0.490845 0.221619 0.142029
0.523102 0.222168 0.145782
0.555695 0.222626 0.149811
0.588776 0.222992 0.153900
0.622223 0.223358 0.158447
0.655792 0.223785 0.162384
0.689758 0.224121 0.166870
0.723999 0.224487 0.171173
0.758514 0.224854 0.175659
0.793365 0.225220 0.180237
0.828430 0.225525 0.184906
0.863800 0.225769 0.189697
0.899414 0.226074 0.194214
0.935181 0.226349 0.199036
0.006866 0.236542 0.105194
0.019775 0.240417 0.111115
0.039886 0.241150 0.112183
0.062531 0.241516 0.113251
0.086487 0.241943 0.114746
0.111267 0.242584 0.116119
0.137177 0.243073 0.117981
0.163391 0.243988 0.119324
0.190765 0.244537 0.121613
0.218811 0.245026 0.123993
0.247101 0.245758 0.126251
0.275970 0.246399 0.129242
0.305542 0.246979 0.132080
0.335480 0.247498 0.135498
0.365875 0.248169 0.137878
0.396729 0.248688 0.141388
0.428040 0.249207 0.144531
0.459656 0.249725 0.148010
0.491638 0.250275 0.151672
0.523926 0.250824 0.155212
0.556671 0.251282 0.159088
0.589722 0.251709 0.163116
0.623138 0.252136 0.167053
0.656860 0.252563 0.170898
0.690765 0.253021 0.174683
0.724976 0.253387 0.179138
0.759338 0.253845 0.183441
0.794159 0.254242 0.187561
0.829346 0.254547 0.192078
0.864594 0.254913 0.196228
0.900177 0.255219 0.200806
0.936157 0.255493 0.205566
0.007324 0.265045 0.118164
0.019775 0.269470 0.123840
0.039398 0.270416 0.125824
0.062714 0.270447 0.126221
0.086639 0.270996 0.127075
0.111664 0.271454 0.128815
0.137512 0.272095 0.130219
0.164032 0.272705 0.132111
0.191528 0.273285 0.133820
0.219421 0.273956 0.136047
0.247742 0.274658 0.138275
0.276825 0.275238 0.140869
0.306244 0.275879 0.143494
0.336273 0.276489 0.146179
0.366730 0.277069 0.149200
0.397522 0.277771 0.152069
0.428925 0.278290 0.155029
0.460449 0.278931 0.158081
0.492554 0.279449 0.161224
0.524933 0.279938 0.164948
0.557648 0.280518 0.168182
0.590668 0.280945 0.172028
0.623993 0.281464 0.175598
0.657684 0.282013 0.179199
0.691589 0.282410 0.183441
0.725983 0.282867 0.187134
0.760437 0.283264 0.191376
0.795227 0.283691 0.195404
0.830292 0.284119 0.199310
0.865479 0.284485 0.203766
0.901184 0.284790 0.208282
0.936890 0.285248 0.212097
0.007721 0.294220 0.130463
0.019897 0.298920 0.136658
0.039978 0.299652 0.138000
0.062622 0.300018 0.138916
0.086914 0.300354 0.139648
0.111969 0.300934 0.140778
0.137787 0.301514 0.142426
0.164490 0.302185 0.144196
0.191986 0.302734 0.146118
0.219757 0.303436 0.148041
0.248291 0.304108 0.150238
0.277344 0.304840 0.152191
0.306915 0.305420 0.154724
0.337128 0.306000 0.157135
0.367432 0.306763 0.159485
0.398346 0.307343 0.162262
0.429718 0.307922 0.165405
0.461334 0.308502 0.168671
0.493469 0.309052 0.171570
0.525787 0.309662 0.174622
0.558533 0.310181 0.178040
0.591522 0.310760 0.181244
0.624939 0.311279 0.184753
0.658600 0.311768 0.188324
0.692596 0.312225 0.192047
0.726837 0.312714 0.195770
0.761322 0.313202 0.199432
0.796143 0.313690 0.203339
0.831268 0.314087 0.207428
0.866516 0.314484 0.211456
0.902130 0.314911 0.215393
0.937866 0.315338 0.219543
0.008209 0.323792 0.142944
0.019623 0.329132 0.149628
0.038879 0.330414 0.151337
0.062897 0.329987 0.150940
0.087280 0.330261 0.151917
0.112396 0.330811 0.152954
0.138306 0.331421 0.154449
0.165222 0.331940 0.155823
0.192413 0.332703 0.157593
0.220428 0.333344 0.159485
0.249023 0.334015 0.161438
0.278198 0.334656 0.163727
0.307678 0.335327 0.166016
0.337677 0.336090 0.168030
0.368317 0.336639 0.170593
0.399292 0.337280 0.173218
0.430450 0.337952 0.175995
0.462250 0.338531 0.178772
0.494263 0.339142 0.181580
0.526733 0.339752 0.184753
0.559387 0.340332 0.187866
0.592560 0.340942 0.190704
0.625824 0.341553 0.194153
0.659546 0.342072 0.197571
0.693604 0.342529 0.200989
0.727753 0.343048 0.204590
0.762360 0.343536 0.208160
0.797119 0.344025 0.211884
0.832245 0.344452 0.215668
0.867554 0.344910 0.219299
0.903107 0.345367 0.223236
0.938873 0.345825 0.227203
0.008667 0.353882 0.154785
0.019196 0.359924 0.162170
0.038940 0.360840 0.163727
0.062775 0.360565 0.163513
0.087402 0.360779 0.164001
0.112610 0.361267 0.165192
0.138672 0.361816 0.166229
0.165649 0.362366 0.167847
0.192902 0.363098 0.169495
0.220947 0.363739 0.171265
0.249573 0.364410 0.173035
0.278687 0.365143 0.174866
0.308350 0.365784 0.177032
0.338470 0.366425 0.179199
0.368896 0.367126 0.181580
0.400024 0.367767 0.184113
0.431213 0.368439 0.186615
0.463043 0.369080 0.188995
0.495178 0.369659 0.191925
0.527557 0.370331 0.194611
0.560272 0.370972 0.197571
0.593384 0.371521 0.200470
0.626862 0.372101 0.203583
0.660553 0.372650 0.207062
0.694550 0.373230 0.210266
0.728760 0.373779 0.213684
0.763397 0.374298 0.216827
0.798126 0.374817 0.220306
0.833130 0.375336 0.224121
0.868561 0.375824 0.227570
0.904083 0.376251 0.231354
0.939941 0.376740 0.234985
0.009094 0.384369 0.166779
0.018738 0.391266 0.174774
0.038269 0.392303 0.176544
0.062531 0.391724 0.175934
0.087128 0.391907 0.176239
0.112732 0.392151 0.177246
0.138885 0.392731 0.178192
0.165955 0.393188 0.179626
0.193268 0.393951 0.181122
0.221375 0.394592 0.182800
0.250244 0.395172 0.184479
0.279358 0.395935 0.186218
0.308990 0.396637 0.187958
0.339203 0.397247 0.190216
0.369690 0.397980 0.192505
0.400696 0.398651 0.194794
0.432068 0.399353 0.197266
0.463776 0.400085 0.199463
0.496002 0.400635 0.202209
0.528473 0.401276 0.204865
0.561249 0.401947 0.207428
0.594330 0.402527 0.210449
0.627686 0.403198 0.213287
0.661407 0.403809 0.216309
0.695435 0.404327 0.219513
0.729706 0.404907 0.222626
0.764313 0.405426 0.225830
0.799164 0.406006 0.229156
0.834198 0.406647 0.232391
0.869568 0.407043 0.236145
0.905151 0.407562 0.239594
0.940918 0.408081 0.243042
0.009583 0.415314 0.178467
0.017883 0.423309 0.187469
0.037537 0.424194 0.188843
0.062439 0.423187 0.187866
0.087280 0.423248 0.187988
0.113007 0.423523 0.188934
0.139313 0.424011 0.189850
0.166290 0.424561 0.191101
0.193970 0.425079 0.192535
0.222137 0.425720 0.194122
0.250580 0.426575 0.195679
0.279999 0.427155 0.197357
0.309601 0.427856 0.199402
0.339813 0.428589 0.201202
0.370453 0.429230 0.203339
0.401398 0.429993 0.205261
0.432861 0.430664 0.207886
0.464569 0.431396 0.210114
0.496735 0.432037 0.212494
0.529205 0.432678 0.215179
0.562012 0.433380 0.217590
0.595184 0.434021 0.220245
0.628571 0.434662 0.222931
0.662292 0.435303 0.225830
0.696320 0.435883 0.228882
0.730713 0.436432 0.231873
0.765259 0.437042 0.234955
0.800140 0.437592 0.238129
0.835144 0.438202 0.241333
0.870514 0.438721 0.244690
0.906036 0.439270 0.247955
0.941833 0.439850 0.251404
0.010040 0.446655 0.190125
0.017273 0.455566 0.199860
0.037140 0.456299 0.201172
0.062164 0.455170 0.199951
0.087433 0.454987 0.199951
0.113098 0.455231 0.200714
0.139526 0.455658 0.201508
0.166718 0.456116 0.202698
0.194214 0.456848 0.203827
0.222504 0.457489 0.205261
0.251282 0.458191 0.206757
0.280609 0.458801 0.208527
0.310242 0.459534 0.210327
0.340454 0.460236 0.212128
0.371124 0.460938 0.214203
0.402191 0.461639 0.216217
0.433594 0.462341 0.218170
0.465393 0.463074 0.220428
0.497589 0.463806 0.222656
0.530060 0.464447 0.225250
0.562866 0.465179 0.227539
0.596100 0.465759 0.230255
0.629425 0.466492 0.232788
0.663208 0.467133 0.235413
0.697174 0.467743 0.238434
0.731628 0.468353 0.241150
0.766174 0.468964 0.244202
0.801056 0.469513 0.247223
0.836212 0.470154 0.250214
0.871582 0.470673 0.253632
0.907104 0.471252 0.256683
0.942932 0.471832 0.259888
0.010498 0.478363 0.201447
0.016632 0.488251 0.212189
0.036133 0.489197 0.213318
0.061890 0.487579 0.211700
0.087158 0.487366 0.211731
0.113098 0.487488 0.212128
0.139648 0.487885 0.213013
0.166962 0.488251 0.213867
0.194489 0.488953 0.215118
0.222839 0.489563 0.216522
0.251648 0.490234 0.217865
0.281158 0.490814 0.219421
0.310791 0.491608 0.221130
0.341187 0.492310 0.222839
0.371826 0.492981 0.224823
0.402832 0.493744 0.226715
0.434326 0.494415 0.228851
0.466125 0.495209 0.230804
0.498322 0.495850 0.233063
0.530884 0.496552 0.235291
0.563660 0.497253 0.237732
0.596985 0.497894 0.240143
0.630402 0.498627 0.242584
0.664124 0.499237 0.245392
0.698151 0.499939 0.247955
0.732452 0.500580 0.250793
0.767120 0.501221 0.253601
0.801941 0.501801 0.256500
0.837067 0.502411 0.259491
0.872498 0.503021 0.262390
0.908020 0.503601 0.265503
0.943909 0.504181 0.268677
0.010956 0.510468 0.212616
0.016602 0.520874 0.223663
0.035675 0.522034 0.225098
0.061096 0.520569 0.223694
0.087067 0.519958 0.223236
0.113220 0.520050 0.223511
0.139984 0.520264 0.224274
0.167053 0.520844 0.225342
0.194977 0.521271 0.226440
0.223389 0.521881 0.227631
0.252228 0.522552 0.229065
0.281555 0.523254 0.230438
0.311462 0.523956 0.232086
0.341675 0.524719 0.233673
0.372284 0.525482 0.235535
0.403503 0.526123 0.237183
0.435089 0.526855 0.239288
0.466888 0.527588 0.241486
0.499115 0.528320 0.243439
0.531647 0.529022 0.245636
0.564453 0.529724 0.247894
0.597626 0.530457 0.250122
0.631195 0.531128 0.252533
0.664948 0.531830 0.255035
0.699066 0.532440 0.257660
0.733429 0.533173 0.260254
0.768066 0.533783 0.262939
0.802887 0.534485 0.265625
0.837952 0.535126 0.268494
0.873413 0.535706 0.271454
0.909027 0.536316 0.274323
0.944916 0.536896 0.277374
0.011444 0.542847 0.223755
0.017090 0.553375 0.234833
0.034241 0.556061 0.237518
0.060577 0.553833 0.235474
0.086975 0.552887 0.234894
0.113129 0.552917 0.235016
0.140106 0.553070 0.235504
0.167511 0.553467 0.236237
0.195526 0.553955 0.237335
0.223846 0.554626 0.238525
0.252777 0.555298 0.239899
0.282135 0.556000 0.241302
0.311951 0.556732 0.242889
0.342316 0.557465 0.244293
0.373077 0.558167 0.246063
0.404175 0.558868 0.247986
0.435760 0.559601 0.249725
0.467682 0.560333 0.251709
0.499847 0.561127 0.253723
0.532349 0.561829 0.255798
0.565308 0.562561 0.257996
0.598480 0.563293 0.260132
0.632019 0.563934 0.262543
0.665802 0.564667 0.264801
0.699921 0.565369 0.267212
0.734283 0.566040 0.269775
0.768890 0.566711 0.272308
0.803802 0.567413 0.274994
0.838959 0.567993 0.277771
0.874359 0.568695 0.280487
0.910004 0.569305 0.283295
0.945831 0.569946 0.286255
0.011932 0.575592 0.234863
0.017578 0.586273 0.245605
0.033966 0.589447 0.249115
0.060150 0.587402 0.247009
0.086700 0.586365 0.246307
0.113220 0.586151 0.246216
0.140289 0.586212 0.246796
0.167603 0.586700 0.247498
0.195740 0.587128 0.248505
0.224121 0.587769 0.249603
0.253235 0.588318 0.250763
0.282501 0.589081 0.252197
0.312622 0.589722 0.253540
0.342834 0.590576 0.255066
0.373596 0.591248 0.256683
0.404816 0.592010 0.258423
0.436371 0.592682 0.260284
0.468353 0.593445 0.261963
0.500549 0.594177 0.264099
0.533173 0.594940 0.265930
0.566132 0.595642 0.268036
0.599335 0.596405 0.270264
0.632843 0.597137 0.272430
0.666718 0.597839 0.274750
0.700775 0.598572 0.276978
0.735168 0.599274 0.279480
0.769745 0.599945 0.281952
0.804718 0.600586 0.284485
0.839935 0.601288 0.287018
0.875366 0.601959 0.289734
0.910919 0.602570 0.292419
0.946808 0.603241 0.295135
0.012421 0.608704 0.245728
0.018127 0.619415 0.256409
0.032135 0.624359 0.261444
0.059479 0.621399 0.258606
0.086426 0.620026 0.257538
0.113220 0.619781 0.257477
0.140289 0.619873 0.257904
0.167694 0.620209 0.258698
0.195923 0.620605 0.259552
0.224518 0.621155 0.260406
0.253571 0.621765 0.261719
0.283020 0.622467 0.262939
0.313019 0.623169 0.264130
0.343384 0.623901 0.265778
0.374237 0.624634 0.267273
0.405457 0.625336 0.268921
0.437012 0.626129 0.270660
0.468994 0.626923 0.272308
0.501221 0.627655 0.274292
0.533813 0.628418 0.276031
0.566833 0.629089 0.278107
0.600067 0.629883 0.280243
0.633698 0.630554 0.282349
0.667542 0.631256 0.284515
0.701630 0.632050 0.286682
0.736053 0.632782 0.289124
0.770721 0.633484 0.291412
0.805573 0.634216 0.293854
0.840851 0.634827 0.296478
0.876251 0.635529 0.298889
0.911865 0.636230 0.301544
0.947845 0.636871 0.304169
0.012909 0.642059 0.256409
0.018646 0.652863 0.267273
0.030975 0.659149 0.273315
0.058258 0.656036 0.270538
0.085663 0.654419 0.269073
0.112854 0.653778 0.268829
0.140015 0.653839 0.268951
0.167938 0.653961 0.269531
0.196014 0.654480 0.270294
0.224731 0.654999 0.271271
0.253876 0.655609 0.272339
0.283386 0.656281 0.273651
0.313477 0.656921 0.274963
0.344025 0.657562 0.276367
0.374817 0.658325 0.277710
0.406036 0.659058 0.279388
0.437561 0.659882 0.280914
0.469635 0.660645 0.282684
0.502045 0.661346 0.284393
0.534668 0.662079 0.286316
0.567566 0.662933 0.288086
0.600922 0.663605 0.290161
0.634460 0.664337 0.292206
0.668396 0.665100 0.294189
0.702454 0.665863 0.296539
0.736847 0.666565 0.298706
0.771637 0.667267 0.300964
0.806519 0.667969 0.303314
0.841705 0.668701 0.305786
0.877228 0.669434 0.308228
0.912872 0.670135 0.310669
0.948792 0.670807 0.313293
0.013397 0.675690 0.267242
0.019165 0.686615 0.277771
0.029694 0.694275 0.285278
0.057068 0.691071 0.282227
0.085236 0.688873 0.280273
0.112549 0.688202 0.279907
0.140106 0.688019 0.279907
0.168152 0.688080 0.280396
0.196228 0.688538 0.281158
0.225006 0.689026 0.282104
0.254211 0.689575 0.283112
0.283966 0.690186 0.284149
0.313995 0.690918 0.285339
0.344513 0.691620 0.286804
0.375427 0.692322 0.288239
0.406647 0.693115 0.289734
0.438232 0.693848 0.291351
0.470306 0.694550 0.292999
0.502655 0.695374 0.294617
0.535370 0.696106 0.296265
0.568329 0.696899 0.298248
0.601746 0.697632 0.300171
0.635162 0.698456 0.302063
0.669098 0.699219 0.304138
0.703308 0.699890 0.306274
0.737732 0.700684 0.308380
0.772461 0.701416 0.310547
0.807526 0.702087 0.312836
0.842590 0.702820 0.315155
0.878082 0.703522 0.317535
0.913818 0.704254 0.320007
0.949615 0.704956 0.322418
0.013916 0.709686 0.277771
0.019684 0.720673 0.288452
0.028015 0.730042 0.297150
0.055481 0.726563 0.294098
0.084351 0.723907 0.291687
0.112030 0.722931 0.291077
0.139862 0.722687 0.290985
0.168121 0.722626 0.291199
0.196533 0.722931 0.291840
0.225220 0.723450 0.292786
0.254517 0.723969 0.293671
0.284332 0.724548 0.294678
0.314362 0.725220 0.296021
0.345032 0.725891 0.297272
0.375885 0.726593 0.298553
0.407135 0.727386 0.300140
0.438934 0.728149 0.301575
0.470917 0.728912 0.303192
0.503448 0.729614 0.304718
0.536102 0.730408 0.306549
0.569122 0.731232 0.308228
0.602417 0.731934 0.310120
0.635956 0.732727 0.311981
0.669891 0.733521 0.313843
0.704102 0.734253 0.315948
0.738647 0.735046 0.317993
0.773346 0.735748 0.320190
0.808319 0.736511 0.322266
0.843536 0.737305 0.324524
0.879028 0.737946 0.326904
0.914703 0.738678 0.329193
0.950653 0.739380 0.331635
0.014374 0.743927 0.288361
0.020203 0.755035 0.298676
0.026581 0.765930 0.308899
0.053558 0.762726 0.305969
0.083252 0.759369 0.303070
0.111755 0.757935 0.301910
0.139862 0.757385 0.301788
0.167877 0.757507 0.302155
0.196594 0.757629 0.302551
0.225616 0.757996 0.303284
0.254913 0.758575 0.304382
0.284546 0.759216 0.305298
0.314850 0.759796 0.306458
0.345428 0.760529 0.307678
0.376312 0.761261 0.308929
0.407806 0.761932 0.310272
0.439575 0.762665 0.311768
0.471558 0.763458 0.313293
0.503967 0.764282 0.314911
0.536713 0.765076 0.316559
0.569733 0.765778 0.318298
0.603088 0.766602 0.320038
0.636780 0.767334 0.321808
0.670685 0.768158 0.323761
0.704926 0.768890 0.325623
0.739380 0.769623 0.327728
0.774139 0.770447 0.329773
0.809082 0.771149 0.331848
0.844330 0.771942 0.334045
0.879913 0.772705 0.336243
0.915619 0.773407 0.338562
0.951538 0.774139 0.340912
0.014862 0.778412 0.298828
0.020752 0.789581 0.309082
0.026917 0.800812 0.319366
0.052551 0.798462 0.317352
0.082672 0.794800 0.314178
0.111389 0.793213 0.312897
0.139557 0.792603 0.312622
0.167999 0.792480 0.312653
0.196625 0.792694 0.313202
0.225677 0.793030 0.313934
0.255066 0.793579 0.314728
0.285065 0.793976 0.315735
0.315155 0.794739 0.316895
0.345886 0.795319 0.318024
0.376984 0.796082 0.319214
0.408295 0.796814 0.320526
0.440125 0.797546 0.322021
0.472168 0.798340 0.323486
