DeferredRenderingProject/Assets/LUTs/Warm.CUBE
#Created by: Adobe Photoshop Export Color Lookup Plugin
TITLE "Warm"
#LUT size
LUT_3D_SIZE 32
#data domain
DOMAIN_MIN 0.0 0.0 0.0
DOMAIN_MAX 1.0 1.0 1.0
#LUT data points
0.000000 0.000000 0.000000
0.054413 0.000305 0.000305
0.097839 0.000549 0.000549
0.137695 0.000763 0.000763
0.176178 0.000854 0.000854
0.212341 0.001068 0.001068
0.247162 0.001282 0.001282
0.281311 0.001434 0.001434
0.314636 0.001648 0.001648
0.346924 0.001862 0.001862
0.378601 0.002075 0.002075
0.409851 0.002289 0.002289
0.440674 0.002502 0.002502
0.470856 0.002716 0.002716
0.500702 0.002960 0.002960
0.530273 0.003174 0.003174
0.559540 0.003418 0.003418
0.588318 0.003632 0.003632
0.616943 0.003876 0.003876
0.645203 0.004120 0.004120
0.673218 0.004364 0.004364
0.700989 0.004608 0.004608
0.728577 0.004822 0.004822
0.755890 0.005096 0.005096
0.783020 0.005341 0.005341
0.809967 0.005585 0.005585
0.836792 0.005859 0.005859
0.863342 0.006104 0.006104
0.889771 0.006348 0.006348
0.915985 0.006622 0.006622
0.942047 0.006897 0.006897
0.968018 0.007141 0.007141
0.009186 0.014465 0.000793
0.061188 0.014954 0.001343
0.103424 0.015442 0.001862
0.143677 0.015625 0.002167
0.181915 0.015686 0.002686
0.218445 0.015808 0.003204
0.253723 0.015930 0.003662
0.288330 0.015900 0.004303
0.322571 0.015686 0.005157
0.356201 0.015442 0.006073
0.389069 0.015259 0.006989
0.422028 0.014740 0.008209
0.454041 0.014435 0.009338
0.486938 0.013580 0.011108
0.518677 0.013000 0.012634
0.548279 0.013153 0.013153
0.577240 0.013458 0.013458
0.605927 0.013733 0.013733
0.634338 0.014038 0.014038
0.662445 0.014343 0.014343
0.690369 0.014618 0.014618
0.717987 0.014923 0.014923
0.745422 0.015228 0.015228
0.772614 0.015503 0.015503
0.799652 0.015839 0.015839
0.826447 0.016113 0.016113
0.853088 0.016418 0.016418
0.879547 0.016693 0.016693
0.905884 0.017029 0.017029
0.932007 0.017334 0.017334
0.958008 0.017639 0.017639
0.983826 0.017975 0.017975
0.015656 0.033752 0.001526
0.065338 0.034424 0.002075
0.107208 0.035004 0.002502
0.146790 0.035370 0.002899
0.184631 0.035522 0.003418
0.220825 0.035706 0.003906
0.256378 0.035706 0.004517
0.290741 0.035736 0.005127
0.324158 0.035797 0.005737
0.357574 0.035583 0.006592
0.390747 0.035187 0.007690
0.423035 0.034912 0.008636
0.455383 0.034393 0.009949
0.487000 0.033966 0.011139
0.518829 0.033264 0.012726
0.550781 0.032318 0.014618
0.582153 0.031403 0.016479
0.613770 0.030243 0.018707
0.644562 0.029297 0.020782
0.675354 0.028229 0.023041
0.706024 0.027069 0.025452
0.734802 0.026764 0.026764
0.762146 0.027069 0.027069
0.789246 0.027435 0.027435
0.816162 0.027740 0.027740
0.842804 0.028076 0.028076
0.869354 0.028412 0.028412
0.895721 0.028748 0.028748
0.921936 0.029053 0.029053
0.947968 0.029419 0.029419
0.973846 0.029755 0.029755
0.999634 0.030090 0.030090
0.021667 0.055542 0.001740
0.069550 0.056244 0.002319
0.110168 0.057068 0.002930
0.149139 0.057526 0.003296
0.186493 0.057861 0.003815
0.221893 0.058350 0.004150
0.257111 0.058441 0.004669
0.291595 0.058472 0.005310
0.324799 0.058655 0.005859
0.357758 0.058594 0.006531
0.390076 0.058594 0.007233
0.422241 0.058411 0.008057
0.453644 0.058350 0.008881
0.485535 0.057739 0.010071
0.516266 0.057556 0.011047
0.547211 0.057007 0.012329
0.577850 0.056519 0.013641
0.608307 0.055908 0.015137
0.638916 0.054993 0.016876
0.669708 0.053833 0.018982
0.700073 0.052765 0.021088
0.730591 0.051422 0.023560
0.761169 0.049896 0.026306
0.792175 0.047974 0.029602
0.823212 0.045959 0.033142
0.853455 0.044220 0.036377
0.884399 0.042023 0.040344
0.911835 0.041718 0.041718
0.937958 0.042053 0.042053
0.963928 0.042419 0.042419
0.989685 0.042755 0.042755
1.000000 0.048859 0.048859
0.026520 0.078979 0.002075
0.073181 0.079803 0.002655
0.113892 0.080536 0.003235
0.151428 0.081360 0.003754
0.188934 0.081604 0.004211
0.224426 0.082062 0.004669
0.258850 0.082428 0.005127
0.292664 0.082733 0.005554
0.326538 0.082611 0.006226
0.358887 0.082855 0.006714
0.390717 0.083130 0.007324
0.422577 0.083069 0.008026
0.453857 0.083038 0.008759
0.484955 0.082825 0.009613
0.515594 0.082672 0.010529
0.545959 0.082489 0.011414
0.576324 0.082092 0.012512
0.606140 0.081757 0.013580
0.635864 0.081421 0.014771
0.665558 0.080841 0.016113
0.695282 0.080078 0.017670
0.724670 0.079376 0.019257
0.754089 0.078491 0.021027
0.783508 0.077454 0.023010
0.813049 0.076263 0.025238
0.842468 0.074890 0.027679
0.871826 0.073517 0.030182
0.902130 0.071411 0.033630
0.932068 0.069397 0.037079
0.962708 0.066803 0.041321
0.993347 0.064148 0.045837
1.000000 0.070648 0.060791
0.034851 0.102814 0.002167
0.079956 0.103638 0.002686
0.117188 0.105286 0.003571
0.155365 0.105896 0.004089
0.191193 0.106720 0.004608
0.226715 0.107086 0.005127
0.260986 0.107544 0.005554
0.294525 0.107910 0.006042
0.327301 0.108307 0.006500
0.360046 0.108368 0.007111
0.391846 0.108551 0.007660
0.423523 0.108612 0.008301
0.454407 0.108795 0.008881
0.485321 0.108704 0.009613
0.515778 0.108734 0.010406
0.545837 0.108643 0.011139
0.575714 0.108521 0.012024
0.605438 0.108307 0.012970
0.634827 0.108063 0.013947
0.664032 0.107758 0.014954
0.693237 0.107300 0.016174
0.722168 0.106903 0.017395
0.751099 0.106354 0.018768
0.779755 0.105774 0.020203
0.808350 0.105103 0.021698
0.836914 0.104309 0.023346
0.865601 0.103302 0.025269
0.893829 0.102478 0.027069
0.922760 0.101044 0.029480
0.951080 0.099884 0.031677
0.979889 0.098358 0.034393
1.000000 0.100159 0.041138
0.042145 0.127808 0.002258
0.085754 0.128815 0.002838
0.122589 0.130463 0.003723
0.158966 0.131561 0.004395
0.194336 0.132477 0.004944
0.229065 0.133148 0.005493
0.263550 0.133453 0.006012
0.296844 0.133972 0.006531
0.329376 0.134460 0.007019
0.361664 0.134705 0.007538
0.393555 0.134888 0.008087
0.424591 0.135254 0.008636
0.455658 0.135315 0.009247
0.486053 0.135498 0.009827
0.516266 0.135590 0.010498
0.546234 0.135620 0.011230
0.575928 0.135651 0.011963
0.605377 0.135559 0.012756
0.634796 0.135315 0.013672
0.663666 0.135223 0.014557
0.692444 0.135040 0.015472
0.721039 0.134827 0.016510
0.749634 0.134460 0.017639
0.778015 0.134033 0.018768
0.806396 0.133484 0.020111
0.834320 0.133118 0.021362
0.862427 0.132538 0.022797
0.890320 0.131897 0.024292
0.918274 0.131104 0.025940
0.946198 0.130219 0.027679
0.973969 0.129364 0.029541
1.000000 0.129028 0.032410
0.048798 0.153839 0.002289
0.091217 0.154938 0.002899
0.127502 0.156677 0.003876
0.162750 0.158081 0.004700
0.197479 0.159149 0.005371
0.232117 0.159851 0.005981
0.265717 0.160553 0.006439
0.298767 0.161072 0.006958
0.331604 0.161438 0.007477
0.363434 0.161865 0.007935
0.394958 0.162231 0.008484
0.426025 0.162567 0.009003
0.456818 0.162781 0.009613
0.487274 0.162964 0.010223
0.517303 0.163177 0.010803
0.547089 0.163269 0.011444
0.576691 0.163300 0.012146
0.605927 0.163391 0.012878
0.634979 0.163361 0.013641
0.663818 0.163330 0.014435
0.692413 0.163269 0.015259
0.720947 0.163055 0.016205
0.749146 0.162933 0.017120
0.777313 0.162659 0.018158
0.805237 0.162415 0.019165
0.833221 0.161987 0.020355
0.860931 0.161652 0.021545
0.888580 0.161194 0.022797
0.916138 0.160645 0.024139
0.943604 0.160095 0.025543
0.971039 0.159485 0.027069
0.998291 0.158783 0.028595
0.057953 0.179840 0.002045
0.097778 0.181427 0.002808
0.132233 0.183655 0.004028
0.166290 0.185486 0.005005
0.200806 0.186584 0.005737
0.235016 0.187408 0.006317
0.268280 0.188202 0.006927
0.301300 0.188782 0.007416
0.333649 0.189240 0.007935
0.365326 0.189819 0.008423
0.396820 0.190155 0.008942
0.427887 0.190491 0.009491
0.458374 0.190857 0.010040
0.488678 0.191101 0.010620
0.518585 0.191345 0.011200
0.548248 0.191559 0.011810
0.577728 0.191650 0.012451
0.606689 0.191895 0.013092
0.635620 0.191956 0.013763
0.664337 0.191986 0.014526
0.692871 0.191956 0.015350
0.721100 0.191925 0.016113
0.749268 0.191833 0.016968
0.777222 0.191742 0.017883
0.805023 0.191620 0.018829
0.832733 0.191376 0.019836
0.860291 0.191101 0.020905
0.887726 0.190796 0.021973
0.914978 0.190521 0.023071
0.942139 0.190094 0.024261
0.969208 0.189728 0.025513
0.996368 0.189117 0.026917
0.066864 0.206543 0.001831
0.105164 0.208374 0.002716
0.138275 0.210907 0.004028
0.171082 0.213043 0.005157
0.204803 0.214447 0.005981
0.238098 0.215576 0.006683
0.271271 0.216339 0.007294
0.303833 0.217163 0.007874
0.335938 0.217743 0.008392
0.367584 0.218323 0.008911
0.398743 0.218811 0.009460
0.429535 0.219269 0.009979
0.460144 0.219574 0.010529
0.490051 0.220032 0.011047
0.519989 0.220245 0.011597
0.549500 0.220490 0.012207
0.578796 0.220764 0.012817
0.607941 0.220856 0.013489
0.636658 0.221039 0.014160
0.665161 0.221222 0.014832
0.693542 0.221283 0.015503
0.721649 0.221344 0.016235
0.749695 0.221313 0.017059
0.777405 0.221344 0.017822
0.805145 0.221252 0.018707
0.832611 0.221161 0.019592
0.860016 0.221008 0.020538
0.887329 0.220856 0.021515
0.914490 0.220612 0.022552
0.941498 0.220367 0.023621
0.968536 0.220001 0.024780
0.995209 0.219757 0.025879
0.076599 0.233551 0.001495
0.112213 0.235992 0.002594
0.143768 0.238983 0.004089
0.176025 0.241241 0.005310
0.209076 0.242859 0.006195
0.241791 0.244141 0.006989
0.274231 0.245239 0.007721
0.306396 0.246124 0.008301
0.338318 0.246796 0.008850
0.369934 0.247314 0.009399
0.400909 0.247925 0.009949
0.431549 0.248474 0.010498
0.461884 0.248932 0.011047
0.491791 0.249359 0.011566
0.521484 0.249695 0.012146
0.550903 0.250031 0.012695
0.580170 0.250275 0.013275
0.609009 0.250549 0.013885
0.637695 0.250732 0.014496
0.666168 0.250977 0.015167
0.694427 0.251099 0.015869
0.722473 0.251221 0.016571
0.750366 0.251312 0.017273
0.778137 0.251312 0.018036
0.805695 0.251343 0.018829
0.833069 0.251343 0.019653
0.860260 0.251343 0.020477
0.887390 0.251251 0.021362
0.914429 0.251099 0.022308
0.941284 0.250916 0.023254
0.968079 0.250732 0.024261
0.994873 0.250458 0.025391
0.086517 0.260925 0.001068
0.119324 0.264069 0.002411
0.149780 0.267365 0.004028
0.180817 0.270111 0.005432
0.212952 0.271973 0.006470
0.245209 0.273468 0.007324
0.277496 0.274567 0.008057
0.309143 0.275665 0.008728
0.341156 0.276276 0.009308
0.372223 0.277069 0.009888
0.403015 0.277740 0.010437
0.433502 0.278320 0.010986
0.463684 0.278778 0.011505
0.493591 0.279266 0.012085
0.523254 0.279633 0.012604
0.552490 0.280060 0.013184
0.581665 0.280365 0.013763
0.610321 0.280762 0.014343
0.638947 0.281006 0.014923
0.667419 0.281158 0.015564
0.695587 0.281342 0.016205
0.723541 0.281555 0.016907
0.751282 0.281738 0.017578
0.778961 0.281799 0.018341
0.806335 0.281952 0.019043
0.833740 0.281921 0.019836
0.860840 0.281982 0.020630
0.887878 0.281952 0.021454
0.914734 0.281952 0.022308
0.941467 0.281891 0.023163
0.968201 0.281738 0.024139
0.994720 0.281616 0.025116
0.096558 0.288727 0.000671
0.127563 0.292267 0.002106
0.155731 0.296356 0.003998
0.185974 0.299286 0.005493
0.217102 0.301483 0.006622
0.249023 0.303070 0.007629
0.280731 0.304443 0.008392
0.312408 0.305481 0.009094
0.343597 0.306488 0.009735
0.374603 0.307251 0.010315
0.405365 0.307953 0.010925
0.435730 0.308594 0.011444
0.465759 0.309143 0.012024
0.495544 0.309662 0.012573
0.524872 0.310211 0.013123
0.554199 0.310577 0.013672
0.583252 0.310944 0.014252
0.611908 0.311340 0.014862
0.640442 0.311615 0.015442
0.668640 0.311951 0.016022
0.696686 0.312225 0.016632
0.724548 0.312469 0.017273
0.752350 0.312622 0.017944
0.779816 0.312866 0.018646
0.807220 0.312958 0.019348
0.834473 0.313049 0.020081
0.861542 0.313110 0.020844
0.888428 0.313263 0.021606
0.915314 0.313202 0.022461
0.941925 0.313263 0.023254
0.968536 0.313202 0.024139
0.994965 0.313141 0.025024
0.106750 0.316895 0.000275
0.135681 0.321014 0.001831
0.162018 0.325684 0.003906
0.191437 0.328857 0.005493
0.221771 0.331360 0.006775
0.253052 0.333160 0.007813
0.284454 0.334625 0.008698
0.315582 0.335876 0.009460
0.346466 0.336975 0.010132
0.377197 0.337860 0.010803
0.407776 0.338593 0.011383
0.437988 0.339355 0.011963
0.467865 0.339966 0.012543
0.497406 0.340607 0.013092
0.526886 0.341064 0.013641
0.555969 0.341583 0.014191
0.584717 0.342072 0.014771
0.613403 0.342468 0.015350
0.641907 0.342773 0.015961
0.670135 0.343109 0.016541
0.698029 0.343506 0.017151
0.725830 0.343750 0.017731
0.753540 0.343994 0.018433
0.780945 0.344208 0.019043
0.808319 0.344391 0.019775
0.835358 0.344604 0.020447
0.862396 0.344696 0.021149
0.889221 0.344849 0.021912
0.916016 0.344879 0.022675
0.942596 0.344940 0.023438
0.969086 0.344940 0.024292
0.995361 0.345032 0.025116
0.114746 0.346069 0.000061
0.142853 0.350433 0.001617
0.168671 0.355255 0.003723
0.197083 0.358795 0.005432
0.227173 0.361359 0.006836
0.257355 0.363617 0.007965
0.288208 0.365265 0.008942
0.318909 0.366669 0.009766
0.349640 0.367828 0.010529
0.380035 0.368896 0.011200
0.410370 0.369720 0.011841
0.440216 0.370605 0.012451
0.470123 0.371216 0.013031
0.499634 0.371826 0.013611
0.528839 0.372437 0.014160
0.557770 0.373047 0.014740
0.586609 0.373505 0.015320
0.615173 0.373932 0.015900
0.643463 0.374390 0.016479
0.671570 0.374756 0.017029
0.699432 0.375122 0.017609
0.727234 0.375458 0.018250
0.754730 0.375763 0.018860
0.782227 0.376007 0.019531
0.809387 0.376282 0.020203
0.836426 0.376495 0.020844
0.863403 0.376648 0.021576
0.890137 0.376862 0.022278
0.916748 0.377014 0.022980
0.943390 0.377075 0.023773
0.969727 0.377167 0.024506
0.996033 0.377228 0.025330
0.125214 0.374695 0.000000
0.150024 0.380310 0.001404
0.175293 0.385315 0.003571
0.202789 0.389160 0.005371
0.231812 0.392090 0.006897
0.261627 0.394470 0.008118
0.292023 0.396271 0.009155
0.322357 0.397858 0.010071
0.352783 0.399170 0.010895
0.382904 0.400330 0.011597
0.413055 0.401245 0.012268
0.442810 0.402130 0.012878
0.472443 0.402924 0.013550
0.501801 0.403595 0.014099
0.531006 0.404205 0.014679
0.559814 0.404846 0.015259
0.588562 0.405365 0.015839
0.616852 0.405945 0.016418
0.645111 0.406372 0.016968
0.673157 0.406830 0.017578
0.701111 0.407166 0.018188
0.728699 0.407562 0.018768
0.756104 0.407959 0.019379
0.783447 0.408234 0.020020
0.810577 0.408508 0.020660
0.837616 0.408783 0.021301
0.864471 0.408997 0.021973
0.891235 0.409210 0.022675
0.917755 0.409454 0.023346
0.944275 0.409576 0.024139
0.970581 0.409698 0.024872
0.996765 0.409821 0.025604
0.135345 0.403625 0.000000
0.157990 0.410248 0.001099
0.182220 0.415588 0.003296
0.208405 0.419952 0.005310
0.236755 0.423157 0.006927
0.265961 0.425751 0.008301
0.295898 0.427765 0.009399
0.326080 0.429382 0.010345
0.356110 0.430817 0.011200
0.385956 0.432098 0.011993
0.415741 0.433197 0.012695
0.445557 0.434052 0.013336
0.474762 0.434998 0.013977
0.504089 0.435699 0.014587
0.533051 0.436401 0.015198
0.561829 0.437042 0.015778
0.590515 0.437653 0.016357
0.618713 0.438263 0.016937
0.646881 0.438782 0.017517
0.674835 0.439240 0.018097
0.702637 0.439667 0.018707
0.730194 0.440094 0.019287
0.757629 0.440460 0.019897
0.784851 0.440857 0.020538
0.811951 0.441193 0.021179
0.838928 0.441498 0.021820
0.865692 0.441742 0.022461
0.892365 0.442017 0.023132
0.918884 0.442261 0.023834
0.945251 0.442474 0.024506
0.971436 0.442688 0.025208
0.997650 0.442810 0.025970
0.144806 0.433136 0.000000
0.165619 0.440704 0.000854
0.189178 0.446228 0.003113
0.214722 0.450867 0.005157
0.242279 0.454346 0.006897
0.270813 0.457184 0.008331
0.300201 0.459381 0.009552
0.329712 0.461273 0.010590
0.359406 0.462830 0.011505
0.389038 0.464264 0.012329
0.418671 0.465363 0.013092
0.448212 0.466400 0.013824
0.477386 0.467377 0.014465
0.506409 0.468231 0.015106
0.535339 0.468933 0.015686
0.563934 0.469666 0.016296
0.592468 0.470276 0.016907
0.620575 0.471008 0.017487
0.648712 0.471527 0.018066
0.676544 0.472046 0.018677
0.704376 0.472473 0.019257
0.731842 0.472931 0.019836
0.759094 0.473450 0.020447
0.786377 0.473785 0.021057
0.813324 0.474213 0.021698
0.840271 0.474487 0.022339
0.866943 0.474854 0.022949
0.893524 0.475128 0.023621
0.919983 0.475433 0.024292
0.946381 0.475677 0.024994
0.972595 0.475891 0.025665
0.998657 0.476105 0.026398
0.154419 0.462830 0.000000
0.174133 0.471100 0.000519
0.195892 0.477356 0.002869
0.221069 0.482056 0.004974
0.247711 0.485901 0.006836
0.275787 0.488922 0.008362
0.304504 0.491394 0.009674
0.333557 0.493469 0.010803
0.362823 0.495270 0.011810
0.392334 0.496643 0.012665
0.421661 0.497925 0.013458
0.450958 0.499054 0.014191
0.479950 0.500061 0.014893
0.508972 0.500946 0.015533
0.537689 0.501831 0.016205
0.566193 0.502594 0.016815
0.594543 0.503296 0.017456
0.622620 0.503967 0.018036
0.650543 0.504608 0.018646
0.678467 0.505127 0.019196
0.705994 0.505676 0.019775
0.733521 0.506195 0.020416
0.760712 0.506683 0.021027
0.787872 0.507111 0.021606
0.814789 0.507568 0.022217
0.841644 0.507904 0.022858
0.868286 0.508301 0.023468
0.894806 0.508606 0.024109
0.921265 0.508911 0.024780
0.947540 0.509186 0.025452
0.973663 0.509430 0.026123
0.999695 0.509674 0.026825
0.164032 0.492920 0.000000
0.181519 0.502197 0.000305
0.203339 0.508453 0.002563
0.227173 0.513641 0.004791
0.253418 0.517670 0.006683
0.280914 0.520966 0.008362
0.309021 0.523682 0.009796
0.337646 0.525970 0.011017
0.366699 0.527771 0.012024
0.395813 0.529388 0.012970
0.424805 0.530792 0.013824
0.453796 0.532043 0.014587
0.482788 0.533081 0.015350
0.511353 0.534180 0.016022
0.539917 0.535095 0.016663
0.568390 0.535828 0.017303
0.596649 0.536682 0.017944
0.624817 0.537292 0.018585
0.652618 0.537994 0.019165
0.680267 0.538635 0.019775
0.707794 0.539215 0.020355
0.735107 0.539764 0.020966
0.762360 0.540222 0.021576
0.789368 0.540741 0.022156
0.816376 0.541138 0.022766
0.843048 0.541656 0.023407
0.869751 0.541992 0.024048
0.896210 0.542389 0.024658
0.922577 0.542755 0.025330
0.948792 0.543091 0.025970
0.974915 0.543335 0.026642
1.000000 0.543854 0.028656
0.173462 0.523254 0.000000
0.189178 0.533569 0.000061
0.210236 0.540100 0.002319
0.233643 0.545502 0.004608
0.259033 0.549835 0.006622
0.285583 0.553467 0.008392
0.313599 0.556244 0.009857
0.341858 0.558655 0.011139
0.370514 0.560669 0.012238
0.399323 0.562439 0.013245
0.428070 0.563965 0.014160
0.456818 0.565308 0.014954
0.485504 0.566498 0.015778
0.514130 0.567535 0.016479
0.542542 0.568512 0.017151
0.570801 0.569427 0.017822
0.598907 0.570221 0.018433
0.626801 0.571045 0.019073
0.654694 0.571716 0.019714
0.682312 0.572357 0.020325
0.709747 0.572998 0.020905
0.737000 0.573578 0.021515
0.764130 0.574127 0.022125
0.791138 0.574646 0.022736
0.817932 0.575165 0.023346
0.844666 0.575592 0.023956
0.871185 0.576080 0.024567
0.897614 0.576477 0.025208
0.923859 0.576874 0.025818
0.950104 0.577240 0.026489
0.976166 0.577576 0.027161
1.000000 0.578339 0.031067
0.182587 0.553955 0.000000
0.197266 0.564972 0.000000
0.217560 0.571899 0.002014
0.240051 0.577637 0.004395
0.264832 0.582275 0.006500
0.291199 0.585938 0.008301
0.318298 0.589081 0.009888
0.346069 0.591736 0.011261
0.374481 0.593842 0.012451
0.402832 0.595734 0.013489
0.431458 0.597351 0.014465
0.459839 0.598846 0.015320
0.488464 0.600098 0.016113
0.516815 0.601288 0.016907
0.545044 0.602325 0.017609
0.573212 0.603333 0.018311
0.601227 0.604156 0.018951
0.629059 0.605011 0.019592
0.656708 0.605743 0.020233
0.684204 0.606476 0.020844
0.711639 0.607147 0.021484
0.738861 0.607819 0.022125
0.765930 0.608398 0.022705
0.792816 0.608948 0.023285
0.819580 0.609467 0.023926
0.846222 0.609924 0.024536
0.872772 0.610413 0.025177
0.899139 0.610870 0.025787
0.925323 0.611298 0.026398
0.951508 0.611664 0.027069
0.977478 0.612061 0.027710
1.000000 0.612915 0.034241
0.191620 0.585052 0.000000
0.205750 0.596252 0.000000
0.224304 0.604126 0.001740
0.246643 0.609985 0.004150
0.270599 0.614929 0.006348
0.296600 0.618805 0.008240
0.323029 0.622253 0.009918
0.350586 0.624969 0.011353
0.378357 0.627380 0.012604
0.406586 0.629333 0.013733
0.434845 0.631073 0.014740
0.463043 0.632660 0.015656
0.491394 0.634033 0.016510
0.519501 0.635315 0.017303
0.547638 0.636444 0.018066
0.575714 0.637421 0.018738
0.603607 0.638397 0.019470
0.631378 0.639252 0.020142
0.658875 0.640076 0.020752
0.686310 0.640900 0.021423
0.713623 0.641602 0.022034
0.740723 0.642242 0.022644
0.767761 0.642853 0.023254
0.794647 0.643463 0.023895
0.821320 0.644012 0.024475
0.847900 0.644623 0.025146
0.874359 0.645081 0.025726
0.900665 0.645599 0.026367
0.926880 0.646027 0.027008
0.952881 0.646515 0.027618
0.978851 0.646881 0.028259
1.000000 0.647705 0.038086
0.200989 0.616150 0.000000
0.214478 0.627777 0.000000
0.231720 0.636444 0.001434
0.253448 0.642517 0.003876
0.276855 0.647705 0.006134
0.301971 0.651947 0.008148
0.328064 0.655487 0.009888
0.354980 0.658508 0.011414
0.382416 0.661072 0.012756
0.410278 0.663269 0.013977
0.438293 0.665100 0.015015
0.466248 0.666840 0.016022
0.494446 0.668243 0.016876
0.522369 0.669617 0.017700
0.550354 0.670807 0.018494
0.578308 0.671906 0.019226
0.606049 0.672882 0.019928
0.633698 0.673859 0.020660
0.661133 0.674744 0.021301
0.688477 0.675537 0.021942
0.715668 0.676331 0.022583
0.742737 0.677002 0.023193
0.769623 0.677704 0.023834
0.796387 0.678345 0.024445
0.823090 0.678894 0.025085
0.849609 0.679443 0.025665
0.875977 0.679993 0.026306
0.902252 0.680542 0.026917
0.928406 0.681000 0.027557
0.954407 0.681519 0.028198
0.980347 0.681915 0.028839
1.000000 0.682709 0.042450
0.210083 0.647552 0.000000
0.222961 0.659546 0.000000
0.238953 0.669067 0.001160
0.259796 0.675568 0.003632
0.282928 0.680847 0.005951
0.307251 0.685425 0.008026
0.333038 0.689117 0.009888
0.359497 0.692352 0.011475
0.386658 0.695007 0.012878
0.414032 0.697357 0.014130
0.441803 0.699341 0.015259
0.469696 0.701050 0.016266
0.497498 0.702667 0.017212
0.525360 0.704132 0.018097
0.553284 0.705383 0.018890
0.580933 0.706604 0.019684
0.608521 0.707672 0.020416
0.635986 0.708649 0.021118
0.663422 0.709564 0.021790
0.690704 0.710388 0.022430
0.717743 0.711243 0.023102
0.744781 0.712006 0.023773
0.771606 0.712799 0.024384
0.798309 0.713409 0.025024
0.824982 0.714020 0.025635
0.851349 0.714630 0.026276
0.877655 0.715240 0.026886
0.903900 0.715790 0.027527
0.929962 0.716339 0.028168
0.955994 0.716766 0.028809
0.981842 0.717285 0.029449
1.000000 0.717621 0.047668
0.218689 0.679504 0.000000
0.230988 0.691833 0.000000
0.246277 0.701904 0.000854
0.266541 0.708618 0.003326
0.289124 0.714172 0.005707
0.312897 0.718964 0.007874
0.338043 0.722992 0.009827
0.364288 0.726288 0.011475
0.391144 0.729095 0.012939
0.418121 0.731659 0.014313
0.445587 0.733795 0.015472
0.473206 0.735657 0.016541
0.500763 0.737396 0.017517
0.528442 0.738892 0.018433
0.556061 0.740234 0.019287
0.583649 0.741516 0.020081
0.611206 0.742645 0.020844
0.638519 0.743713 0.021606
0.665771 0.744690 0.022278
0.692932 0.745605 0.022980
0.719940 0.746460 0.023651
0.746796 0.747284 0.024292
0.773560 0.748077 0.024963
0.800232 0.748779 0.025574
0.826782 0.749451 0.026245
0.853180 0.750092 0.026886
0.879456 0.750763 0.027527
0.905609 0.751312 0.028107
0.931610 0.751923 0.028748
0.957550 0.752411 0.029388
0.983337 0.752899 0.030029
1.000000 0.752594 0.054291
0.227631 0.711517 0.000000
0.239288 0.724213 0.000000
0.253357 0.735138 0.000610
0.273132 0.742035 0.003052
0.295074 0.747864 0.005524
0.318512 0.752808 0.007751
0.343353 0.756958 0.009735
0.368988 0.760529 0.011475
0.395508 0.763489 0.013031
0.422211 0.766144 0.014404
0.449310 0.768494 0.015686
0.476654 0.770538 0.016785
0.504150 0.772247 0.017822
0.531616 0.773895 0.018768
0.559052 0.775360 0.019684
0.586426 0.776703 0.020508
0.613800 0.777893 0.021301
0.640991 0.779022 0.022034
0.668182 0.780090 0.022766
0.695282 0.781067 0.023468
0.722168 0.781982 0.024170
0.749023 0.782837 0.024872
0.775696 0.783630 0.025482
0.802246 0.784393 0.026154
0.828705 0.785126 0.026794
0.855011 0.785797 0.027435
0.881256 0.786438 0.028046
0.907318 0.787079 0.028717
0.933289 0.787659 0.029327
0.959229 0.788239 0.029999
0.984955 0.788788 0.030609
1.000000 0.787476 0.062256
0.236267 0.743866 0.000000
0.247620 0.756744 0.000000
0.260620 0.768463 0.000336
0.279999 0.775574 0.002747
0.301483 0.781586 0.005219
0.324524 0.786743 0.007538
0.348724 0.791199 0.009613
0.373993 0.794952 0.011444
0.399933 0.798157 0.013092
0.426422 0.800934 0.014526
0.453217 0.803375 0.015839
0.480347 0.805481 0.016998
0.507477 0.807404 0.018097
0.534760 0.809113 0.019073
0.562042 0.810699 0.020050
0.589355 0.812042 0.020905
0.616547 0.813385 0.021729
0.643616 0.814575 0.022491
