DeferredRenderingProject/Assets/LUTs/Warm.CUBE
#Created by: Adobe Photoshop Export Color Lookup Plugin
TITLE "Warm"
#LUT size
LUT_3D_SIZE 8
#data domain
#LUT data points
DOMAIN_MIN 0.000000 0.000000 0.000000
DOMAIN_MAX 0.903226 0.903226 0.903226
0.000000 0.000000 0.000000
0.176178 0.000854 0.000854
0.314636 0.001648 0.001648
0.440674 0.002502 0.002502
0.559540 0.003418 0.003418
0.673218 0.004364 0.004364
0.783020 0.005341 0.005341
0.889771 0.006348 0.006348
0.026520 0.078979 0.002075
0.188934 0.081604 0.004211
0.326538 0.082611 0.006226
0.453857 0.083038 0.008759
0.576324 0.082092 0.012512
0.695282 0.080078 0.017670
0.813049 0.076263 0.025238
0.932068 0.069397 0.037079
0.057953 0.179840 0.002045
0.200806 0.186584 0.005737
0.333649 0.189240 0.007935
0.458374 0.190857 0.010040
0.577728 0.191650 0.012451
0.692871 0.191956 0.015350
0.805023 0.191620 0.018829
0.914978 0.190521 0.023071
0.096558 0.288727 0.000671
0.217102 0.301483 0.006622
0.343597 0.306488 0.009735
0.465759 0.309143 0.012024
0.583252 0.310944 0.014252
0.696686 0.312225 0.016632
0.807220 0.312958 0.019348
0.915314 0.313202 0.022461
0.135345 0.403625 0.000000
0.236755 0.423157 0.006927
0.356110 0.430817 0.011200
0.474762 0.434998 0.013977
0.590515 0.437653 0.016357
0.702637 0.439667 0.018707
0.811951 0.441193 0.021179
0.918884 0.442261 0.023834
0.173462 0.523254 0.000000
0.259033 0.549835 0.006622
0.370514 0.560669 0.012238
0.485504 0.566498 0.015778
0.598907 0.570221 0.018433
0.709747 0.572998 0.020905
0.817932 0.575165 0.023346
0.923859 0.576874 0.025818
0.210083 0.647552 0.000000
0.282928 0.680847 0.005951
0.386658 0.695007 0.012878
0.497498 0.702667 0.017212
0.608521 0.707672 0.020416
0.717743 0.711243 0.023102
0.824982 0.714020 0.025635
0.929962 0.716339 0.028168
0.244690 0.776611 0.000000
0.307800 0.815552 0.004944
0.404510 0.833008 0.013123
0.510986 0.842773 0.018341
0.619293 0.849091 0.022125
0.726807 0.853607 0.025177
0.832642 0.857147 0.027924
0.936768 0.860016 0.030518
0.019012 0.000000 0.066589
0.181854 0.001312 0.071838
0.318146 0.002441 0.073517
0.443604 0.003418 0.075134
0.562225 0.004486 0.076263
0.675842 0.005524 0.077301
0.785614 0.006592 0.078033
0.892334 0.007751 0.078766
0.042053 0.078522 0.072479
0.194733 0.082611 0.077148
0.330139 0.084137 0.080750
0.457245 0.084595 0.084412
0.579163 0.083893 0.089325
0.698151 0.081909 0.095886
0.815704 0.078217 0.104919
0.935364 0.071106 0.119171
0.071381 0.179718 0.070374
0.207367 0.187897 0.077606
0.337952 0.191193 0.081299
0.461853 0.193054 0.084106
0.580933 0.194000 0.087311
0.695892 0.194427 0.090637
0.808014 0.194244 0.094391
0.917969 0.193237 0.099030
0.107544 0.289825 0.064392
0.223877 0.303589 0.075439
0.348389 0.309174 0.080170
0.469849 0.312073 0.083252
0.586823 0.314148 0.085968
0.700287 0.315491 0.088562
0.810760 0.316376 0.091278
0.918732 0.316895 0.094238
0.142883 0.407623 0.056305
0.243988 0.426453 0.070282
0.361572 0.434753 0.076324
0.479706 0.439087 0.080078
0.595001 0.442017 0.082764
0.706970 0.444183 0.085144
0.816223 0.445923 0.087280
0.923187 0.447144 0.089661
0.178131 0.531647 0.045319
0.267151 0.555115 0.061157
0.377258 0.566376 0.068939
0.491638 0.572418 0.073334
0.604706 0.576355 0.076355
0.715332 0.579315 0.078796
0.823517 0.581604 0.080994
0.929413 0.583649 0.082581
0.213226 0.661407 0.030579
0.292786 0.688873 0.047638
0.395538 0.703308 0.056824
0.505829 0.711212 0.061920
0.616425 0.716461 0.065125
0.725342 0.720367 0.067444
0.832397 0.723389 0.069366
0.937439 0.726013 0.070557
0.248779 0.797333 0.010406
0.320984 0.828217 0.026398
0.416840 0.845825 0.036255
0.522491 0.855957 0.042023
0.630402 0.862518 0.045349
0.737640 0.867310 0.047760
0.843292 0.871185 0.049469
0.947449 0.874481 0.050354
0.047852 0.000000 0.134460
0.191010 0.000916 0.166412
0.323059 0.002533 0.169861
0.447021 0.003754 0.172089
0.564911 0.004913 0.173981
0.678101 0.006042 0.175629
0.787506 0.007172 0.177185
0.893982 0.008331 0.178528
0.068390 0.074310 0.164886
0.205078 0.081146 0.173981
0.335938 0.083832 0.179077
0.461487 0.084595 0.184052
0.582672 0.084015 0.190186
0.701324 0.082092 0.198303
0.818665 0.078308 0.209167
0.937927 0.071259 0.225708
0.092438 0.175659 0.163910
0.216064 0.186554 0.175262
0.342743 0.191040 0.180603
0.465424 0.193237 0.184631
0.583679 0.194489 0.188538
0.698334 0.194885 0.192932
0.810211 0.194641 0.197968
0.919830 0.193695 0.203766
0.121735 0.286743 0.160645
0.231110 0.302307 0.175018
0.352783 0.308807 0.181549
0.472809 0.312164 0.185669
0.589233 0.314362 0.189270
0.702240 0.315826 0.192841
0.812347 0.316742 0.196472
0.920166 0.317200 0.200684
0.153046 0.404724 0.155457
0.250183 0.424805 0.172943
0.365204 0.433899 0.181061
0.482147 0.438660 0.185760
0.596741 0.441772 0.189453
0.708374 0.444000 0.192780
0.817413 0.445679 0.196167
0.924011 0.446930 0.199493
0.185272 0.528351 0.148682
0.271210 0.552856 0.168701
0.379700 0.564697 0.178528
0.493195 0.571045 0.184357
0.605621 0.575195 0.188385
0.715912 0.578156 0.191864
0.823761 0.580505 0.195099
0.929504 0.582458 0.198120
0.216949 0.657135 0.140381
0.295135 0.685120 0.162170
0.396393 0.700104 0.174225
0.505859 0.708282 0.181000
0.615967 0.713623 0.185730
0.724579 0.717499 0.189514
0.831329 0.720581 0.192688
0.936157 0.722992 0.195770
0.248810 0.790192 0.130554
0.319977 0.821503 0.153778
0.414856 0.839569 0.167603
0.519989 0.849854 0.175659
0.627472 0.856537 0.181000
0.734344 0.861328 0.185120
0.839935 0.865021 0.188629
0.943817 0.868042 0.191589
0.083191 0.000000 0.190460
0.204346 0.000061 0.270203
0.330322 0.002228 0.275848
0.451935 0.003815 0.279144
0.568604 0.005188 0.281738
0.681122 0.006439 0.283905
0.790131 0.007660 0.285889
0.896301 0.008850 0.287689
0.105042 0.067017 0.264557
0.219421 0.078430 0.279907
0.344543 0.082489 0.287506
0.467682 0.083893 0.293823
0.587769 0.083588 0.301086
0.705872 0.081696 0.310364
0.823120 0.077881 0.322784
0.943359 0.069977 0.342560
0.121399 0.169037 0.264709
0.228882 0.184021 0.281342
0.350189 0.190094 0.288788
0.470642 0.192993 0.293976
0.587982 0.194397 0.298828
0.701965 0.195038 0.303986
0.813324 0.194977 0.309784
0.922760 0.194061 0.316376
0.144501 0.281036 0.263184
0.242767 0.299835 0.281860
0.359680 0.307861 0.290558
0.477722 0.311890 0.295776
0.593079 0.314484 0.300110
0.705444 0.316132 0.304321
0.815094 0.317230 0.308716
0.922668 0.317657 0.313477
0.170288 0.400208 0.260132
0.260406 0.422455 0.281006
0.371765 0.432831 0.291107
0.486633 0.438385 0.297028
0.600342 0.441772 0.301483
0.711365 0.444214 0.305481
0.819855 0.446106 0.309418
0.926239 0.447418 0.313385
0.198547 0.524628 0.255432
0.280640 0.550385 0.278351
0.385773 0.563446 0.290344
0.497467 0.570496 0.297241
0.608978 0.575043 0.302185
0.718536 0.578308 0.306305
0.825958 0.580811 0.310028
0.931427 0.582794 0.313751
0.227417 0.653778 0.249390
0.302887 0.682678 0.274109
0.401764 0.698578 0.288086
0.509613 0.707520 0.296082
0.618805 0.713226 0.301666
0.726898 0.717285 0.306091
0.833221 0.720490 0.309998
0.937714 0.723022 0.313599
0.256775 0.787140 0.242218
0.326691 0.818817 0.268341
0.419525 0.837677 0.284119
0.523254 0.848541 0.293610
0.629852 0.855621 0.299927
0.736267 0.860565 0.304810
0.841400 0.864471 0.308868
0.944977 0.867615 0.312622
0.113373 0.000000 0.253632
0.219086 0.000000 0.365509
0.339905 0.001556 0.388428
0.458313 0.003571 0.393127
0.573456 0.005219 0.396576
0.684967 0.006622 0.399292
0.793396 0.007996 0.401794
0.899078 0.009277 0.404022
0.140350 0.059387 0.371796
0.238861 0.073944 0.392639
0.356323 0.079987 0.403198
0.476196 0.082184 0.411224
0.595001 0.082214 0.419830
0.712311 0.080414 0.430450
0.829742 0.076202 0.444977
0.950012 0.068146 0.466858
0.151306 0.161774 0.371918
0.246368 0.179749 0.393188
0.360687 0.187897 0.403625
0.477997 0.191803 0.410187
0.593475 0.193878 0.415985
0.706604 0.194763 0.421997
0.817474 0.194794 0.428497
0.926392 0.194061 0.435760
0.169495 0.274475 0.371613
0.258606 0.295746 0.394165
0.369446 0.305756 0.405396
0.484558 0.310883 0.412170
0.598206 0.314087 0.417419
0.709686 0.316071 0.422272
0.818726 0.317383 0.427246
0.925873 0.317963 0.432648
0.191132 0.394470 0.369873
0.274780 0.418610 0.394012
0.380737 0.430847 0.406647
0.493103 0.437378 0.413910
0.605194 0.441437 0.419342
0.715363 0.444183 0.423981
0.823273 0.446320 0.428497
0.929199 0.447784 0.432983
0.216064 0.519562 0.366638
0.293182 0.546906 0.392517
0.394379 0.561462 0.406738
0.503510 0.569550 0.414978
0.613586 0.574646 0.420776
0.722290 0.578278 0.425537
0.829193 0.580963 0.429871
0.934265 0.583130 0.434082
0.241669 0.649536 0.362335
0.314148 0.679382 0.389526
0.409698 0.696594 0.405457
0.515350 0.706482 0.414978
0.623199 0.712708 0.421387
0.730499 0.717163 0.426483
0.836243 0.720581 0.430939
0.940369 0.723267 0.434998
0.268921 0.783264 0.356598
0.336426 0.815765 0.385284
0.426758 0.835632 0.402985
0.528625 0.847351 0.413757
0.633972 0.854980 0.421021
0.739532 0.860352 0.426605
0.844269 0.864441 0.431274
0.947418 0.867737 0.435516
0.141235 0.000000 0.321350
0.236115 0.000000 0.456390
0.352081 0.000519 0.505707
0.466431 0.002991 0.512268
0.579376 0.004974 0.516754
0.689667 0.006653 0.520203
0.797302 0.008179 0.523163
0.902405 0.009613 0.525787
0.175446 0.051331 0.485535
0.262085 0.068146 0.510773
0.371552 0.076111 0.524750
0.487762 0.079224 0.535095
0.604126 0.079926 0.544983
0.720490 0.078217 0.557159
0.838013 0.073700 0.573975
0.958771 0.065125 0.598572
0.182251 0.153687 0.484406
0.266937 0.174255 0.509796
0.373840 0.184570 0.523376
0.487457 0.189697 0.531982
0.600677 0.192535 0.538818
0.712494 0.193909 0.545593
0.822571 0.194153 0.552856
0.931091 0.193481 0.561005
0.196533 0.266968 0.484680
0.277710 0.290344 0.510864
0.381836 0.302551 0.525085
0.493225 0.309021 0.533569
0.604919 0.312927 0.539978
0.715057 0.315430 0.545685
0.823364 0.316986 0.551270
0.929871 0.317871 0.557037
0.215057 0.387360 0.483887
0.292084 0.413544 0.511292
0.392365 0.427826 0.526550
0.501373 0.435577 0.535553
0.611420 0.440491 0.542053
0.720337 0.443756 0.547455
0.827545 0.446136 0.552551
0.932953 0.447815 0.557587
0.236053 0.513489 0.482056
0.308990 0.542084 0.510529
0.405212 0.558533 0.527222
0.511230 0.567871 0.537048
0.619568 0.573700 0.543976
0.727142 0.577850 0.549500
0.833282 0.580841 0.554382
0.937805 0.583191 0.559082
0.259338 0.643982 0.478821
0.327881 0.675201 0.508636
0.419708 0.693848 0.526733
0.522736 0.704803 0.537750
0.628937 0.711731 0.545197
0.735107 0.716736 0.551056
0.840179 0.720459 0.556061
0.943817 0.723358 0.560669
0.284119 0.778320 0.474426
0.348999 0.811768 0.505371
0.436157 0.832886 0.525146
0.535553 0.845703 0.537323
0.639465 0.853973 0.545685
0.743988 0.859802 0.551910
0.847931 0.864258 0.557220
0.950653 0.867767 0.561920
0.168030 0.000000 0.391266
0.254944 0.000000 0.545319
0.364685 0.000000 0.620728
0.476074 0.002106 0.635559
0.586487 0.004517 0.641327
0.695282 0.006439 0.645599
0.801910 0.008179 0.649170
0.906372 0.009735 0.652222
0.210815 0.042847 0.605011
0.288086 0.061249 0.634125
0.389832 0.071014 0.651642
0.501740 0.075165 0.664490
0.615784 0.076385 0.676361
0.731567 0.074524 0.690979
0.849548 0.069305 0.710999
0.969849 0.060791 0.737488
0.213501 0.145203 0.601654
0.289673 0.167816 0.630707
0.389374 0.180267 0.647491
0.498657 0.186768 0.658203
0.609528 0.190369 0.666534
0.719849 0.192230 0.674316
0.828918 0.192871 0.682343
0.936707 0.192413 0.691101
0.224823 0.258698 0.601990
0.298798 0.284058 0.631470
0.396301 0.298431 0.648743
0.503571 0.306366 0.659210
0.612915 0.311188 0.666962
0.721619 0.314209 0.673492
0.828979 0.316162 0.679871
0.934784 0.317322 0.686279
0.240448 0.379547 0.601898
0.311554 0.407501 0.632233
0.405975 0.423828 0.650330
0.511230 0.433014 0.661224
0.619019 0.438843 0.669006
0.726532 0.442719 0.675293
0.832764 0.445496 0.681030
0.937469 0.447510 0.686584
0.258575 0.506256 0.600922
0.326996 0.536316 0.632019
0.418152 0.554626 0.651276
0.520874 0.565308 0.662994
0.626831 0.572144 0.671112
0.732971 0.576874 0.677460
0.838257 0.580353 0.683014
0.942078 0.582977 0.688263
0.279266 0.637421 0.598816
0.344421 0.669739 0.630859
0.432098 0.690033 0.651276
0.531921 0.702301 0.664063
0.635925 0.710236 0.672729
0.740814 0.715790 0.679443
0.844940 0.719971 0.685120
0.947906 0.723206 0.690216
0.301544 0.772430 0.595520
0.363892 0.806763 0.628510
0.447662 0.829224 0.650360
0.544250 0.843292 0.664276
0.646240 0.852417 0.673737
0.749512 0.858856 0.680878
0.852539 0.863800 0.686829
0.954681 0.867554 0.692017
0.193695 0.000000 0.464264
0.274963 0.000000 0.632050
0.377594 0.000000 0.727448
0.487335 0.001038 0.762207
0.594879 0.003723 0.769409
0.701843 0.006012 0.774689
0.807312 0.007965 0.778961
0.910919 0.009735 0.782562
0.246307 0.034058 0.730347
0.317230 0.053040 0.762817
0.411804 0.064270 0.783966
0.519135 0.069519 0.799652
0.630798 0.071167 0.814087
0.745453 0.069366 0.831360
0.863922 0.063416 0.855194
0.974823 0.060455 0.871185
0.244629 0.136444 0.723297
0.314331 0.160492 0.755432
0.407410 0.174805 0.775391
0.512054 0.182800 0.788483
0.619934 0.187408 0.798218
0.728424 0.189941 0.807190
0.836487 0.190857 0.816284
0.943604 0.190613 0.826019
0.253235 0.250061 0.723145
0.321686 0.276855 0.755524
0.412933 0.293335 0.775879
0.515900 0.302765 0.788544
0.622437 0.308594 0.797791
0.729309 0.312347 0.805420
0.835510 0.314758 0.812561
0.940491 0.316254 0.819611
0.266479 0.371246 0.723450
0.332916 0.400513 0.756439
0.421722 0.418854 0.777283
0.522949 0.429565 0.790344
0.627991 0.436462 0.799530
0.733734 0.441101 0.806824
0.838867 0.444336 0.813385
0.942780 0.446716 0.819519
0.282349 0.498413 0.723236
0.346741 0.529663 0.756683
0.433044 0.549774 0.778442
0.531891 0.562042 0.792206
0.635498 0.569855 0.801758
0.740021 0.575348 0.809082
0.844086 0.579315 0.815399
0.947174 0.582336 0.821228
0.300934 0.629974 0.721802
0.362762 0.663391 0.756104
0.446075 0.685394 0.778931
0.542419 0.699127 0.793579
0.644257 0.708069 0.803619
0.747528 0.714325 0.811279
0.850586 0.718994 0.817627
0.952820 0.722534 0.823364
0.321014 0.765625 0.719543
0.380737 0.800812 0.754486
0.460815 0.824799 0.778473
0.554474 0.840149 0.794159
0.654236 0.850311 0.804993
0.755981 0.857483 0.813049
0.858063 0.862823 0.819702
0.959351 0.867065 0.825500
