DeferredRenderingProject/Assets/LUTs/Warm.CUBE
#Created by: Adobe Photoshop Export Color Lookup Plugin
TITLE "Warm"
#LUT size
LUT_3D_SIZE 5
#data domain
#LUT data points
DOMAIN_MIN 0.000000 0.000000 0.000000
DOMAIN_MAX 0.903226 0.903226 0.903226
0.000000 0.000000 0.000000
0.281311 0.001434 0.001434
0.500702 0.002960 0.002960
0.700989 0.004608 0.004608
0.889771 0.006348 0.006348
0.048798 0.153839 0.002289
0.298767 0.161072 0.006958
0.517303 0.163177 0.010803
0.720947 0.163055 0.016205
0.916138 0.160645 0.024139
0.114746 0.346069 0.000061
0.318909 0.366669 0.009766
0.528839 0.372437 0.014160
0.727234 0.375458 0.018250
0.916748 0.377014 0.022980
0.182587 0.553955 0.000000
0.346069 0.591736 0.011261
0.545044 0.602325 0.017609
0.738861 0.607819 0.022125
0.925323 0.611298 0.026398
0.244690 0.776611 0.000000
0.378998 0.829559 0.011383
0.565125 0.846222 0.020355
0.753387 0.854614 0.025879
0.936768 0.860016 0.030518
0.040405 0.000000 0.118103
0.289154 0.002228 0.144073
0.505829 0.004242 0.147583
0.705170 0.006195 0.150299
0.893524 0.008179 0.152618
0.080109 0.150330 0.140045
0.307098 0.162659 0.153381
0.522980 0.165497 0.160156
0.725708 0.165741 0.168243
0.920563 0.163544 0.178772
0.133728 0.345734 0.133240
0.327209 0.369354 0.153870
0.534637 0.375977 0.161041
0.732147 0.379364 0.166718
0.921417 0.381134 0.172729
0.190643 0.560913 0.120697
0.354919 0.596100 0.148315
0.551788 0.607483 0.158020
0.744720 0.613342 0.163940
0.930756 0.617188 0.169037
0.247620 0.791107 0.102448
0.389130 0.836609 0.135376
0.573425 0.854004 0.148560
0.760834 0.862793 0.155701
0.943848 0.868530 0.160828
0.098480 0.000000 0.222015
0.304260 0.001373 0.330017
0.513489 0.004517 0.336914
0.710449 0.006897 0.341431
0.897614 0.009094 0.345032
0.132111 0.138733 0.317627
0.323151 0.159973 0.343231
0.531769 0.164948 0.353729
0.732147 0.165863 0.364197
0.925873 0.163971 0.377502
0.167938 0.337036 0.315796
0.340973 0.366852 0.345886
0.542236 0.375732 0.356628
0.737549 0.379852 0.364410
0.925629 0.381989 0.372284
0.213196 0.554382 0.309387
0.366730 0.593262 0.345032
0.558411 0.606659 0.358429
0.749237 0.613342 0.366516
0.934235 0.617584 0.373474
0.262482 0.785248 0.298950
0.398254 0.832916 0.339813
0.578552 0.852051 0.356903
0.764069 0.861603 0.366394
0.946106 0.867615 0.373535
0.148010 0.000000 0.338501
0.326477 0.000000 0.528961
0.525085 0.003906 0.545319
0.718048 0.007050 0.552002
0.903351 0.009644 0.556946
0.187714 0.124756 0.513306
0.348755 0.153473 0.551086
0.545990 0.162048 0.566895
0.742310 0.164307 0.580231
0.934357 0.162781 0.596069
0.211823 0.324493 0.513519
0.363495 0.360870 0.553467
0.554596 0.373474 0.569183
0.746033 0.379150 0.579437
0.932190 0.382050 0.588989
0.246918 0.544037 0.510803
0.386566 0.587708 0.554382
0.569702 0.604645 0.572418
0.756958 0.612854 0.582916
0.940216 0.617828 0.591461
0.288086 0.777008 0.504517
0.415527 0.827759 0.551971
0.589081 0.849792 0.573425
0.771332 0.860870 0.585327
0.951569 0.867767 0.594055
0.193695 0.000000 0.464264
0.350342 0.000000 0.709900
0.540985 0.002441 0.766144
0.728333 0.006500 0.775818
0.910919 0.009735 0.782562
0.243347 0.109650 0.723816
0.381866 0.143829 0.771881
0.566101 0.156372 0.794647
0.756836 0.160370 0.811676
0.946350 0.159607 0.830322
0.259521 0.309784 0.723358
0.392883 0.351776 0.772339
0.571869 0.368896 0.794312
0.757813 0.376801 0.807739
0.941254 0.380768 0.819183
0.287048 0.530762 0.722931
0.413177 0.579010 0.774109
0.585602 0.600403 0.797852
0.767731 0.610901 0.811310
0.948425 0.616943 0.821716
0.321014 0.765625 0.719543
0.439178 0.819763 0.773407
0.603973 0.845642 0.799957
0.781586 0.858917 0.814789
0.959351 0.867065 0.825500
