Assets/LUTs/Cool.CUBE
#Created by: Adobe Photoshop Export Color Lookup Plugin
TITLE "Cool"
#LUT size
LUT_3D_SIZE 5
#data domain
#LUT data points
DOMAIN_MIN 0.000000 0.000000 0.000000
DOMAIN_MAX 0.903226 0.903226 0.903226
0.408997 0.500214 0.799225
0.401276 0.491943 0.791199
0.401276 0.491943 0.791199
0.404999 0.496124 0.795258
0.433746 0.528534 0.812225
0.194580 0.248749 0.510834
0.155609 0.208679 0.462891
0.151886 0.193146 0.432098
0.154327 0.195679 0.415558
0.148407 0.189636 0.427765
0.100189 0.169891 0.398041
0.141510 0.212158 0.451355
0.121704 0.190399 0.420532
0.094116 0.162720 0.384674
0.099335 0.165375 0.380249
0.751923 0.744049 0.943848
0.743591 0.757080 0.948242
0.839630 0.837860 1.000000
0.898315 0.874695 1.000000
0.877991 0.861237 1.000000
0.948395 0.955597 1.000000
0.961884 0.963806 1.000000
0.952057 0.954285 1.000000
0.989349 0.992157 1.000000
0.952087 0.952026 1.000000
0.415131 0.509155 0.814667
0.403809 0.496643 0.802704
0.404999 0.496124 0.795258
0.422333 0.515991 0.800293
0.442566 0.536407 0.812744
0.168060 0.225891 0.468323
0.159973 0.219116 0.463837
0.161316 0.214996 0.455048
0.157654 0.211456 0.450592
0.151001 0.192078 0.411102
0.137604 0.212341 0.451538
0.113220 0.187561 0.420715
0.116577 0.182617 0.402740
0.131531 0.189209 0.411316
0.108124 0.176331 0.402557
0.805939 0.797028 0.976227
0.785828 0.774597 0.956909
0.849335 0.848022 1.000000
0.892059 0.878052 1.000000
0.885406 0.860229 1.000000
0.960388 0.966858 1.000000
0.951630 0.953369 1.000000
0.970795 0.974670 1.000000
0.967529 0.970886 1.000000
0.961884 0.963806 1.000000
0.424103 0.516937 0.815125
0.420227 0.512756 0.811127
0.424103 0.516937 0.815125
0.433746 0.528534 0.812225
0.442566 0.536407 0.812744
0.106750 0.160339 0.357574
0.098450 0.151276 0.308350
0.110779 0.158691 0.330902
0.097748 0.144867 0.311890
0.072357 0.117798 0.264435
0.144775 0.219452 0.460266
0.144775 0.219452 0.460266
0.134827 0.204895 0.442535
0.132568 0.190247 0.428284
0.121704 0.190399 0.420532
0.847717 0.834442 1.000000
0.822479 0.806061 0.984039
0.854156 0.853119 1.000000
0.883026 0.867432 1.000000
0.893860 0.871094 1.000000
0.949371 0.957092 1.000000
0.956726 0.958435 1.000000
0.956940 0.960968 1.000000
0.962189 0.965912 1.000000
0.961884 0.963806 1.000000
0.436096 0.529236 0.823303
0.420868 0.512451 0.807404
0.432312 0.525055 0.819397
0.433746 0.528534 0.812225
0.442566 0.536407 0.812744
0.192505 0.248718 0.445435
0.100281 0.151917 0.321686
0.099426 0.145569 0.325348
0.116272 0.162689 0.348816
0.131348 0.187866 0.385651
0.179871 0.256134 0.503876
0.158813 0.233948 0.477783
0.157379 0.227417 0.481384
0.150238 0.220184 0.472626
0.149445 0.218964 0.455841
0.864655 0.846161 1.000000
0.830444 0.806274 0.987549
0.839630 0.837860 1.000000
0.887482 0.872772 1.000000
0.889618 0.865692 1.000000
0.949371 0.957092 1.000000
0.958221 0.960571 1.000000
0.949371 0.957092 1.000000
0.962189 0.965912 1.000000
0.961884 0.963806 1.000000
0.443726 0.537628 0.831207
0.447510 0.541870 0.835175
0.448944 0.545410 0.828125
0.437622 0.532715 0.816193
0.438507 0.540558 0.813110
0.098907 0.152527 0.330719
0.119110 0.173248 0.358490
0.098358 0.145996 0.334259
0.131897 0.180664 0.380463
0.075592 0.130371 0.324585
0.167419 0.245850 0.499298
0.188782 0.268097 0.525055
0.162170 0.237732 0.482178
0.137604 0.212341 0.451538
0.162811 0.233826 0.477600
0.856750 0.844025 1.000000
0.842987 0.828430 0.999695
0.847473 0.833618 1.000000
0.865875 0.855682 1.000000
0.897736 0.869629 1.000000
0.968079 0.971466 1.000000
0.957428 0.961548 1.000000
0.981476 0.985413 1.000000
0.960907 0.967438 1.000000
0.970795 0.974670 1.000000
