Assets/LUTs/Cool.CUBE
#Created by: Adobe Photoshop Export Color Lookup Plugin
TITLE "Cool"
#LUT size
LUT_3D_SIZE 32
#data domain
DOMAIN_MIN 0.0 0.0 0.0
DOMAIN_MAX 1.0 1.0 1.0
#LUT data points
0.408997 0.500214 0.799225
0.408997 0.500214 0.799225
0.408997 0.500214 0.799225
0.404999 0.496124 0.795258
0.404999 0.496124 0.795258
0.404999 0.496124 0.795258
0.401276 0.491943 0.791199
0.401276 0.491943 0.791199
0.401276 0.491943 0.791199
0.404999 0.496124 0.795258
0.404999 0.496124 0.795258
0.404999 0.496124 0.795258
0.401276 0.491943 0.791199
0.401276 0.491943 0.791199
0.401276 0.491943 0.791199
0.397522 0.487762 0.787231
0.397522 0.487762 0.787231
0.401276 0.491943 0.791199
0.401276 0.491943 0.791199
0.401276 0.491943 0.791199
0.404999 0.496124 0.795258
0.404999 0.496124 0.795258
0.404999 0.496124 0.795258
0.408997 0.500214 0.799225
0.408997 0.500214 0.799225
0.413361 0.504120 0.799500
0.418579 0.511749 0.796295
0.426208 0.520111 0.804291
0.433746 0.528534 0.812225
0.437622 0.532715 0.816193
0.437622 0.532715 0.816193
0.442566 0.536407 0.812744
0.451385 0.546051 0.839172
0.447510 0.541870 0.835175
0.447510 0.541870 0.835175
0.447510 0.541870 0.835175
0.447510 0.541870 0.835175
0.451385 0.546051 0.839172
0.451385 0.546051 0.839172
0.451385 0.546051 0.839172
0.451385 0.546051 0.839172
0.452881 0.549561 0.832031
0.452881 0.549561 0.832031
0.452881 0.549561 0.832031
0.452881 0.549561 0.832031
0.452881 0.549561 0.832031
0.452881 0.549561 0.832031
0.452881 0.549561 0.832031
0.452881 0.549561 0.832031
0.456696 0.553741 0.835999
0.452881 0.549561 0.832031
0.452881 0.549561 0.832031
0.452881 0.549561 0.832031
0.452881 0.549561 0.832031
0.448944 0.545410 0.828125
0.448944 0.545410 0.828125
0.448944 0.545410 0.828125
0.446198 0.548981 0.821106
0.446198 0.548981 0.821106
0.446198 0.548981 0.821106
0.446198 0.548981 0.821106
0.446198 0.548981 0.821106
0.446198 0.548981 0.821106
0.446198 0.548981 0.821106
0.403198 0.500946 0.806763
0.404785 0.504364 0.799622
0.404785 0.504364 0.799622
0.404785 0.504364 0.799622
0.404785 0.504364 0.799622
0.408630 0.508545 0.803589
0.416260 0.516876 0.811523
0.420593 0.520813 0.811798
0.424438 0.524994 0.815765
0.437622 0.532715 0.816193
0.441376 0.536896 0.820129
0.445221 0.541107 0.824127
0.452881 0.549561 0.832031
0.456696 0.553741 0.835999
0.456696 0.553741 0.835999
0.456696 0.553741 0.835999
0.456696 0.553741 0.835999
0.460449 0.558105 0.839996
0.460449 0.558105 0.839996
0.460449 0.558105 0.839996
0.460449 0.558105 0.839996
0.460449 0.558105 0.839996
0.460449 0.558105 0.839996
0.460449 0.558105 0.839996
0.460449 0.558105 0.839996
0.473846 0.557465 0.836151
0.473846 0.557465 0.836151
0.461731 0.557495 0.832581
0.461731 0.557495 0.832581
0.461731 0.557495 0.832581
0.457947 0.553223 0.828644
0.457947 0.553223 0.828644
0.395569 0.492676 0.798828
0.401031 0.500244 0.795654
0.401031 0.500244 0.795654
0.404785 0.504364 0.799622
0.412415 0.512726 0.807587
0.416260 0.516876 0.811523
0.419952 0.521118 0.815521
0.424438 0.524994 0.815765
0.428162 0.529205 0.819763
0.435455 0.529480 0.827057
0.439240 0.533722 0.830963
0.443024 0.537964 0.834930
0.446899 0.542145 0.838928
0.450745 0.546326 0.842865
0.450745 0.546326 0.842865
0.447510 0.541870 0.835175
0.447510 0.541870 0.835175
0.455231 0.550323 0.843109
0.455231 0.550323 0.843109
0.456696 0.553741 0.835999
0.460449 0.558105 0.839996
0.460449 0.558105 0.839996
0.460449 0.558105 0.839996
0.464386 0.562256 0.843903
0.464386 0.562256 0.843903
0.466248 0.548981 0.828186
0.466248 0.548981 0.828186
0.457947 0.553223 0.828644
0.461731 0.557495 0.832581
0.461731 0.557495 0.832581
0.461731 0.557495 0.832581
0.465576 0.561707 0.836548
0.305695 0.377686 0.673859
0.296631 0.378235 0.678009
0.298645 0.382904 0.689941
0.306152 0.390839 0.697998
0.309937 0.394775 0.702118
0.318817 0.402191 0.702545
0.327026 0.409912 0.706848
0.340485 0.413055 0.703064
0.344055 0.417206 0.707123
0.330566 0.413971 0.710846
0.334259 0.418060 0.714966
0.338104 0.421997 0.719025
0.341797 0.426086 0.723053
0.349274 0.434204 0.731201
0.353088 0.438232 0.735229
0.366638 0.441467 0.731537
0.370300 0.445557 0.735565
0.392761 0.470215 0.759796
0.396759 0.474274 0.763794
0.409576 0.481964 0.764282
0.420929 0.494354 0.776306
0.424744 0.498596 0.780334
0.428528 0.502716 0.784332
0.432281 0.506958 0.788391
0.432281 0.506958 0.788391
0.490570 0.578064 0.844910
0.499390 0.586060 0.845490
0.507050 0.594635 0.853363
0.518616 0.607574 0.865173
0.526337 0.616150 0.873016
0.534088 0.624786 0.880890
0.537994 0.629089 0.884796
0.404785 0.504364 0.799622
0.408997 0.500214 0.799225
0.416504 0.508575 0.807159
0.424713 0.516663 0.811401
0.432312 0.525055 0.819397
0.428406 0.520844 0.815338
0.428406 0.520844 0.815338
0.440826 0.524780 0.819214
0.444580 0.529022 0.823181
0.444580 0.529022 0.823181
0.448425 0.533203 0.827148
0.448425 0.533203 0.827148
0.452240 0.537384 0.831055
0.456146 0.541565 0.835083
0.459930 0.545807 0.838989
0.464996 0.549561 0.835602
0.464996 0.549561 0.835602
0.468842 0.553741 0.839539
0.472626 0.558014 0.843475
0.477631 0.561676 0.839996
0.481628 0.565857 0.844025
0.489288 0.574402 0.851898
0.496765 0.583008 0.859833
0.500671 0.587250 0.863739
0.504486 0.591553 0.867676
0.517731 0.599487 0.868195
0.518860 0.599030 0.860931
0.522675 0.603333 0.864838
0.530426 0.611908 0.872711
0.534241 0.616211 0.876648
0.538208 0.620575 0.880585
0.542023 0.624908 0.884491
0.414398 0.521790 0.823029
0.414398 0.521790 0.823029
0.414398 0.521790 0.823029
0.410522 0.517609 0.819092
0.406738 0.513428 0.815125
0.402924 0.509277 0.811157
0.402924 0.509277 0.811157
0.402924 0.509277 0.811157
0.402924 0.509277 0.811157
0.402924 0.509277 0.811157
0.402924 0.509277 0.811157
0.406738 0.513428 0.815125
0.406738 0.513428 0.815125
0.416260 0.516876 0.811523
0.419952 0.521118 0.815521
0.419952 0.521118 0.815521
0.419952 0.521118 0.815521
0.420227 0.512756 0.811127
0.427856 0.521118 0.819122
0.432312 0.525055 0.819397
0.432312 0.525055 0.819397
0.436096 0.529236 0.823303
0.439941 0.533417 0.827271
0.459930 0.545807 0.838989
0.471466 0.558502 0.850830
0.472626 0.558014 0.843475
0.481628 0.565857 0.844025
0.490570 0.578064 0.844910
0.494446 0.582306 0.848846
0.494446 0.582306 0.848846
0.498352 0.586578 0.852844
0.502106 0.590851 0.856720
0.194580 0.248749 0.510834
0.158905 0.212433 0.467285
0.162354 0.216003 0.471680
0.162354 0.216003 0.471680
0.162354 0.216003 0.471680
0.162354 0.216003 0.471680
0.158905 0.212433 0.467285
0.155609 0.208679 0.462891
0.157166 0.208069 0.454498
0.154266 0.193665 0.440552
0.154266 0.193665 0.440552
0.154266 0.193665 0.440552
0.154266 0.193665 0.440552
0.151886 0.193146 0.432098
0.151886 0.193146 0.432098
0.148407 0.189636 0.427765
0.145050 0.186066 0.423157
0.139435 0.178467 0.405579
0.142609 0.182098 0.410156
0.146027 0.185669 0.414795
0.149841 0.189026 0.419128
0.154327 0.195679 0.415558
0.157959 0.199219 0.419983
0.157959 0.199219 0.419983
0.156464 0.196259 0.428131
0.158752 0.200317 0.441071
0.155273 0.196777 0.436646
0.151886 0.193146 0.432098
0.148407 0.189636 0.427765
0.148407 0.189636 0.427765
0.145050 0.186066 0.423157
0.145050 0.186066 0.423157
0.098755 0.153992 0.357147
0.122406 0.178223 0.389160
0.112488 0.167633 0.375397
0.105560 0.160828 0.366333
0.109070 0.164215 0.370819
0.112488 0.167633 0.375397
0.105560 0.160828 0.366333
0.105560 0.160828 0.366333
0.109070 0.164215 0.370819
0.122864 0.171143 0.384033
0.128357 0.178680 0.401733
0.134918 0.185822 0.410919
0.145264 0.196442 0.424286
0.148926 0.199951 0.428772
0.148926 0.199951 0.428772
0.148926 0.199951 0.428772
0.145264 0.196442 0.424286
0.183563 0.236389 0.473145
0.187256 0.239960 0.477417
0.194519 0.247223 0.486237
0.204895 0.258575 0.499359
0.212006 0.266052 0.508057
0.215668 0.269745 0.512421
0.219177 0.273529 0.516693
0.219177 0.273529 0.516693
0.199707 0.259186 0.507629
0.202484 0.263214 0.516052
0.205933 0.267059 0.520416
0.209595 0.270721 0.524689
0.205933 0.267059 0.520416
0.202484 0.263214 0.516052
0.198792 0.259583 0.511780
0.406006 0.497345 0.813843
0.394257 0.493286 0.806366
0.390503 0.489105 0.802368
0.381470 0.481445 0.801971
0.373871 0.473236 0.793976
0.365906 0.469299 0.790161
0.362091 0.465179 0.786133
0.362091 0.465179 0.786133
0.362091 0.465179 0.786133
0.357391 0.473633 0.790710
0.353699 0.469452 0.786682
0.349854 0.465393 0.782776
0.346008 0.461395 0.778809
0.358276 0.461121 0.782196
0.362091 0.465179 0.786133
0.367523 0.472595 0.782837
0.375122 0.480835 0.790833
0.386780 0.484955 0.798431
0.386780 0.484955 0.798431
0.388123 0.484375 0.790863
0.388123 0.484375 0.790863
0.392426 0.484222 0.790771
0.388550 0.480133 0.786804
0.380981 0.471863 0.778748
0.380981 0.471863 0.778748
0.386200 0.475403 0.775238
0.386200 0.475403 0.775238
0.382446 0.471252 0.771210
0.382446 0.471252 0.771210
0.382446 0.471252 0.771210
0.378754 0.467133 0.767212
0.378754 0.467133 0.767212
0.463684 0.550110 0.842987
0.427856 0.521118 0.819122
0.420227 0.512756 0.811127
0.411346 0.504913 0.810638
0.403809 0.496643 0.802704
0.398041 0.497406 0.810333
0.394257 0.493286 0.806366
0.390503 0.489105 0.802368
0.382813 0.480896 0.794373
0.407074 0.505096 0.810760
0.399445 0.496796 0.802826
0.388123 0.484375 0.790863
0.372925 0.467926 0.774872
0.369202 0.463806 0.770905
0.369202 0.463806 0.770905
0.374695 0.471252 0.767639
0.378326 0.475403 0.771667
0.389740 0.487732 0.783661
0.393433 0.491943 0.787689
0.397949 0.495758 0.787903
0.401672 0.499939 0.791840
0.397949 0.495758 0.787903
0.394043 0.491669 0.783875
0.386627 0.483276 0.775879
0.379059 0.475067 0.767853
0.401855 0.491699 0.787537
0.390625 0.479248 0.775482
0.375458 0.462799 0.759430
0.369446 0.458008 0.744110
0.369446 0.458008 0.744110
0.373199 0.462097 0.748199
0.373199 0.462097 0.748199
0.496613 0.556366 0.824890
0.501190 0.551971 0.820892
0.501190 0.551971 0.820892
0.501190 0.551971 0.820892
0.501190 0.551971 0.820892
0.496613 0.556366 0.824890
0.500610 0.560547 0.828918
0.500610 0.560547 0.828918
0.504761 0.564636 0.829193
0.510193 0.564087 0.821869
0.511230 0.563660 0.814484
0.510193 0.564087 0.821869
0.514069 0.568298 0.825806
0.505981 0.564117 0.821899
0.489471 0.547638 0.813232
0.470459 0.526520 0.793304
0.454651 0.509979 0.781006
0.442719 0.501740 0.773010
0.437988 0.498016 0.776428
0.434174 0.493805 0.772430
0.426514 0.485565 0.764404
0.417694 0.477814 0.763824
0.413940 0.473694 0.759827
0.398163 0.469604 0.752197
0.398163 0.469604 0.752197
0.385254 0.461975 0.751709
0.377045 0.466187 0.752167
0.373199 0.462097 0.748199
0.369446 0.458008 0.744110
0.370300 0.445557 0.735565
0.366638 0.441467 0.731537
0.366638 0.441467 0.731537
0.094788 0.207184 0.432892
0.032349 0.146606 0.354156
0.110565 0.209869 0.440308
0.104279 0.198944 0.426849
0.036652 0.121490 0.327667
0.064728 0.140228 0.358246
0.024017 0.097900 0.297638
0.082855 0.152985 0.375610
0.089752 0.159698 0.384613
0.055237 0.130096 0.344482
0.057587 0.133850 0.349274
0.064728 0.140228 0.358246
0.078644 0.153381 0.376007
0.078644 0.153381 0.376007
0.071411 0.146881 0.367249
0.075531 0.149872 0.371490
0.085724 0.160004 0.384918
0.106201 0.180664 0.411743
0.102600 0.177246 0.407318
0.106201 0.180664 0.411743
0.102600 0.177246 0.407318
0.092743 0.166718 0.393921
0.109711 0.184082 0.416199
0.126862 0.201813 0.438416
0.120422 0.194458 0.429413
0.095886 0.170258 0.398376
0.082123 0.156708 0.380524
0.109711 0.184082 0.416199
0.092743 0.166718 0.393921
0.085724 0.160004 0.384918
0.089233 0.163361 0.389374
0.055237 0.130096 0.344482
0.160522 0.238434 0.490631
0.150238 0.220184 0.472626
0.108673 0.177582 0.419800
0.087189 0.164215 0.398285
0.153381 0.231171 0.481903
0.149689 0.234772 0.482452
0.093536 0.178131 0.412415
0.105621 0.199860 0.439667
0.109192 0.203369 0.443939
0.112976 0.206726 0.448303
0.100830 0.184906 0.421234
0.152863 0.238647 0.486786
0.117798 0.202637 0.443268
0.105713 0.187775 0.416809
0.119781 0.201752 0.434509
0.117126 0.197906 0.425873
0.233643 0.320404 0.568878
0.273468 0.363434 0.615234
0.110016 0.190948 0.416992
0.034760 0.132202 0.338379
0.097198 0.192047 0.418060
0.226379 0.333405 0.590118
0.135559 0.250854 0.493317
0.254700 0.376648 0.632538
0.266571 0.376404 0.636047
0.078644 0.153381 0.376007
0.124268 0.194336 0.429321
0.120422 0.194458 0.429413
0.179413 0.263702 0.508820
0.158234 0.261292 0.509491
0.169617 0.288635 0.544281
0.121613 0.245056 0.493835
0.100189 0.169891 0.398041
0.072845 0.142822 0.362183
0.075531 0.146545 0.366608
0.079437 0.149628 0.371124
0.089752 0.159698 0.384613
0.107147 0.176727 0.406982
0.124268 0.194336 0.429321
0.141510 0.212158 0.451355
0.152130 0.222931 0.464508
0.135620 0.204590 0.438110
0.135620 0.204590 0.438110
0.132019 0.201080 0.433838
0.132019 0.201080 0.433838
0.124969 0.194061 0.424988
0.121704 0.190399 0.420532
0.114746 0.183411 0.411560
0.110992 0.180115 0.407043
0.097748 0.166077 0.389008
0.097748 0.166077 0.389008
0.097748 0.166077 0.389008
0.097748 0.166077 0.389008
0.094116 0.162720 0.384674
0.094116 0.162720 0.384674
0.094116 0.162720 0.384674
0.094116 0.162720 0.384674
0.109558 0.175720 0.393768
0.106079 0.172333 0.389221
0.099335 0.165375 0.380249
0.099335 0.165375 0.380249
0.099335 0.165375 0.380249
0.106079 0.172333 0.389221
0.121246 0.178711 0.397858
0.181793 0.260559 0.516510
0.178345 0.256744 0.512207
0.181793 0.260559 0.516510
0.185120 0.264343 0.520813
0.188782 0.268097 0.525055
0.181793 0.260559 0.516510
0.174561 0.253174 0.507904
0.163879 0.242157 0.494904
0.156952 0.234772 0.486237
0.169067 0.245148 0.490936
0.169067 0.245148 0.490936
0.169067 0.245148 0.490936
0.169067 0.245148 0.490936
0.169067 0.245148 0.490936
0.172882 0.248657 0.495270
0.172882 0.248657 0.495270
0.172882 0.248657 0.495270
0.169067 0.245148 0.490936
0.172882 0.248657 0.495270
0.179871 0.256134 0.503876
0.183502 0.259796 0.508240
0.179871 0.256134 0.503876
0.176270 0.252472 0.499573
0.172882 0.248657 0.495270
0.169067 0.245148 0.490936
0.183868 0.255981 0.503754
0.183868 0.255981 0.503754
0.183868 0.255981 0.503754
0.176697 0.248596 0.495148
0.162811 0.233826 0.477600
0.155670 0.226532 0.468842
0.148895 0.219177 0.460083
0.537079 0.594025 0.849548
0.545319 0.589783 0.849243
0.546448 0.589294 0.841919
0.550598 0.589264 0.841980
0.554413 0.593536 0.845886
0.555481 0.593109 0.838654
0.555481 0.593109 0.838654
0.559875 0.597229 0.838989
0.568237 0.597107 0.839020
0.563568 0.588959 0.838318
0.563568 0.588959 0.838318
0.571381 0.597504 0.846252
0.563232 0.601685 0.846588
0.567566 0.605865 0.846893
0.567566 0.605865 0.846893
0.563721 0.601501 0.842957
0.559875 0.597229 0.838989
0.563721 0.601501 0.842957
0.583099 0.623108 0.862671
0.588226 0.631104 0.859680
0.576691 0.618073 0.847870
0.572662 0.613770 0.843842
0.592163 0.635468 0.863708
0.631226 0.679047 0.902924
0.654877 0.705383 0.926300
0.633942 0.679626 0.913605
0.689087 0.750153 0.972046
0.722137 0.785889 1.000000
0.630005 0.683899 0.913910
0.447937 0.483246 0.730621
0.283844 0.314575 0.555664
0.233337 0.261230 0.495087
0.535553 0.607239 0.865082
0.548370 0.611206 0.865356
0.548370 0.611206 0.865356
0.549896 0.606354 0.854126
0.534363 0.589264 0.838348
0.543732 0.588745 0.831024
0.551453 0.597290 0.838959
0.559753 0.605621 0.843231
0.555298 0.601532 0.842896
0.554108 0.597900 0.849854
0.554108 0.597900 0.849854
0.555298 0.601532 0.842896
0.563080 0.610168 0.850800
0.574921 0.614594 0.858398
0.582642 0.623291 0.866302
0.591034 0.631683 0.870575
0.598785 0.640411 0.878448
0.612061 0.644196 0.875122
0.612061 0.644196 0.875122
0.612946 0.643829 0.867950
0.612946 0.643829 0.867950
0.618011 0.651947 0.864990
0.621979 0.656311 0.868958
0.625916 0.660583 0.872925
0.629791 0.665070 0.876831
0.645508 0.673920 0.888306
0.649506 0.678253 0.892212
0.653900 0.682526 0.892578
0.661743 0.691315 0.900391
0.670837 0.695313 0.897247
0.674744 0.699646 0.901093
0.686890 0.699829 0.904724
0.510773 0.569702 0.847809
0.519928 0.573486 0.844421
0.524200 0.577545 0.844666
0.541138 0.598175 0.853546
0.561493 0.619293 0.865967
0.582489 0.631805 0.870544
0.574890 0.623047 0.862640
0.575256 0.622894 0.859039
0.580139 0.626801 0.855743
0.576691 0.618073 0.847870
0.584351 0.626770 0.855804
0.584351 0.626770 0.855804
0.584351 0.626770 0.855804
0.609070 0.639496 0.864014
0.636536 0.669922 0.891510
0.665222 0.695862 0.907837
0.673065 0.704712 0.915619
0.673615 0.704468 0.912109
0.673615 0.704468 0.912109
0.682678 0.708496 0.908905
0.694519 0.721802 0.920654
0.710693 0.726349 0.928101
0.714691 0.730743 0.931976
0.715820 0.734619 0.925262
0.707825 0.725769 0.917480
0.714844 0.726379 0.928162
0.710876 0.721924 0.924255
0.707001 0.717468 0.920380
0.702942 0.713104 0.916473
0.694855 0.708618 0.912567
0.690826 0.704224 0.908630
0.678101 0.691406 0.904022
0.406219 0.460785 0.799805
0.365479 0.417297 0.774689
0.352661 0.405914 0.770325
0.335632 0.394684 0.766113
0.335632 0.394684 0.766113
0.347504 0.418335 0.778961
0.380829 0.453491 0.795990
0.420166 0.493988 0.828125
0.456360 0.520844 0.826080
0.477631 0.526886 0.800659
0.554108 0.597900 0.849854
0.605988 0.649353 0.889832
0.618896 0.653351 0.890198
0.623810 0.648804 0.882690
0.664703 0.674652 0.902710
0.701447 0.709442 0.926788
0.705933 0.713623 0.927155
0.723175 0.722076 0.927856
0.723969 0.713074 0.916656
0.723969 0.713074 0.916656
0.723969 0.713074 0.916656
0.727936 0.717499 0.920532
0.731995 0.721924 0.924438
0.731110 0.730927 0.935638
0.735931 0.735016 0.932495
0.752960 0.748016 0.937134
0.769714 0.765472 0.945618
0.773010 0.770294 0.956512
0.760956 0.756897 0.944885
0.739960 0.739441 0.936401
0.735931 0.735016 0.932495
0.735931 0.735016 0.932495
0.661865 0.665558 0.887787
0.694000 0.700409 0.915466
0.697906 0.713501 0.923523
0.705841 0.722351 0.931305
0.713806 0.722473 0.934906
0.713806 0.722473 0.934906
0.722107 0.718231 0.934662
0.725616 0.714142 0.937866
0.730164 0.722656 0.938538
0.739960 0.739441 0.936401
0.744751 0.743591 0.933228
0.760742 0.761383 0.948730
0.772736 0.774750 0.960327
0.792999 0.792725 0.975800
0.801025 0.801697 0.983490
0.809052 0.810730 0.991180
0.813110 0.815216 0.994995
0.805939 0.797028 0.976227
0.801910 0.792542 0.972351
0.793854 0.783539 0.964661
0.789886 0.779114 0.960785
0.794495 0.787689 0.961517
0.802490 0.796661 0.969208
0.814606 0.810150 0.980743
0.830902 0.814850 0.988159
0.839966 0.819061 0.985138
0.852264 0.819275 0.988739
0.851471 0.819641 0.995667
0.855591 0.824127 0.999512
0.855591 0.824127 0.999512
0.851471 0.819641 0.995667
0.847412 0.815125 0.991852
0.751923 0.744049 0.943848
0.732056 0.730560 0.928650
0.743927 0.743896 0.940247
0.747894 0.748352 0.944153
0.739960 0.739441 0.936401
0.727722 0.739258 0.932770
0.735687 0.748169 0.940521
0.743591 0.757080 0.948242
0.751862 0.752838 0.947998
0.757019 0.752441 0.940979
0.765839 0.760986 0.941711
0.777771 0.774353 0.953339
0.797852 0.796844 0.972626
0.822571 0.819214 0.988403
0.839630 0.837860 1.000000
0.865936 0.854523 1.000000
0.875244 0.864929 1.000000
0.874878 0.863464 1.000000
0.874878 0.863464 1.000000
0.883118 0.869080 1.000000
0.887695 0.874390 1.000000
0.898315 0.874695 1.000000
0.898315 0.874695 1.000000
0.898315 0.874695 1.000000
0.898224 0.876556 1.000000
0.891510 0.877228 1.000000
0.886993 0.871857 1.000000
0.882507 0.866577 1.000000
0.877991 0.861237 1.000000
0.881165 0.854767 1.000000
0.877014 0.849304 1.000000
0.880402 0.845184 1.000000
0.852112 0.838867 1.000000
0.852112 0.838867 1.000000
0.847473 0.833618 1.000000
0.842987 0.828430 0.999695
0.838959 0.823883 0.995850
0.838959 0.823883 0.995850
0.838959 0.823883 0.995850
0.838959 0.823883 0.995850
0.842987 0.828430 0.999695
0.843048 0.829254 1.000000
0.843048 0.829254 1.000000
0.843048 0.829254 1.000000
0.843048 0.829254 1.000000
0.842987 0.828430 0.999695
0.838959 0.823883 0.995850
0.838959 0.823883 0.995850
0.838959 0.823883 0.995850
0.839783 0.823547 0.988892
0.856567 0.842499 1.000000
0.879547 0.868652 1.000000
0.884155 0.873932 1.000000
0.879913 0.871338 1.000000
0.879913 0.871338 1.000000
0.894043 0.886963 1.000000
0.907745 0.907715 1.000000
0.870728 0.873566 1.000000
0.922607 0.925079 1.000000
0.940369 0.944336 1.000000
0.919952 0.924133 1.000000
0.889954 0.895294 1.000000
0.818481 0.825775 1.000000
0.696228 0.690826 0.893494
0.860199 0.839966 1.000000
0.860718 0.842590 1.000000
0.860718 0.842590 1.000000
0.860718 0.842590 1.000000
0.860718 0.842590 1.000000
0.860992 0.841309 0.997375
0.860992 0.841309 0.997375
0.860992 0.841309 0.997375
0.860992 0.841309 0.997375
0.856201 0.837280 1.000000
0.869659 0.853210 1.000000
0.883118 0.869080 1.000000
0.896851 0.884949 1.000000
0.906738 0.887451 1.000000
0.906738 0.887451 1.000000
0.898315 0.874695 1.000000
0.894165 0.869232 1.000000
0.901825 0.875183 1.000000
0.897736 0.869629 1.000000
0.893677 0.864075 1.000000
0.893677 0.864075 1.000000
0.893677 0.864075 1.000000
0.893677 0.864075 1.000000
0.894165 0.869232 1.000000
0.898224 0.876556 1.000000
0.834503 0.810730 0.991364
0.891052 0.877106 1.000000
0.952118 0.949371 1.000000
0.933533 0.933014 1.000000
0.840210 0.844543 1.000000
0.704254 0.718689 0.941650
0.575958 0.597351 0.842621
0.888397 0.856323 1.000000
0.894165 0.869232 1.000000
0.887482 0.872772 1.000000
0.892059 0.878052 1.000000
0.896545 0.883362 1.000000
0.896545 0.883362 1.000000
0.896545 0.883362 1.000000
0.899323 0.877106 1.000000
0.898315 0.874695 1.000000
0.896576 0.867432 1.000000
0.896576 0.867432 1.000000
0.898224 0.876556 1.000000
0.898224 0.876556 1.000000
0.892273 0.879669 1.000000
0.887695 0.874390 1.000000
0.879547 0.868652 1.000000
0.874878 0.863464 1.000000
0.879547 0.868652 1.000000
0.879547 0.868652 1.000000
0.887695 0.874390 1.000000
0.883118 0.869080 1.000000
0.885406 0.860229 1.000000
0.881165 0.854767 1.000000
0.876373 0.839661 1.000000
0.868469 0.828491 0.999969
0.865417 0.819122 0.985413
0.861359 0.814636 0.981598
0.861359 0.814636 0.981598
0.857269 0.810120 0.977722
0.857269 0.810120 0.977722
0.861359 0.814636 0.981598
0.865417 0.819122 0.985413
0.885712 0.858276 1.000000
0.881165 0.854767 1.000000
0.885406 0.860229 1.000000
0.885406 0.860229 1.000000
0.889618 0.865692 1.000000
0.889435 0.867493 1.000000
0.893768 0.872833 1.000000
0.893768 0.872833 1.000000
0.898163 0.878265 1.000000
0.886993 0.871857 1.000000
0.886993 0.871857 1.000000
0.893768 0.872833 1.000000
0.889435 0.867493 1.000000
0.893860 0.871094 1.000000
0.898224 0.876556 1.000000
0.906738 0.887451 1.000000
0.911072 0.892853 1.000000
0.865479 0.827942 0.989502
0.853302 0.814453 0.978027
0.841187 0.800903 0.966431
0.845245 0.805420 0.970306
0.853302 0.805603 0.973877
0.849213 0.801117 0.970032
0.846008 0.796326 0.959229
0.845245 0.805420 0.970306
0.847717 0.834442 1.000000
0.874603 0.872650 1.000000
0.889435 0.887939 1.000000
0.728180 0.713074 0.916656
0.467010 0.428070 0.647430
0.354370 0.308929 0.520020
0.455505 0.419891 0.639038
0.915253 0.906097 1.000000
0.915253 0.906097 1.000000
0.910614 0.900787 1.000000
0.915436 0.898346 1.000000
0.911072 0.892853 1.000000
0.911072 0.892853 1.000000
0.906738 0.887451 1.000000
0.902435 0.882019 1.000000
0.902435 0.882019 1.000000
0.892273 0.879669 1.000000
0.893433 0.884430 1.000000
0.893433 0.884430 1.000000
0.898102 0.889648 1.000000
0.898712 0.892212 1.000000
0.903503 0.897339 1.000000
0.908264 0.902588 1.000000
0.908264 0.902588 1.000000
0.917847 0.912994 1.000000
0.917847 0.912994 1.000000
0.912445 0.906372 1.000000
0.912445 0.906372 1.000000
0.931549 0.927277 1.000000
0.946045 0.942963 1.000000
0.941193 0.937683 1.000000
0.922638 0.918182 1.000000
0.898102 0.889648 1.000000
0.898102 0.889648 1.000000
0.893433 0.884430 1.000000
0.888763 0.879150 1.000000
0.884155 0.873932 1.000000
0.884155 0.873932 1.000000
0.879547 0.868652 1.000000
0.923737 0.924194 1.000000
0.922760 0.922974 1.000000
0.917755 0.917908 1.000000
0.921753 0.915802 1.000000
0.926483 0.920990 1.000000
0.927460 0.923401 1.000000
0.927460 0.923401 1.000000
0.932281 0.928558 1.000000
0.932281 0.928558 1.000000
0.950470 0.947144 1.000000
0.948059 0.942993 1.000000
0.945648 0.941895 1.000000
0.945648 0.941895 1.000000
0.960938 0.962616 1.000000
0.969696 0.973480 1.000000
0.953003 0.955811 1.000000
0.921814 0.925720 1.000000
0.932251 0.935699 1.000000
