Assets/LUTs/Cool.CUBE
#Created by: Adobe Photoshop Export Color Lookup Plugin
TITLE "Cool"
#LUT size
LUT_3D_SIZE 8
#data domain
#LUT data points
DOMAIN_MIN 0.000000 0.000000 0.000000
DOMAIN_MAX 0.903226 0.903226 0.903226
0.408997 0.500214 0.799225
0.404999 0.496124 0.795258
0.401276 0.491943 0.791199
0.401276 0.491943 0.791199
0.397522 0.487762 0.787231
0.404999 0.496124 0.795258
0.408997 0.500214 0.799225
0.433746 0.528534 0.812225
0.305695 0.377686 0.673859
0.309937 0.394775 0.702118
0.344055 0.417206 0.707123
0.341797 0.426086 0.723053
0.370300 0.445557 0.735565
0.420929 0.494354 0.776306
0.432281 0.506958 0.788391
0.518616 0.607574 0.865173
0.098755 0.153992 0.357147
0.109070 0.164215 0.370819
0.109070 0.164215 0.370819
0.145264 0.196442 0.424286
0.145264 0.196442 0.424286
0.204895 0.258575 0.499359
0.219177 0.273529 0.516693
0.209595 0.270721 0.524689
0.094788 0.207184 0.432892
0.036652 0.121490 0.327667
0.089752 0.159698 0.384613
0.078644 0.153381 0.376007
0.085724 0.160004 0.384918
0.102600 0.177246 0.407318
0.120422 0.194458 0.429413
0.092743 0.166718 0.393921
0.537079 0.594025 0.849548
0.554413 0.593536 0.845886
0.568237 0.597107 0.839020
0.563232 0.601685 0.846588
0.559875 0.597229 0.838989
0.576691 0.618073 0.847870
0.654877 0.705383 0.926300
0.630005 0.683899 0.913910
0.661865 0.665558 0.887787
0.713806 0.722473 0.934906
0.730164 0.722656 0.938538
0.772736 0.774750 0.960327
0.813110 0.815216 0.994995
0.789886 0.779114 0.960785
0.830902 0.814850 0.988159
0.855591 0.824127 0.999512
0.888397 0.856323 1.000000
0.896545 0.883362 1.000000
0.898315 0.874695 1.000000
0.898224 0.876556 1.000000
0.874878 0.863464 1.000000
0.883118 0.869080 1.000000
0.868469 0.828491 0.999969
0.857269 0.810120 0.977722
0.948395 0.955597 1.000000
0.952118 0.956512 1.000000
0.956726 0.958740 1.000000
0.965393 0.968262 1.000000
0.982666 0.986450 1.000000
0.936493 0.941498 1.000000
0.936493 0.941498 1.000000
0.952087 0.952026 1.000000
0.416504 0.508575 0.807159
0.408997 0.500214 0.799225
0.404999 0.496124 0.795258
0.404999 0.496124 0.795258
0.401276 0.491943 0.791199
0.404999 0.496124 0.795258
0.420227 0.512756 0.811127
0.441376 0.536896 0.820129
0.446075 0.520111 0.811401
0.418915 0.513306 0.818634
0.445801 0.528503 0.815765
0.455231 0.550323 0.843109
0.476471 0.562225 0.847412
0.478027 0.557404 0.836090
0.485809 0.565857 0.843994
0.510956 0.598969 0.857330
0.211914 0.274994 0.537170
0.218872 0.282684 0.545715
0.186615 0.249054 0.507080
0.178864 0.234650 0.501801
0.196411 0.253204 0.523407
0.196411 0.253204 0.523407
0.174896 0.231262 0.497528
0.201019 0.263885 0.524323
0.065033 0.194366 0.404419
0.077301 0.170990 0.387054
0.088654 0.145264 0.365479
0.064728 0.140228 0.358246
0.055237 0.130096 0.344482
0.038147 0.114349 0.321899
0.071411 0.146881 0.367249
0.123596 0.198151 0.433960
0.537079 0.594025 0.849548
0.563568 0.588959 0.838318
0.559418 0.597412 0.842651
0.548370 0.611206 0.865356
0.563232 0.601685 0.846588
0.607239 0.631805 0.874176
0.644958 0.652832 0.883087
0.681854 0.708862 0.916016
0.689941 0.704651 0.915710
0.714691 0.730743 0.931976
0.726196 0.718231 0.934662
0.772736 0.774750 0.960327
0.813110 0.815216 0.994995
0.813965 0.806061 0.983917
0.838959 0.823883 0.995850
0.864532 0.832947 1.000000
0.892426 0.861847 1.000000
0.896545 0.883362 1.000000
0.889923 0.863800 1.000000
0.898224 0.876556 1.000000
0.874878 0.863464 1.000000
0.883118 0.869080 1.000000
0.848236 0.805939 0.980774
0.849213 0.801117 0.970032
0.970306 0.975128 1.000000
0.957428 0.961548 1.000000
0.941467 0.943512 1.000000
0.942810 0.945374 1.000000
0.958221 0.960571 1.000000
0.983917 0.987518 1.000000
0.961182 0.964447 1.000000
0.958038 0.958374 1.000000
0.415131 0.509155 0.814667
0.411346 0.504913 0.810638
0.403809 0.496643 0.802704
0.404999 0.496124 0.795258
0.405731 0.495789 0.791443
0.418579 0.511749 0.796295
0.437622 0.532715 0.816193
0.442566 0.536407 0.812744
0.409729 0.479492 0.786377
0.391846 0.488525 0.794891
0.424652 0.523193 0.789734
0.443481 0.546021 0.835602
0.468140 0.566528 0.847839
0.496765 0.583008 0.859833
0.508392 0.595795 0.871582
0.514221 0.616119 0.869537
0.183868 0.255981 0.503754
0.194611 0.267120 0.516693
0.166382 0.237427 0.481903
0.193909 0.256378 0.515717
0.201019 0.263885 0.524323
0.222687 0.286346 0.550018
0.215393 0.278870 0.541534
0.193909 0.256378 0.515717
0.116089 0.198364 0.430206
0.108673 0.158966 0.391968
0.055237 0.130096 0.344482
0.077606 0.147034 0.379822
0.081665 0.163666 0.385803
0.109039 0.165680 0.392670
0.075531 0.149872 0.371490
0.098785 0.192780 0.430847
0.553101 0.598297 0.857117
0.551666 0.588837 0.834686
0.549896 0.606354 0.854126
0.553711 0.610718 0.858093
0.565796 0.610779 0.861694
0.596100 0.639740 0.867584
0.630219 0.664886 0.873260
0.678680 0.712708 0.909210
0.722260 0.713776 0.930786
0.709808 0.726746 0.935242
0.722107 0.718231 0.934662
0.750763 0.766388 0.963013
0.835388 0.837830 1.000000
0.827423 0.823364 0.985291
0.851471 0.829315 1.000000
0.869110 0.851440 1.000000
0.892273 0.879669 1.000000
0.896851 0.884949 1.000000
0.896088 0.862244 1.000000
0.902496 0.880249 1.000000
0.889923 0.863800 1.000000
0.885712 0.858276 1.000000
0.853058 0.818909 0.981781
0.846008 0.796326 0.959229
0.960388 0.966858 1.000000
0.952118 0.956512 1.000000
0.947937 0.950470 1.000000
0.962189 0.965912 1.000000
0.951630 0.955963 1.000000
0.989349 0.992157 1.000000
0.946503 0.948578 1.000000
0.961884 0.963806 1.000000
0.420227 0.512756 0.811127
0.416504 0.508575 0.807159
0.408997 0.500214 0.799225
0.412628 0.504425 0.803223
0.420868 0.512451 0.807404
0.429962 0.524384 0.808258
0.437622 0.532715 0.816193
0.442566 0.536407 0.812744
0.394379 0.471252 0.774780
0.420898 0.522369 0.834076
0.443726 0.537628 0.831207
0.431976 0.533386 0.823639
0.456696 0.553741 0.835999
0.489288 0.574402 0.851898
0.496765 0.583008 0.859833
0.510956 0.598969 0.857330
0.209595 0.270721 0.524689
0.202484 0.263214 0.516052
0.205933 0.267059 0.520416
0.208282 0.271301 0.532898
0.197418 0.260162 0.519928
0.176208 0.237885 0.493958
0.158600 0.219666 0.472290
0.176208 0.237885 0.493958
0.059326 0.156067 0.383148
0.112122 0.162384 0.396454
0.101471 0.203735 0.440369
0.095612 0.183716 0.438843
0.075012 0.173431 0.413788
0.133636 0.235565 0.479370
0.083618 0.160889 0.394012
0.223419 0.321594 0.581177
0.556976 0.602631 0.861115
0.551666 0.588837 0.834686
0.549896 0.606354 0.854126
0.553711 0.610718 0.858093
0.565796 0.610779 0.861694
0.592163 0.635468 0.863708
0.626312 0.660461 0.869263
0.669647 0.700104 0.908203
0.734192 0.727081 0.942413
0.709808 0.726746 0.935242
0.718109 0.713806 0.930756
0.763031 0.766541 0.966614
0.845306 0.847839 1.000000
0.861115 0.847687 1.000000
0.873535 0.856018 1.000000
0.869080 0.850616 1.000000
0.887695 0.874390 1.000000
0.896851 0.884949 1.000000
0.892426 0.861847 1.000000
0.902496 0.880249 1.000000
0.889923 0.863800 1.000000
0.902496 0.880249 1.000000
0.818817 0.801361 0.976685
0.340149 0.332703 0.557343
0.960388 0.966858 1.000000
0.946899 0.951538 1.000000
0.942810 0.945374 1.000000
0.967529 0.970886 1.000000
0.962189 0.965912 1.000000
0.985260 0.988770 1.000000
0.951630 0.953674 1.000000
0.964935 0.967682 1.000000
0.428406 0.520844 0.815338
0.420868 0.512451 0.807404
0.420868 0.512451 0.807404
0.424103 0.516937 0.815125
0.428406 0.520844 0.815338
0.433746 0.528534 0.812225
0.445221 0.541107 0.824127
0.442566 0.536407 0.812744
0.377197 0.467804 0.774811
0.398041 0.497406 0.810333
0.428406 0.520844 0.815338
0.424438 0.524994 0.815765
0.445221 0.541107 0.824127
0.485260 0.570251 0.847931
0.516174 0.604370 0.879456
0.514984 0.594757 0.856964
0.185028 0.237274 0.489563
0.192169 0.244629 0.498291
0.171021 0.222565 0.472046
0.190308 0.252686 0.511383
0.186615 0.249054 0.507080
0.204651 0.267548 0.528534
0.193909 0.256378 0.515717
0.186615 0.249054 0.507080
0.117065 0.222290 0.470764
0.172852 0.234161 0.489655
0.175415 0.308075 0.562042
0.139282 0.270142 0.552917
0.205994 0.316711 0.601410
0.098938 0.268951 0.528290
0.114471 0.193451 0.455292
0.151978 0.246246 0.495880
0.556976 0.602631 0.861115
0.559418 0.597412 0.842651
0.549896 0.606354 0.854126
0.553711 0.610718 0.858093
0.565796 0.610779 0.861694
0.592163 0.635468 0.863708
0.630219 0.664886 0.873260
0.653412 0.682678 0.896118
0.730164 0.722656 0.938538
0.701904 0.717865 0.927429
0.722107 0.718231 0.934662
0.766968 0.762329 0.966370
0.859100 0.858154 1.000000
0.883118 0.869080 1.000000
0.885132 0.862030 1.000000
0.885406 0.860229 1.000000
0.902435 0.882019 1.000000
0.906738 0.887451 1.000000
0.889618 0.865692 1.000000
0.898224 0.876556 1.000000
0.893860 0.871094 1.000000
0.877014 0.849304 1.000000
0.626282 0.599426 0.807007
0.332123 0.369141 0.607269
0.938599 0.947296 1.000000
0.946899 0.951538 1.000000
0.963409 0.965607 1.000000
0.962189 0.965912 1.000000
0.951630 0.955963 1.000000
0.981476 0.985413 1.000000
0.961884 0.963806 1.000000
0.961884 0.963806 1.000000
0.436096 0.529236 0.823303
0.428406 0.520844 0.815338
0.420868 0.512451 0.807404
0.427856 0.521118 0.819122
0.436096 0.529236 0.823303
0.433746 0.528534 0.812225
0.445221 0.541107 0.824127
0.442566 0.536407 0.812744
0.287079 0.375153 0.681885
0.329498 0.422394 0.719238
0.367828 0.440918 0.723907
0.375366 0.470947 0.763885
0.403503 0.495056 0.780273
0.469971 0.553223 0.832153
0.516174 0.604370 0.879456
0.542023 0.624908 0.884491
0.202667 0.255829 0.511292
0.216980 0.270752 0.528625
0.209869 0.263245 0.519958
0.201019 0.263885 0.524323
0.211914 0.274994 0.537170
0.211914 0.274994 0.537170
0.197418 0.260162 0.519928
0.179840 0.241547 0.498383
0.113342 0.231110 0.488892
0.120422 0.192444 0.446289
0.104492 0.259033 0.509644
0.069427 0.238220 0.526093
0.191284 0.303131 0.604919
0.189728 0.399780 0.669647
0.115784 0.197906 0.468323
0.158997 0.253632 0.504547
0.556976 0.602631 0.861115
0.555481 0.593109 0.838654
0.549896 0.606354 0.854126
0.553711 0.610718 0.858093
0.565796 0.610779 0.861694
0.596100 0.639740 0.867584
0.625916 0.660583 0.872925
0.652435 0.683105 0.903259
0.762115 0.758179 0.969452
0.697906 0.713501 0.923523
0.729980 0.727142 0.942413
0.783020 0.780212 0.981781
0.879944 0.870209 1.000000
0.898224 0.876556 1.000000
0.896210 0.869293 1.000000
0.897736 0.869629 1.000000
0.906738 0.887451 1.000000
0.893860 0.871094 1.000000
0.896851 0.884949 1.000000
0.893768 0.872833 1.000000
0.902435 0.883698 1.000000
0.839417 0.806091 0.984192
0.347778 0.300873 0.503479
0.217957 0.234375 0.451843
0.943970 0.952179 1.000000
0.946899 0.951538 1.000000
0.963409 0.965607 1.000000
0.962189 0.965912 1.000000
0.981476 0.985413 1.000000
0.981476 0.985413 1.000000
0.961884 0.963806 1.000000
0.961884 0.963806 1.000000
0.432312 0.525055 0.819397
0.443726 0.537628 0.831207
0.432312 0.525055 0.819397
0.433746 0.528534 0.812225
0.433746 0.528534 0.812225
0.433746 0.528534 0.812225
0.437622 0.532715 0.816193
0.438507 0.540558 0.813110
0.325897 0.418304 0.715179
0.394409 0.483398 0.779480
0.463684 0.550110 0.842987
0.448425 0.533203 0.827148
0.480255 0.566528 0.851379
0.481628 0.565857 0.844025
0.508392 0.595795 0.871582
0.518860 0.599030 0.860931
0.334259 0.418060 0.714966
0.344452 0.438599 0.735443
0.347839 0.446808 0.743591
0.358246 0.471497 0.764282
0.382446 0.487488 0.776276
0.399261 0.495178 0.780396
0.403503 0.495056 0.780273
0.386200 0.475403 0.775238
0.106018 0.185669 0.433655
0.109344 0.189209 0.438171
0.091675 0.197968 0.440796
0.156799 0.311523 0.584015
0.161041 0.366058 0.645325
0.268219 0.449677 0.731384
0.094360 0.240692 0.492126
0.139282 0.236176 0.491516
0.541809 0.614746 0.854828
0.543152 0.597351 0.838959
0.553101 0.598297 0.857117
0.559235 0.605896 0.846863
0.583099 0.623108 0.862671
0.609070 0.639496 0.864014
0.637634 0.673767 0.884674
0.646088 0.673737 0.884735
0.770477 0.745178 0.965118
0.718109 0.713806 0.930756
0.718842 0.730774 0.932037
0.797852 0.796844 0.972626
0.879944 0.870209 1.000000
0.892273 0.879669 1.000000
0.898224 0.876556 1.000000
0.882507 0.866577 1.000000
0.902496 0.880249 1.000000
0.889618 0.865692 1.000000
0.898163 0.878265 1.000000
0.889435 0.867493 1.000000
0.902435 0.882019 1.000000
0.881592 0.847382 1.000000
0.393768 0.331696 0.530609
0.366058 0.385254 0.631714
0.946899 0.951538 1.000000
0.936493 0.941498 1.000000
0.946899 0.951538 1.000000
0.960907 0.967438 1.000000
0.980469 0.985809 1.000000
0.969940 0.975922 1.000000
0.968079 0.971466 1.000000
0.970795 0.974670 1.000000
0.443726 0.537628 0.831207
0.447510 0.541870 0.835175
0.443726 0.537628 0.831207
0.448944 0.545410 0.828125
0.448944 0.545410 0.828125
0.441376 0.536896 0.820129
0.437622 0.532715 0.816193
0.438507 0.540558 0.813110
0.389740 0.487732 0.783661
0.436096 0.529236 0.823303
0.448425 0.533203 0.827148
0.448425 0.533203 0.827148
0.476471 0.562225 0.847412
0.493011 0.578735 0.855865
0.523773 0.613007 0.887268
0.484253 0.560638 0.825317
0.409576 0.501648 0.817871
0.385254 0.485626 0.805939
0.381012 0.485779 0.806061
0.338501 0.453186 0.770782
0.371338 0.476746 0.786865
0.384247 0.480286 0.786865
0.382446 0.471252 0.771210
0.389893 0.479523 0.779236
0.032257 0.112396 0.326813
0.066437 0.144196 0.371826
0.128204 0.213348 0.456390
0.150238 0.220184 0.472626
0.102386 0.182251 0.429443
0.114929 0.191803 0.433807
0.040802 0.128998 0.346344
0.168915 0.272461 0.522430
0.536621 0.606812 0.857819
0.543152 0.597351 0.838959
0.554108 0.597900 0.849854
0.566956 0.614471 0.854767
0.598785 0.640411 0.878448
0.616943 0.648193 0.871918
0.637634 0.673767 0.884674
0.657806 0.686890 0.896484
0.743042 0.726898 0.938965
0.723175 0.722076 0.927856
0.731628 0.743774 0.936615
0.793793 0.792328 0.968811
0.893951 0.885864 1.000000
0.892273 0.879669 1.000000
0.898224 0.876556 1.000000
0.882507 0.866577 1.000000
0.885712 0.858276 1.000000
0.889618 0.865692 1.000000
0.898163 0.878265 1.000000
0.889435 0.867493 1.000000
0.902435 0.882019 1.000000
0.845245 0.805420 0.970306
0.847076 0.824127 0.999451
0.404968 0.409088 0.652893
0.968079 0.971466 1.000000
0.936493 0.941498 1.000000
0.957428 0.961548 1.000000
0.955383 0.962585 1.000000
0.974457 0.981232 1.000000
0.969940 0.975922 1.000000
0.968079 0.971466 1.000000
0.970795 0.974670 1.000000
