Assets/LUTs/Custom.CUBE
#Created by: Adobe Photoshop Export Color Lookup Plugin
TITLE "Custom"
#LUT size
LUT_3D_SIZE 8
#data domain
#LUT data points
DOMAIN_MIN 0.000000 0.000000 0.000000
DOMAIN_MAX 0.903226 0.903226 0.903226
0.386932 0.496918 0.699585
0.382996 0.493835 0.696289
0.379242 0.491058 0.692963
0.379242 0.491058 0.692963
0.375366 0.488007 0.689667
0.382996 0.493835 0.696289
0.386932 0.496918 0.699585
0.409424 0.534088 0.723053
0.284607 0.417511 0.595306
0.290710 0.408569 0.610809
0.320496 0.458588 0.630402
0.319336 0.447906 0.638702
0.346252 0.480042 0.654480
0.396149 0.529877 0.694000
0.407623 0.538910 0.704041
0.494232 0.627075 0.782135
0.095001 0.273987 0.362854
0.103271 0.286011 0.375641
0.103271 0.286011 0.375641
0.133911 0.312866 0.413788
0.133911 0.312866 0.413788
0.184113 0.374359 0.482788
0.196899 0.388458 0.498230
0.190125 0.368011 0.494995
0.091125 0.284637 0.428986
0.054474 0.200409 0.314575
0.090973 0.251007 0.368591
0.083008 0.240570 0.360016
0.088043 0.248322 0.368835
0.100220 0.267242 0.391083
0.114044 0.285797 0.411987
0.093170 0.255981 0.377533
0.513855 0.649811 0.768005
0.532349 0.670013 0.765137
0.545715 0.695923 0.766785
0.540588 0.686188 0.771362
0.536499 0.688293 0.768158
0.552490 0.714661 0.784332
0.637726 0.772614 0.845184
0.611542 0.744049 0.830933
0.646454 0.790863 0.811005
0.703552 0.834106 0.849731
0.722992 0.844849 0.846954
0.762024 0.883942 0.858002
0.801117 0.910278 0.878235
0.762024 0.888000 0.838562
0.792145 0.912170 0.844391
0.805756 0.917694 0.832703
0.827454 0.935883 0.832184
0.834991 0.955414 0.855530
0.830994 0.949310 0.838165
0.840271 0.947845 0.849213
0.826630 0.942474 0.861481
0.831055 0.945404 0.858398
0.805634 0.921539 0.818542
0.779144 0.911591 0.790710
0.924072 0.992706 0.976624
0.914917 0.994507 0.953888
0.914978 0.994690 0.942047
0.928528 0.999359 0.958862
0.967743 1.000000 0.994629
0.901520 0.986145 0.945679
0.901520 0.986145 0.945679
0.915527 0.987823 0.936005
0.394592 0.502777 0.706177
0.386932 0.496918 0.699585
0.382996 0.493835 0.696289
0.382996 0.493835 0.696289
0.379242 0.491058 0.692963
0.382996 0.493835 0.696289
0.398438 0.505737 0.709503
0.417267 0.539856 0.729553
0.423828 0.536133 0.713348
0.398529 0.495514 0.709564
0.422729 0.539825 0.721191
0.433716 0.537018 0.738770
0.454559 0.563263 0.746948
0.454895 0.574188 0.743011
0.463074 0.580139 0.749329
0.485992 0.621277 0.775940
0.193207 0.362061 0.499084
0.199402 0.368988 0.506866
0.171570 0.337860 0.471619
0.166992 0.316010 0.454651
0.182098 0.333832 0.474731
0.182098 0.333832 0.474731
0.163757 0.312561 0.450836
0.183807 0.351715 0.487427
0.067932 0.272858 0.413757
0.079102 0.259216 0.384186
0.091187 0.243469 0.349060
0.073547 0.224884 0.341888
0.067230 0.213226 0.327667
0.055939 0.192871 0.304535
0.078217 0.232727 0.351013
0.116486 0.289429 0.416412
0.513855 0.649811 0.768005
0.542023 0.683533 0.759949
0.536469 0.683167 0.768219
0.525757 0.657715 0.781219
0.540588 0.686188 0.771362
0.588684 0.722137 0.790314
0.628937 0.767914 0.802643
0.666046 0.816010 0.844391
0.676117 0.819763 0.839325
0.702515 0.847565 0.856995
0.718567 0.841919 0.843964
0.762024 0.883942 0.858002
0.801117 0.910278 0.878235
0.787994 0.905457 0.855774
0.800842 0.917999 0.850128
0.805298 0.924927 0.827271
0.831848 0.938721 0.835022
0.834991 0.955414 0.855530
0.822266 0.943665 0.832794
0.840271 0.947845 0.849213
0.826630 0.942474 0.861481
0.831055 0.945404 0.858398
0.783905 0.907135 0.804565
0.770447 0.905792 0.785126
0.945740 1.000000 0.985718
0.919373 0.997223 0.956512
0.901642 0.986298 0.933807
0.915649 0.984039 0.950531
0.929016 0.992401 0.958710
0.968628 0.999878 1.000000
0.933380 0.995026 0.967224
0.929321 0.989044 0.949799
0.394592 0.492706 0.706329
0.390778 0.489777 0.702972
0.383209 0.483795 0.696320
0.382996 0.493835 0.696289
0.382996 0.499084 0.696259
0.393768 0.522308 0.710022
0.413391 0.536926 0.726288
0.417175 0.550079 0.729462
0.389526 0.489838 0.679871
0.371124 0.474365 0.690308
0.396484 0.549194 0.720917
0.420837 0.531921 0.736786
0.445007 0.560242 0.752136
0.474457 0.587830 0.762878
0.486664 0.596497 0.772278
0.488556 0.626648 0.790405
0.166473 0.349457 0.480835
0.175629 0.359863 0.492706
0.151428 0.331848 0.461029
0.177643 0.344879 0.479523
0.183807 0.351715 0.487427
0.203003 0.372345 0.510437
0.196350 0.365356 0.502930
0.177643 0.344879 0.479523
0.109619 0.288086 0.417267
0.107880 0.255981 0.366119
0.067230 0.213226 0.327667
0.084686 0.225342 0.350281
0.083801 0.250977 0.374176
0.106110 0.266876 0.375885
0.081207 0.236755 0.355011
0.097565 0.266541 0.409912
0.531952 0.659027 0.769104
0.528229 0.677368 0.761932
0.526428 0.668884 0.777161
0.530487 0.671783 0.780396
0.544434 0.678040 0.778320
0.573517 0.729370 0.799713
0.608307 0.780396 0.816467
0.660553 0.826660 0.848694
0.714111 0.838989 0.841034
0.698151 0.834290 0.854156
0.713745 0.837891 0.844666
0.743134 0.874512 0.879639
0.809082 0.926941 0.876007
0.786926 0.919891 0.850922
0.809937 0.920380 0.846924
0.832062 0.931030 0.863556
0.839844 0.951111 0.863953
0.844208 0.953949 0.866669
0.834625 0.938873 0.831879
0.835419 0.952148 0.840912
0.822266 0.943665 0.832794
0.817841 0.940765 0.830109
0.783051 0.917786 0.808014
0.757080 0.904388 0.771606
0.922729 1.000000 0.967743
0.914917 0.994507 0.953888
0.920074 0.986847 0.953369
0.919922 1.000000 0.953705
0.910187 0.995239 0.948212
0.980713 1.000000 0.997192
0.906067 0.989105 0.936646
0.919434 0.997467 0.944702
0.398438 0.505737 0.709503
0.394592 0.502777 0.706177
0.386932 0.496918 0.699585
0.390717 0.499847 0.702881
0.398346 0.510773 0.709473
0.405518 0.531128 0.719849
0.413391 0.536926 0.726288
0.417175 0.550079 0.729462
0.373260 0.481934 0.674408
0.401947 0.487610 0.716919
0.421783 0.528259 0.729095
0.408997 0.523224 0.727051
0.433075 0.551514 0.742493
0.466583 0.582031 0.756348
0.474457 0.587830 0.762878
0.485992 0.621277 0.775940
0.190125 0.368011 0.494995
0.183838 0.361084 0.487244
0.186768 0.364563 0.491241
0.190063 0.358734 0.495209
0.180481 0.348328 0.483612
0.162476 0.327393 0.459656
0.147705 0.309448 0.439423
0.162476 0.327393 0.459656
0.070770 0.225739 0.361542
0.110443 0.260040 0.370636
0.098633 0.275909 0.423523
0.099976 0.241577 0.395905
0.082642 0.235657 0.383972
0.123413 0.307556 0.460571
0.087921 0.239532 0.369049
0.200958 0.386230 0.548920
0.536133 0.661835 0.772186
0.528229 0.677368 0.761932
0.526428 0.668884 0.777161
0.530487 0.671783 0.780396
0.544434 0.678040 0.778320
0.569336 0.726410 0.796661
0.604034 0.777374 0.813354
0.652405 0.806213 0.839172
0.727539 0.847687 0.849854
0.698151 0.834290 0.854156
0.709259 0.834991 0.841766
0.757996 0.877533 0.873749
0.817871 0.932648 0.881561
0.813507 0.933838 0.853119
0.831848 0.934692 0.860809
0.827423 0.931793 0.858063
0.835419 0.948242 0.861115
0.844208 0.953949 0.866669
0.831848 0.938721 0.835022
0.835419 0.952148 0.840912
0.822266 0.943665 0.832794
0.835419 0.952148 0.840912
0.779144 0.903503 0.835938
0.310272 0.526306 0.549500
0.922729 1.000000 0.967743
0.910370 0.991699 0.951019
0.915649 0.984039 0.950531
0.927185 1.000000 0.956909
0.919922 1.000000 0.953705
0.971710 1.000000 0.993439
0.910553 0.991913 0.939362
0.924011 1.000000 0.953278
0.406189 0.516693 0.716003
0.398346 0.510773 0.709473
0.398346 0.510773 0.709473
0.402405 0.508789 0.712799
0.406189 0.516693 0.716003
0.409424 0.534088 0.723053
0.421112 0.542725 0.732849
0.417175 0.550079 0.729462
0.356476 0.463196 0.672974
0.378754 0.470093 0.697113
0.406189 0.516693 0.716003
0.401154 0.517334 0.720520
0.421112 0.542725 0.732849
0.462433 0.579224 0.753235
0.494873 0.602203 0.778534
0.491150 0.620880 0.771423
0.169586 0.337921 0.458679
0.175690 0.345032 0.466644
0.157745 0.323608 0.442474
0.174347 0.341309 0.475739
0.171570 0.337860 0.471619
0.186920 0.355225 0.491272
0.177643 0.344879 0.479523
0.171570 0.337860 0.471619
0.112122 0.284607 0.444458
0.159485 0.323669 0.455597
0.157715 0.352814 0.538269
0.135681 0.283997 0.494720
0.190582 0.343262 0.542480
0.100189 0.282013 0.495483
0.114624 0.253662 0.407898
0.139069 0.319305 0.471771
0.536133 0.661835 0.772186
0.536469 0.683167 0.768219
0.526428 0.668884 0.777161
0.530487 0.671783 0.780396
0.544434 0.678040 0.778320
0.569336 0.726410 0.796661
0.608307 0.780396 0.816467
0.635162 0.789490 0.827179
0.722992 0.844849 0.846954
0.689362 0.828461 0.848206
0.713745 0.837891 0.844666
0.763367 0.873199 0.865143
0.826660 0.938477 0.881409
0.831055 0.945404 0.858398
0.836212 0.937744 0.851898
0.827118 0.939301 0.841156
0.844635 0.950653 0.851898
0.849091 0.953522 0.854736
0.831421 0.942169 0.843781
0.840271 0.947845 0.849213
0.835815 0.944977 0.846466
0.818359 0.933563 0.835602
0.598175 0.762543 0.726501
0.301208 0.508575 0.587952
0.900879 0.992920 0.957581
0.910370 0.991699 0.951019
0.933472 0.995209 0.961456
0.919922 1.000000 0.953705
0.910187 0.995239 0.948212
0.961243 1.000000 0.987885
0.919434 0.997467 0.944702
0.919434 0.997467 0.944702
0.413910 0.522430 0.722565
0.406189 0.516693 0.716003
0.398346 0.510773 0.709473
0.406281 0.511536 0.716003
0.413910 0.522430 0.722565
0.409424 0.534088 0.723053
0.421112 0.542725 0.732849
0.417175 0.550079 0.729462
0.268921 0.389587 0.593628
0.307281 0.437866 0.636414
0.342407 0.486847 0.651001
0.351593 0.479065 0.677338
0.378662 0.510559 0.696655
0.446381 0.567657 0.740479
0.494873 0.602203 0.778534
0.519836 0.640869 0.793304
0.184845 0.355530 0.478577
0.197693 0.369751 0.494049
0.191437 0.362701 0.486206
0.183807 0.351715 0.487427
0.193207 0.362061 0.499084
0.193207 0.362061 0.499084
0.180481 0.348328 0.483612
0.165405 0.330872 0.463715
0.110840 0.276855 0.453735
0.117737 0.265533 0.407501
0.102051 0.290771 0.486084
0.090729 0.222382 0.452881
0.181946 0.309753 0.527008
0.173370 0.361450 0.627869
0.117645 0.248383 0.412048
0.144989 0.326080 0.479706
0.536133 0.661835 0.772186
0.532349 0.680298 0.765076
0.526428 0.668884 0.777161
0.530487 0.671783 0.780396
0.544434 0.678040 0.778320
0.573517 0.729370 0.799713
0.604065 0.772156 0.813385
0.635162 0.779022 0.827301
0.759003 0.867920 0.870300
0.684875 0.825653 0.845306
0.722717 0.843750 0.850555
0.781433 0.884796 0.876801
0.840271 0.943756 0.875153
0.840271 0.947845 0.849213
0.845367 0.940094 0.848572
0.826691 0.946625 0.829651
0.849091 0.953522 0.854736
0.835815 0.944977 0.846466
0.844208 0.953949 0.866669
0.845093 0.943451 0.857422
0.853912 0.949127 0.863037
0.788330 0.906097 0.821442
0.315063 0.515320 0.477661
0.195648 0.400635 0.454468
0.905334 0.995667 0.960175
0.910370 0.991699 0.951019
0.933472 0.995209 0.961456
0.919922 1.000000 0.953705
0.961243 1.000000 0.987885
0.961243 1.000000 0.987885
0.919434 0.997467 0.944702
0.919434 0.997467 0.944702
0.410034 0.519592 0.719299
0.421783 0.528259 0.729095
0.410034 0.519592 0.719299
0.409424 0.534088 0.723053
0.409424 0.534088 0.723053
0.409424 0.534088 0.723053
0.413391 0.536926 0.726288
0.412231 0.550690 0.733948
0.303589 0.434937 0.633026
0.371613 0.490112 0.686218
0.442596 0.544312 0.737457
0.426849 0.532715 0.724426
0.458435 0.566071 0.750214
0.458466 0.576355 0.750031
0.486664 0.596497 0.772278
0.495239 0.623657 0.774567
0.312103 0.441803 0.631775
0.321960 0.450104 0.650177
0.325104 0.452637 0.657623
0.334381 0.464874 0.679871
0.357971 0.488861 0.692017
0.374115 0.506958 0.697388
0.378662 0.510559 0.696655
0.364014 0.479187 0.679596
0.105865 0.256989 0.399628
0.108673 0.260529 0.403748
0.093292 0.260010 0.415405
0.146210 0.319946 0.540436
0.152588 0.326904 0.594116
0.245483 0.407318 0.669342
0.095337 0.275238 0.464905
0.130341 0.299774 0.459900
0.516022 0.669739 0.786133
0.517975 0.673187 0.770874
0.531952 0.659027 0.769104
0.535492 0.686676 0.775787
0.561462 0.705994 0.786835
0.587616 0.746063 0.797577
0.616943 0.781067 0.822540
0.626373 0.788788 0.821167
0.770233 0.857971 0.846985
0.709259 0.834991 0.841766
0.707397 0.851532 0.856262
0.774536 0.900208 0.855927
0.840271 0.943756 0.875153
0.839844 0.951111 0.863953
0.840271 0.947845 0.849213
0.840607 0.940399 0.866364
0.835419 0.952148 0.840912
0.831421 0.942169 0.843781
0.849487 0.946289 0.860229
0.840698 0.940643 0.854797
0.844635 0.950653 0.851898
0.809174 0.935150 0.818695
0.336182 0.546539 0.478607
0.336639 0.529388 0.599213
0.910370 0.991699 0.951019
0.901520 0.986145 0.945679
0.910370 0.991699 0.951019
0.926697 1.000000 0.973083
0.964935 1.000000 0.994904
0.940948 1.000000 0.981873
0.931061 1.000000 0.962128
0.934204 1.000000 0.965118
0.421783 0.528259 0.729095
0.425812 0.531158 0.732300
0.421783 0.528259 0.729095
0.425049 0.545715 0.736115
0.425049 0.545715 0.736115
0.417267 0.539856 0.729553
0.413391 0.536926 0.726288
0.412231 0.550690 0.733948
0.366699 0.485962 0.690826
0.413910 0.522430 0.722565
0.426849 0.532715 0.724426
0.426849 0.532715 0.724426
0.454559 0.563263 0.746948
0.470459 0.584869 0.759583
0.502960 0.607910 0.784882
0.458710 0.597504 0.746094
0.391296 0.475128 0.699280
0.367401 0.451263 0.687256
0.363037 0.447754 0.687927
0.320313 0.418610 0.662720
0.351105 0.453461 0.681702
0.363495 0.468475 0.683685
0.360168 0.476074 0.676239
0.367828 0.482117 0.682892
0.053680 0.180634 0.300110
0.076141 0.220154 0.346344
0.120605 0.293579 0.434082
0.140198 0.303406 0.440643
0.103363 0.253357 0.395233
0.111206 0.273285 0.407959
0.058716 0.200073 0.324219
0.152466 0.341553 0.500427
0.512451 0.652344 0.779358
0.517975 0.673187 0.770874
0.531830 0.669250 0.769012
0.543823 0.692535 0.782043
0.578430 0.717804 0.799164
0.596069 0.751862 0.803741
0.616943 0.781067 0.822540
0.639465 0.797638 0.830139
0.737274 0.848389 0.835815
0.713226 0.848206 0.843933
0.720673 0.865051 0.859406
0.770294 0.897247 0.853088
0.853394 0.952271 0.883423
0.839844 0.951111 0.863953
0.840271 0.947845 0.849213
0.840607 0.940399 0.866364
0.817841 0.940765 0.830109
0.831421 0.942169 0.843781
0.849487 0.946289 0.860229
0.840698 0.940643 0.854797
0.844635 0.950653 0.851898
0.770142 0.909210 0.793945
0.805634 0.917450 0.844116
0.375793 0.567932 0.617737
0.931061 1.000000 0.962128
0.901520 0.986145 0.945679
0.919373 0.997223 0.956512
0.919434 1.000000 0.971130
0.953949 1.000000 0.993164
0.940948 1.000000 0.981873
0.931061 1.000000 0.962128
0.934204 1.000000 0.965118
