Assets/LUTs/Custom.CUBE
#Created by: Adobe Photoshop Export Color Lookup Plugin
TITLE "Custom"
#LUT size
LUT_3D_SIZE 32
#data domain
DOMAIN_MIN 0.0 0.0 0.0
DOMAIN_MAX 1.0 1.0 1.0
#LUT data points
0.386932 0.496918 0.699585
0.386932 0.496918 0.699585
0.386932 0.496918 0.699585
0.382996 0.493835 0.696289
0.382996 0.493835 0.696289
0.382996 0.493835 0.696289
0.379242 0.491058 0.692963
0.379242 0.491058 0.692963
0.379242 0.491058 0.692963
0.382996 0.493835 0.696289
0.382996 0.493835 0.696289
0.382996 0.493835 0.696289
0.379242 0.491058 0.692963
0.379242 0.491058 0.692963
0.379242 0.491058 0.692963
0.375366 0.488007 0.689667
0.375366 0.488007 0.689667
0.379242 0.491058 0.692963
0.379242 0.491058 0.692963
0.379242 0.491058 0.692963
0.382996 0.493835 0.696289
0.382996 0.493835 0.696289
0.382996 0.493835 0.696289
0.386932 0.496918 0.699585
0.386932 0.496918 0.699585
0.390686 0.504852 0.702850
0.393768 0.522308 0.710022
0.401642 0.528076 0.716492
0.409424 0.534088 0.723053
0.413391 0.536926 0.726288
0.413391 0.536926 0.726288
0.417175 0.550079 0.729462
0.429718 0.534149 0.735504
0.425812 0.531158 0.732300
0.425812 0.531158 0.732300
0.425812 0.531158 0.732300
0.425812 0.531158 0.732300
0.429718 0.534149 0.735504
0.429718 0.534149 0.735504
0.429718 0.534149 0.735504
0.429718 0.534149 0.735504
0.429077 0.548584 0.739319
0.429077 0.548584 0.739319
0.429077 0.548584 0.739319
0.429077 0.548584 0.739319
0.429077 0.548584 0.739319
0.429077 0.548584 0.739319
0.429077 0.548584 0.739319
0.429077 0.548584 0.739319
0.433075 0.551514 0.742493
0.429077 0.548584 0.739319
0.429077 0.548584 0.739319
0.429077 0.548584 0.739319
0.429077 0.548584 0.739319
0.425049 0.545715 0.736115
0.425049 0.545715 0.736115
0.425049 0.545715 0.736115
0.420013 0.556549 0.740479
0.420013 0.556549 0.740479
0.420013 0.556549 0.740479
0.420013 0.556549 0.740479
0.420013 0.556549 0.740479
0.420013 0.556549 0.740479
0.420013 0.556549 0.740479
0.382568 0.483185 0.700317
0.381897 0.497742 0.704224
0.381897 0.497742 0.704224
0.381897 0.497742 0.704224
0.381897 0.497742 0.704224
0.385803 0.500671 0.707428
0.393585 0.506653 0.714050
0.397339 0.514404 0.717255
0.401154 0.517334 0.720520
0.413391 0.536926 0.726288
0.417267 0.539856 0.729553
0.421112 0.542725 0.732849
0.429077 0.548584 0.739319
0.433075 0.551514 0.742493
0.433075 0.551514 0.742493
0.433075 0.551514 0.742493
0.433075 0.551514 0.742493
0.436951 0.554413 0.745758
0.436951 0.554413 0.745758
0.436951 0.554413 0.745758
0.436951 0.554413 0.745758
0.436951 0.554413 0.745758
0.436951 0.554413 0.745758
0.436951 0.554413 0.745758
0.436951 0.554413 0.745758
0.450439 0.570557 0.743683
0.450439 0.570557 0.743683
0.437012 0.564545 0.745575
0.437012 0.564545 0.745575
0.437012 0.564545 0.745575
0.433044 0.561707 0.742340
0.433044 0.561707 0.742340
0.374878 0.477325 0.693726
0.378235 0.494781 0.700775
0.378235 0.494781 0.700775
0.381897 0.497742 0.704224
0.389648 0.503479 0.710754
0.393585 0.506653 0.714050
0.397369 0.509369 0.717285
0.401154 0.517334 0.720520
0.404999 0.520233 0.723877
0.413910 0.517395 0.722595
0.417969 0.520325 0.725800
0.421783 0.523163 0.729126
0.425842 0.526184 0.732330
0.429749 0.528961 0.735565
0.429749 0.528961 0.735565
0.425812 0.531158 0.732300
0.425812 0.531158 0.732300
0.433716 0.537018 0.738770
0.433716 0.537018 0.738770
0.433075 0.551514 0.742493
0.436951 0.554413 0.745758
0.436951 0.554413 0.745758
0.436951 0.554413 0.745758
0.440948 0.557281 0.748932
0.440948 0.557281 0.748932
0.442535 0.564758 0.737213
0.442535 0.564758 0.737213
0.433044 0.561707 0.742340
0.437012 0.564545 0.745575
0.437012 0.564545 0.745575
0.437012 0.564545 0.745575
0.440857 0.567413 0.748840
0.284607 0.417511 0.595306
0.276459 0.405792 0.596527
0.279846 0.399048 0.600250
0.287048 0.405334 0.607269
0.290710 0.408569 0.610809
0.297516 0.424469 0.617889
0.304871 0.435608 0.624786
0.316772 0.455505 0.626953
0.320496 0.458588 0.630402
0.308441 0.438751 0.628235
0.312103 0.441803 0.631775
0.315674 0.444855 0.635223
0.319336 0.447906 0.638702
0.326660 0.453979 0.645599
0.330383 0.457184 0.649017
0.342651 0.477051 0.651031
0.346252 0.480042 0.654480
0.368774 0.498322 0.674805
0.372650 0.501312 0.678162
0.384491 0.520905 0.684113
0.396149 0.529877 0.694000
0.399811 0.532959 0.697479
0.403595 0.535767 0.700745
0.407623 0.538910 0.704041
0.407623 0.538910 0.704041
0.465942 0.596649 0.760132
0.473846 0.612549 0.766388
0.481964 0.618378 0.772705
0.494232 0.627075 0.782135
0.502441 0.632782 0.788391
0.510620 0.638580 0.794678
0.514771 0.641327 0.797699
0.381897 0.497742 0.704224
0.386932 0.496918 0.699585
0.394592 0.502777 0.706177
0.402283 0.513794 0.712799
0.410034 0.519592 0.719299
0.406189 0.516693 0.716003
0.406189 0.516693 0.716003
0.418945 0.526764 0.717957
0.422821 0.529694 0.721222
0.422821 0.529694 0.721222
0.426849 0.532715 0.724426
0.426849 0.532715 0.724426
0.430634 0.535522 0.727753
0.434784 0.538544 0.730927
0.438751 0.541443 0.734161
0.442596 0.554565 0.737305
0.442596 0.554565 0.737305
0.446533 0.557434 0.740570
0.450531 0.560364 0.743774
0.454437 0.573456 0.746857
0.458466 0.576355 0.750031
0.466583 0.582031 0.756348
0.474457 0.587830 0.762878
0.478577 0.590759 0.765961
0.482605 0.593567 0.769165
0.495270 0.613342 0.774658
0.495239 0.623657 0.774567
0.499298 0.626526 0.777710
0.507507 0.632324 0.783997
0.511627 0.635162 0.787079
0.515717 0.638031 0.790222
0.519836 0.640869 0.793304
0.393036 0.495544 0.717987
0.393036 0.495544 0.717987
0.393036 0.495544 0.717987
0.389130 0.492645 0.714783
0.385376 0.489899 0.711456
0.381256 0.486908 0.708313
0.381256 0.486908 0.708313
0.381256 0.486908 0.708313
0.381256 0.486908 0.708313
0.381256 0.486908 0.708313
0.381256 0.486908 0.708313
0.385376 0.489899 0.711456
0.385376 0.489899 0.711456
0.393585 0.506653 0.714050
0.397369 0.509369 0.717285
0.397369 0.509369 0.717285
0.397369 0.509369 0.717285
0.398438 0.505737 0.709503
0.406281 0.511536 0.716003
0.410034 0.519592 0.719299
0.410034 0.519592 0.719299
0.413910 0.522430 0.722565
0.417908 0.525299 0.725769
0.438751 0.541443 0.734161
0.450623 0.550140 0.743866
0.450531 0.560364 0.743774
0.458466 0.576355 0.750031
0.465942 0.596649 0.760132
0.469879 0.599640 0.763336
0.469879 0.599640 0.763336
0.473999 0.602448 0.766449
0.477997 0.605316 0.769684
0.179199 0.339417 0.470490
0.148895 0.303589 0.430389
0.151825 0.307129 0.434448
0.151825 0.307129 0.434448
0.151825 0.307129 0.434448
0.151825 0.307129 0.434448
0.148895 0.303589 0.430389
0.146179 0.299957 0.426117
0.145996 0.308960 0.426086
0.145264 0.298431 0.407990
0.145264 0.298431 0.407990
0.145264 0.298431 0.407990
0.145264 0.298431 0.407990
0.141754 0.304596 0.408356
0.141754 0.304596 0.408356
0.138611 0.300751 0.404358
0.136200 0.296967 0.399811
0.130463 0.298096 0.391235
0.133179 0.301971 0.395538
0.136200 0.305756 0.399689
0.138733 0.309570 0.404083
0.140961 0.327454 0.412689
0.143890 0.331146 0.416748
0.143890 0.331146 0.416748
0.144348 0.317169 0.412506
0.147339 0.311951 0.416809
0.144806 0.308411 0.412445
0.141754 0.304596 0.408356
0.138611 0.300751 0.404358
0.138611 0.300751 0.404358
0.136200 0.296967 0.399811
0.136200 0.296967 0.399811
0.095001 0.273987 0.362854
0.113312 0.301300 0.393311
0.105682 0.289673 0.380127
0.100067 0.281830 0.371674
0.103271 0.286011 0.375641
0.105682 0.289673 0.380127
0.100067 0.281830 0.371674
0.100067 0.281830 0.371674
0.103271 0.286011 0.375641
0.114990 0.294891 0.383636
0.120331 0.293732 0.392365
0.125702 0.301331 0.401031
0.133911 0.312866 0.413788
0.136536 0.316467 0.418060
0.136536 0.316467 0.418060
0.136536 0.316467 0.418060
0.133911 0.312866 0.413788
0.165771 0.353119 0.458984
0.169037 0.356659 0.462799
0.175079 0.363861 0.470795
0.184113 0.374359 0.482788
0.190704 0.381500 0.490356
0.193634 0.384918 0.494415
0.196899 0.388458 0.498230
0.196899 0.388458 0.498230
0.180542 0.362183 0.483337
0.183838 0.361084 0.487244
0.186768 0.364563 0.491241
0.190125 0.368011 0.494995
0.186768 0.364563 0.491241
0.183838 0.361084 0.487244
0.180695 0.357483 0.483307
0.387665 0.472290 0.695801
0.374969 0.467224 0.693817
0.371063 0.464264 0.690521
0.363525 0.448334 0.683929
0.355988 0.442413 0.677216
0.348206 0.436035 0.674347
0.344238 0.432983 0.671082
0.344238 0.432983 0.671082
0.344238 0.432983 0.671082
0.338959 0.433319 0.679535
0.335236 0.430481 0.676208
0.331512 0.427521 0.672821
0.327606 0.424622 0.669586
0.340698 0.430084 0.667603
0.344238 0.432983 0.671082
0.347351 0.450531 0.678314
0.354980 0.456421 0.684967
0.367340 0.461334 0.687134
0.367340 0.461334 0.687134
0.367218 0.471375 0.687012
0.367218 0.471375 0.687012
0.371582 0.474945 0.686401
0.367737 0.471985 0.683105
0.360352 0.466187 0.676300
0.360352 0.466187 0.676300
0.364014 0.479187 0.679596
0.364014 0.479187 0.679596
0.360168 0.476074 0.676239
0.360168 0.476074 0.676239
0.360168 0.476074 0.676239
0.356506 0.473206 0.672882
0.356506 0.473206 0.672882
0.442596 0.544312 0.737457
0.406281 0.511536 0.716003
0.398438 0.505737 0.709503
0.390778 0.489777 0.702972
0.383209 0.483795 0.696320
0.378754 0.470093 0.697113
0.374969 0.467224 0.693817
0.371063 0.464264 0.690521
0.363495 0.458344 0.683807
0.386505 0.486145 0.703583
0.378845 0.480286 0.696960
0.367218 0.471375 0.687012
0.352173 0.459686 0.673615
0.348541 0.456757 0.670166
0.348541 0.456757 0.670166
0.351654 0.474121 0.677368
0.355377 0.477020 0.680786
0.366699 0.485962 0.690826
0.370544 0.488983 0.694153
0.374176 0.496857 0.697540
0.377960 0.499817 0.700806
0.374176 0.496857 0.697540
0.370422 0.493866 0.694122
0.362762 0.488007 0.687469
0.355377 0.482056 0.680695
0.379150 0.495972 0.692932
0.367706 0.487152 0.682922
0.352661 0.475159 0.669434
0.344604 0.483643 0.666534
0.344604 0.483643 0.666534
0.348236 0.486542 0.669952
0.348236 0.486542 0.669952
0.472809 0.604309 0.740234
0.477936 0.608765 0.735687
0.477936 0.608765 0.735687
0.477936 0.608765 0.735687
0.477936 0.608765 0.735687
0.472809 0.604309 0.740234
0.476837 0.607239 0.743469
0.476837 0.607239 0.743469
0.480865 0.615295 0.746613
0.485291 0.629181 0.745850
0.485382 0.639435 0.745697
0.485291 0.629181 0.745850
0.489502 0.632111 0.748901
0.480804 0.625458 0.746490
0.464752 0.603546 0.733795
0.444885 0.588623 0.717560
0.429047 0.571381 0.704590
0.416840 0.561737 0.698639
0.413055 0.548767 0.695374
0.409119 0.545624 0.692078
0.401398 0.539703 0.685486
0.393707 0.523621 0.679016
0.389923 0.520630 0.675629
0.373047 0.511810 0.674072
0.373047 0.511810 0.674072
0.361176 0.492249 0.668121
0.351990 0.489655 0.673309
0.348236 0.486542 0.669952
0.344604 0.483643 0.666534
0.346252 0.480042 0.654480
0.342651 0.477051 0.651031
0.342651 0.477051 0.651031
0.091125 0.284637 0.428986
0.048828 0.218658 0.349854
0.103973 0.292206 0.431793
0.099518 0.284241 0.418610
0.054474 0.200409 0.314575
0.073547 0.224884 0.341888
0.046143 0.172211 0.280121
0.086060 0.243103 0.359650
0.090973 0.251007 0.368591
0.067230 0.213226 0.327667
0.069153 0.217133 0.332581
0.073547 0.224884 0.341888
0.083008 0.240570 0.360016
0.083008 0.240570 0.360016
0.078217 0.232727 0.351013
0.081207 0.236755 0.355011
0.088043 0.248322 0.368835
0.103210 0.271057 0.395142
0.100220 0.267242 0.391083
0.103210 0.271057 0.395142
0.100220 0.267242 0.391083
0.093170 0.255981 0.377533
0.106049 0.274719 0.399170
0.119232 0.292969 0.420624
0.114044 0.285797 0.411987
0.095184 0.259583 0.382233
0.085266 0.244293 0.364594
0.106049 0.274719 0.399170
0.093170 0.255981 0.377533
0.088043 0.248322 0.368835
0.090424 0.252106 0.373291
0.067230 0.213226 0.327667
0.147736 0.319824 0.461731
0.140198 0.303406 0.440643
0.107330 0.259521 0.390045
0.090546 0.243256 0.373322
0.142151 0.312622 0.453461
0.137726 0.314941 0.458618
0.094055 0.257263 0.391693
0.102814 0.273560 0.418396
0.105621 0.277130 0.422516
0.108185 0.280670 0.426727
0.099640 0.264709 0.399994
0.140289 0.318420 0.462860
0.112305 0.282837 0.421661
0.101685 0.277130 0.404510
0.112457 0.291687 0.421326
0.109711 0.292542 0.417145
0.208527 0.406738 0.547668
0.245270 0.442444 0.588074
0.104340 0.285095 0.408661
0.051819 0.209076 0.330048
0.093994 0.276947 0.410309
0.202637 0.394226 0.561279
0.124115 0.317047 0.478149
0.227448 0.423950 0.603058
0.239532 0.428955 0.601257
0.083008 0.240570 0.360016
0.117126 0.288635 0.411774
0.114044 0.285797 0.411987
0.161377 0.351807 0.490326
0.143524 0.331482 0.488617
0.153503 0.340973 0.517609
0.114685 0.298035 0.470947
0.098785 0.262329 0.381531
0.079224 0.231537 0.345825
0.080902 0.235352 0.350922
0.083771 0.239166 0.354980
0.090973 0.251007 0.368591
0.104095 0.269928 0.390106
0.117126 0.288635 0.411774
0.131012 0.306763 0.432587
0.139648 0.317657 0.444824
0.125488 0.304138 0.424164
0.125488 0.304138 0.424164
0.122742 0.300476 0.420013
0.122742 0.300476 0.420013
0.117249 0.293091 0.411591
0.114471 0.289246 0.407379
0.109222 0.281860 0.398773
0.106354 0.278198 0.394684
0.096771 0.263153 0.376770
0.096771 0.263153 0.376770
0.096771 0.263153 0.376770
0.096771 0.263153 0.376770
0.093536 0.259033 0.372864
0.093536 0.259033 0.372864
0.093536 0.259033 0.372864
0.093536 0.259033 0.372864
0.103607 0.283142 0.390289
0.101105 0.279358 0.385986
0.096375 0.271606 0.376862
0.096375 0.271606 0.376862
0.096375 0.271606 0.376862
0.101105 0.279358 0.385986
0.113464 0.292480 0.393341
0.165680 0.340637 0.485596
0.162628 0.336975 0.481567
0.165680 0.340637 0.485596
0.168549 0.343872 0.489594
0.171844 0.347443 0.493378
0.165680 0.340637 0.485596
0.159515 0.333557 0.477783
0.150726 0.323273 0.465668
0.144623 0.316193 0.457794
0.153625 0.335815 0.469574
0.153625 0.335815 0.469574
0.153625 0.335815 0.469574
0.153625 0.335815 0.469574
0.153625 0.335815 0.469574
0.156769 0.339386 0.473450
0.156769 0.339386 0.473450
0.156769 0.339386 0.473450
0.153625 0.335815 0.469574
0.156769 0.339386 0.473450
0.162567 0.346252 0.481506
0.165833 0.349762 0.485321
0.162567 0.346252 0.481506
0.159698 0.342896 0.477509
0.156769 0.339386 0.473450
0.153625 0.335815 0.469574
0.166473 0.349457 0.480835
0.166473 0.349457 0.480835
0.166473 0.349457 0.480835
0.160095 0.342499 0.473206
0.148346 0.328308 0.457031
0.142609 0.321259 0.448914
0.137024 0.314087 0.440582
0.513855 0.649811 0.768005
0.523651 0.653046 0.762817
0.523682 0.663330 0.762695
0.528229 0.667114 0.762024
0.532349 0.670013 0.765137
0.532349 0.680298 0.765076
0.532349 0.680298 0.765076
0.536499 0.688293 0.768158
0.545715 0.695923 0.766785
0.542023 0.683533 0.759949
0.542023 0.683533 0.759949
0.550476 0.689484 0.766144
0.540588 0.686188 0.771362
0.544769 0.694244 0.774414
0.544769 0.694244 0.774414
0.540649 0.691376 0.771271
0.536499 0.688293 0.768158
0.540649 0.691376 0.771271
0.561462 0.705994 0.786835
0.565063 0.723480 0.793610
0.552490 0.714661 0.784332
0.548340 0.711792 0.781189
0.569336 0.726410 0.796661
0.611847 0.755463 0.827148
0.637726 0.772614 0.845184
0.616760 0.743774 0.826599
0.676758 0.786469 0.875610
0.712189 0.808716 0.898956
0.611542 0.744049 0.830933
0.418671 0.599060 0.682465
0.256409 0.455231 0.536560
0.210052 0.406128 0.483337
0.512451 0.642059 0.779480
0.525757 0.657715 0.781219
0.525757 0.657715 0.781219
0.526428 0.668884 0.777161
0.509857 0.657227 0.764740
0.518799 0.674835 0.763306
0.527069 0.680573 0.769531
0.535370 0.691650 0.775726
0.531311 0.683746 0.772644
0.531830 0.669250 0.769012
0.531830 0.669250 0.769012
0.531311 0.683746 0.772644
0.539642 0.689575 0.778870
0.553162 0.695007 0.780670
0.561493 0.700836 0.786926
0.569977 0.711914 0.792999
0.578430 0.717804 0.799164
0.591858 0.738678 0.800751
0.591858 0.738678 0.800751
0.591736 0.748962 0.800751
0.591736 0.748962 0.800751
0.595398 0.766327 0.807373
0.599762 0.769318 0.810425
0.604065 0.772156 0.813385
0.608368 0.775208 0.816467
0.626404 0.783630 0.821198
0.630829 0.786621 0.824127
0.635101 0.794678 0.827118
0.643768 0.800476 0.833130
0.652954 0.817780 0.835327
0.657135 0.820587 0.838379
0.671661 0.827240 0.836243
0.489685 0.601501 0.749207
0.498260 0.618530 0.751678
0.502228 0.626465 0.754761
0.518097 0.652679 0.771088
0.538757 0.677612 0.786560
0.560577 0.704254 0.794373
0.552246 0.698395 0.788116
0.552124 0.703491 0.788147
0.556213 0.716705 0.791168
0.552490 0.714661 0.784332
0.560913 0.720459 0.790466
0.560913 0.720459 0.790466
0.560913 0.720459 0.790466
0.587616 0.746063 0.797577
0.617523 0.766510 0.818909
0.648193 0.798248 0.836212
0.656830 0.803925 0.842163
0.656830 0.809082 0.842102
0.656830 0.809082 0.842102
0.665955 0.826416 0.844299
0.679108 0.835144 0.853241
0.698120 0.844666 0.854065
0.702515 0.847565 0.856995
0.702026 0.860504 0.858826
0.693146 0.854645 0.852905
0.702911 0.848694 0.853363
0.698547 0.845703 0.850372
0.694183 0.842896 0.847412
0.689758 0.839966 0.844452
0.680481 0.833038 0.842194
0.676147 0.830139 0.839142
0.662964 0.811005 0.830383
0.392517 0.447510 0.660370
0.354340 0.392670 0.628754
0.342041 0.373535 0.625488
0.325531 0.350861 0.622894
0.325531 0.350861 0.622894
0.336670 0.373749 0.635742
0.367645 0.422241 0.656158
0.405792 0.461914 0.689575
0.437256 0.526733 0.711578
0.453888 0.585754 0.716339
0.531830 0.669250 0.769012
0.586823 0.718475 0.805420
0.600586 0.734253 0.806946
0.605621 0.744202 0.802490
0.650604 0.782562 0.817780
0.690338 0.820190 0.840942
0.694702 0.828369 0.843872
0.713226 0.848206 0.843933
0.713989 0.840881 0.821899
0.713989 0.840881 0.821899
0.713989 0.840881 0.821899
0.718353 0.843872 0.824921
0.722931 0.846741 0.827789
0.722107 0.854156 0.850037
0.726410 0.856964 0.842316
0.736359 0.866455 0.835022
0.744415 0.879700 0.835876
0.757843 0.881134 0.849487
0.744934 0.872345 0.840851
0.730957 0.859924 0.845306
0.726410 0.856964 0.842316
0.726410 0.856964 0.842316
0.646454 0.790863 0.811005
0.681549 0.819611 0.834900
0.684875 0.825653 0.845306
0.693787 0.831390 0.851166
0.703552 0.834106 0.849731
0.703552 0.834106 0.849731
0.713745 0.837891 0.844666
0.719086 0.832550 0.840363
0.722992 0.844849 0.846954
0.730957 0.859924 0.845306
0.732025 0.863342 0.837524
0.749146 0.875214 0.849335
0.762024 0.883942 0.858002
0.779419 0.895752 0.863953
0.788055 0.901581 0.869629
0.796753 0.907349 0.875366
0.801117 0.910278 0.878235
0.779327 0.899658 0.850037
0.774963 0.896759 0.847137
0.766327 0.890900 0.841461
0.762024 0.888000 0.838562
0.761505 0.895233 0.839172
0.770172 0.901031 0.844910
0.783112 0.909698 0.853271
0.792145 0.912170 0.844391
0.787415 0.916718 0.830658
0.792175 0.916321 0.818939
0.801361 0.914795 0.829895
0.805756 0.917694 0.832703
0.805756 0.917694 0.832703
0.801361 0.914795 0.829895
0.796997 0.911957 0.827209
0.745239 0.861450 0.842651
0.721985 0.854065 0.839417
0.735413 0.862823 0.848175
0.739899 0.865814 0.851257
0.730957 0.859924 0.845306
0.716309 0.862030 0.856262
0.725159 0.867920 0.862305
0.734131 0.873779 0.868164
0.744324 0.868683 0.854187
0.740601 0.869385 0.837738
0.740143 0.876770 0.832733
0.753082 0.885559 0.841644
0.774536 0.900208 0.855927
0.791748 0.915497 0.858978
0.809113 0.927063 0.870209
0.827057 0.935242 0.866943
0.835815 0.940918 0.872314
0.826630 0.942474 0.861481
0.826630 0.942474 0.861481
0.831055 0.945404 0.858398
0.835419 0.948242 0.861115
0.830994 0.949310 0.838165
0.830994 0.949310 0.838165
0.830994 0.949310 0.838165
0.840271 0.947845 0.849213
0.849457 0.946106 0.871979
0.845001 0.943207 0.869080
0.840607 0.940399 0.866364
0.836182 0.937561 0.863525
0.822754 0.936432 0.838287
0.818359 0.933563 0.835602
0.818695 0.930176 0.826691
0.813965 0.926605 0.858582
0.813965 0.926605 0.858582
0.809570 0.923767 0.855682
0.805267 0.920868 0.852936
0.800842 0.917999 0.850128
0.800842 0.917999 0.850128
0.800842 0.917999 0.850128
0.800842 0.917999 0.850128
0.805267 0.920868 0.852936
0.809845 0.920135 0.858490
0.809845 0.920135 0.858490
0.809845 0.920135 0.858490
0.809845 0.920135 0.858490
0.805267 0.920868 0.852936
0.800842 0.917999 0.850128
0.800842 0.917999 0.850128
0.800842 0.917999 0.850128
0.791656 0.919525 0.839203
0.809113 0.930969 0.850281
0.831055 0.945251 0.864075
0.835388 0.948120 0.866852
0.821503 0.950287 0.856171
0.821503 0.950287 0.856171
0.834656 0.958801 0.864502
0.861420 0.968353 0.897888
0.844360 0.946198 0.901031
0.897827 0.972900 0.939697
0.915558 0.983948 0.956543
0.897766 0.972778 0.945587
0.880432 0.954376 0.940094
0.817078 0.914764 0.900604
0.682190 0.827393 0.812317
0.818695 0.926086 0.852509
0.809204 0.931091 0.844543
0.809204 0.931091 0.844543
0.809204 0.931091 0.844543
0.809204 0.931091 0.844543
0.799988 0.932587 0.833588
0.799988 0.932587 0.833588
0.799988 0.932587 0.833588
0.799988 0.932587 0.833588
0.804871 0.928192 0.841858
0.817993 0.936859 0.850220
0.831055 0.945404 0.858398
0.844208 0.953949 0.866669
0.849091 0.953522 0.854736
0.849091 0.953522 0.854736
0.830994 0.949310 0.838165
0.826599 0.946503 0.835419
0.831085 0.949463 0.832397
0.826691 0.946625 0.829651
0.822296 0.943756 0.826965
0.822296 0.943756 0.826965
0.822296 0.943756 0.826965
0.822296 0.943756 0.826965
0.826599 0.946503 0.835419
0.840271 0.947845 0.849213
0.797180 0.907990 0.841217
0.872772 0.938782 0.896454
0.939545 0.977173 0.952026
0.931183 0.967804 0.966583
0.836212 0.909424 0.922729
0.694336 0.811554 0.847717
0.554932 0.698456 0.765564
0.827454 0.935883 0.832184
0.826599 0.946503 0.835419
0.826141 0.949768 0.850006
0.830658 0.952576 0.852905
0.834991 0.955414 0.855530
0.834991 0.955414 0.855530
0.834991 0.955414 0.855530
0.821564 0.954346 0.830292
0.830994 0.949310 0.838165
0.836182 0.941620 0.837646
0.836182 0.941620 0.837646
0.840271 0.947845 0.849213
0.840271 0.947845 0.849213
0.839844 0.951111 0.863953
0.835419 0.948242 0.861115
0.831055 0.945251 0.864075
0.826630 0.942474 0.861481
0.831055 0.945251 0.864075
0.831055 0.945251 0.864075
0.835419 0.948242 0.861115
0.831055 0.945404 0.858398
0.827118 0.939301 0.841156
0.822754 0.936432 0.838287
0.814331 0.927277 0.823914
0.805634 0.921539 0.818542
0.787750 0.917419 0.796295
0.783478 0.914520 0.793488
0.783478 0.914520 0.793488
0.779144 0.911591 0.790710
0.779144 0.911591 0.790710
0.783478 0.914520 0.793488
0.787750 0.917419 0.796295
0.817841 0.940765 0.830109
0.822754 0.936432 0.838287
0.827118 0.939301 0.841156
0.827118 0.939301 0.841156
0.831421 0.942169 0.843781
0.840698 0.940643 0.854797
0.845093 0.943451 0.857422
0.845093 0.943451 0.857422
0.849487 0.946289 0.860229
0.845001 0.943207 0.869080
0.845001 0.943207 0.869080
0.845093 0.943451 0.857422
0.840698 0.940643 0.854797
0.835815 0.944977 0.846466
0.840271 0.947845 0.849213
0.849091 0.953522 0.854736
0.853424 0.956360 0.857391
0.791748 0.923676 0.807678
0.778778 0.915039 0.799561
0.765747 0.906342 0.791138
0.770142 0.909210 0.793945
0.774780 0.908722 0.787933
0.770447 0.905792 0.785126
0.757080 0.904388 0.771606
0.770142 0.909210 0.793945
0.814209 0.923035 0.861237
0.863129 0.939758 0.914215
0.876434 0.948303 0.922699
0.715881 0.840637 0.816345
0.438019 0.628387 0.602356
0.325714 0.522247 0.494812
0.425964 0.622131 0.600250
0.861847 0.965210 0.877472
0.861847 0.965210 0.877472
0.857422 0.962402 0.874725
0.857849 0.959137 0.860107
0.853424 0.956360 0.857391
0.853424 0.956360 0.857391
0.849091 0.953522 0.854736
0.844635 0.950653 0.851898
0.844635 0.950653 0.851898
0.839844 0.951111 0.863953
0.844116 0.953827 0.872406
0.844116 0.953827 0.872406
0.848602 0.956573 0.875061
0.839050 0.961670 0.867249
0.843353 0.964417 0.869629
0.847839 0.967255 0.872498
0.847839 0.967255 0.872498
0.856689 0.972900 0.877960
0.856689 0.972900 0.877960
0.843018 0.971588 0.864166
0.843018 0.971588 0.864166
0.860626 0.982849 0.874939
0.873932 0.991272 0.883057
0.869446 0.988434 0.880280
0.861084 0.975677 0.880585
0.848602 0.956573 0.875061
0.848602 0.956573 0.875061
0.844116 0.953827 0.872406
0.839752 0.950958 0.869720
0.835388 0.948120 0.866852
0.835388 0.948120 0.866852
0.831055 0.945251 0.864075
0.883972 0.975311 0.917236
0.874664 0.976776 0.906158
0.870178 0.974030 0.903412
0.870636 0.970734 0.888702
0.875031 0.973541 0.891449
0.865509 0.978516 0.883484
0.865509 0.978516 0.883484
0.869904 0.981293 0.885925
0.869904 0.981293 0.885925
0.897217 0.987549 0.904938
0.892883 0.984833 0.896240
0.892792 0.984741 0.902191
0.892792 0.984741 0.902191
0.910126 0.998993 0.933594
0.926422 1.000000 0.955353
0.900970 0.996857 0.931244
0.874329 0.980133 0.915070
0.883118 0.985687 0.920258
