Assets/LUTs/Custom.CUBE
#Created by: Adobe Photoshop Export Color Lookup Plugin
TITLE "Custom"
#LUT size
LUT_3D_SIZE 5
#data domain
#LUT data points
DOMAIN_MIN 0.000000 0.000000 0.000000
DOMAIN_MAX 0.903226 0.903226 0.903226
0.386932 0.496918 0.699585
0.379242 0.491058 0.692963
0.379242 0.491058 0.692963
0.382996 0.493835 0.696289
0.409424 0.534088 0.723053
0.179199 0.339417 0.470490
0.146179 0.299957 0.426117
0.141754 0.304596 0.408356
0.140961 0.327454 0.412689
0.138611 0.300751 0.404358
0.098785 0.262329 0.381531
0.131012 0.306763 0.432587
0.114471 0.289246 0.407379
0.093536 0.259033 0.372864
0.096375 0.271606 0.376862
0.745239 0.861450 0.842651
0.734131 0.873779 0.868164
0.809113 0.927063 0.870209
0.830994 0.949310 0.838165
0.836182 0.937561 0.863525
0.924072 0.992706 0.976624
0.919434 0.997467 0.944702
0.915161 0.991150 0.944885
0.980713 1.000000 0.997192
0.915527 0.987823 0.936005
0.394592 0.492706 0.706329
0.383209 0.483795 0.696320
0.382996 0.493835 0.696289
0.397736 0.525330 0.713318
0.417175 0.550079 0.729462
0.153473 0.330322 0.447357
0.147522 0.318359 0.439331
0.148438 0.322449 0.434570
0.145325 0.318726 0.430542
0.138062 0.323761 0.408539
0.127777 0.304047 0.432953
0.108643 0.278320 0.403503
0.109467 0.290649 0.398468
0.121277 0.303802 0.406311
0.104034 0.274231 0.390076
0.779327 0.899658 0.850037
0.757721 0.885071 0.835785
0.817963 0.932739 0.875854
0.830658 0.952576 0.852905
0.827118 0.939301 0.841156
0.922729 1.000000 0.967743
0.934174 0.984650 0.964264
0.934204 1.000000 0.965118
0.927185 1.000000 0.956909
0.919434 0.997467 0.944702
0.402405 0.508789 0.712799
0.398438 0.505737 0.709503
0.402405 0.508789 0.712799
0.409424 0.534088 0.723053
0.417175 0.550079 0.729462
0.100281 0.290405 0.371338
0.088654 0.315033 0.362732
0.099976 0.315918 0.371124
0.090057 0.299805 0.353333
0.070984 0.274353 0.316620
0.133545 0.311279 0.441101
0.133545 0.311279 0.441101
0.125336 0.299500 0.424316
0.124908 0.289215 0.406036
0.114471 0.289246 0.407379
0.814209 0.923035 0.861237
0.788086 0.905731 0.844391
0.822357 0.935669 0.878784
0.821869 0.946930 0.847473
0.835815 0.944977 0.846466
0.909821 0.998413 0.962952
0.938690 0.987366 0.966919
0.914703 0.998016 0.950897
0.919922 1.000000 0.953705
0.919434 0.997467 0.944702
0.413910 0.522430 0.722565
0.398346 0.510773 0.709473
0.410034 0.519592 0.719299
0.409424 0.534088 0.723053
0.417175 0.550079 0.729462
0.166656 0.407990 0.475739
0.091583 0.304993 0.362732
0.093323 0.289886 0.353027
0.106201 0.309998 0.375061
0.117798 0.327240 0.406342
0.162567 0.346252 0.481506
0.144897 0.325378 0.457458
0.146454 0.310638 0.448456
0.140198 0.303406 0.440643
0.136932 0.318573 0.440582
0.827667 0.928253 0.860901
0.792755 0.905151 0.838348
0.809113 0.927063 0.870209
0.826141 0.949768 0.850006
0.831421 0.942169 0.843781
0.909821 0.998413 0.962952
0.929016 0.992401 0.958710
0.909821 0.998413 0.962952
0.919922 1.000000 0.953705
0.919434 0.997467 0.944702
0.421783 0.528259 0.729095
0.425812 0.531158 0.732300
0.425049 0.545715 0.736115
0.413391 0.536926 0.726288
0.412231 0.550690 0.733948
0.091431 0.296844 0.363098
0.106659 0.320404 0.389435
0.093353 0.281311 0.353088
0.119293 0.320984 0.396973
0.078156 0.245880 0.331085
0.153534 0.326630 0.469788
0.171844 0.347443 0.493378
0.147705 0.328888 0.461609
0.127777 0.304047 0.432953
0.148346 0.328308 0.457031
0.818268 0.929474 0.861328
0.805267 0.920868 0.852936
0.809570 0.923767 0.855682
0.808319 0.941711 0.847931
0.826691 0.946625 0.829651
0.931061 1.000000 0.962128
0.919373 0.997223 0.956512
0.961243 1.000000 0.987885
0.926697 1.000000 0.973083
0.934204 1.000000 0.965118
