Assets/LUTs/Warm.CUBE
#Created by: Adobe Photoshop Export Color Lookup Plugin
TITLE "Warm"
#LUT size
LUT_3D_SIZE 8
#data domain
#LUT data points
DOMAIN_MIN 0.000000 0.000000 0.000000
DOMAIN_MAX 0.903226 0.903226 0.903226
0.597412 0.480316 0.576111
0.593475 0.476257 0.572174
0.589600 0.472229 0.568298
0.589600 0.472229 0.568298
0.585754 0.468109 0.564392
0.593475 0.476257 0.572174
0.597412 0.480316 0.576111
0.619720 0.509125 0.588379
0.486908 0.360748 0.457703
0.496674 0.375946 0.483337
0.525879 0.400238 0.488556
0.527374 0.407806 0.503082
0.553253 0.428070 0.515381
0.602417 0.476868 0.554413
0.613831 0.489166 0.566010
0.696442 0.588959 0.640625
0.225708 0.144928 0.190216
0.239838 0.154968 0.200562
0.239838 0.154968 0.200562
0.288208 0.186340 0.242676
0.288208 0.186340 0.242676
0.361115 0.247620 0.303955
0.378052 0.262299 0.318512
0.371094 0.258270 0.325043
0.243927 0.191254 0.243622
0.155548 0.107391 0.163879
0.224243 0.147675 0.209656
0.211182 0.140747 0.202423
0.220337 0.147552 0.209503
0.242950 0.164703 0.227081
0.265717 0.181946 0.244904
0.229858 0.154205 0.216522
0.708038 0.577209 0.626282
0.721008 0.577698 0.623260
0.730652 0.582275 0.616364
0.727966 0.586182 0.623627
0.724091 0.582062 0.616028
0.738739 0.603119 0.624237
0.811676 0.688751 0.702789
0.790741 0.666962 0.690399
0.811157 0.651062 0.665131
0.857758 0.707184 0.712646
0.870697 0.707520 0.716980
0.905884 0.759888 0.737732
0.940796 0.799774 0.773712
0.918793 0.764679 0.738403
0.953125 0.800110 0.766693
0.972839 0.809387 0.779114
0.999847 0.836304 0.799530
1.000000 0.864807 0.813049
1.000000 0.857422 0.811920
1.000000 0.857635 0.819427
0.987701 0.844757 0.798981
0.994293 0.849304 0.803162
0.982422 0.814026 0.779572
0.971252 0.796448 0.756104
1.000000 0.943054 0.922241
1.000000 0.945709 0.923950
1.000000 0.949127 0.930328
1.000000 0.960205 0.946167
1.000000 0.982178 0.974304
1.000000 0.927368 0.898285
1.000000 0.927368 0.898285
1.000000 0.941071 0.924438
0.605042 0.488525 0.583832
0.597412 0.480316 0.576111
0.593475 0.476257 0.572174
0.593475 0.476257 0.572174
0.589600 0.472229 0.568298
0.593475 0.476257 0.572174
0.608795 0.492615 0.587708
0.627380 0.517365 0.596130
0.629211 0.501434 0.588867
0.609283 0.492462 0.595093
0.629883 0.509521 0.592560
0.642700 0.529816 0.619049
0.660095 0.542664 0.623749
0.659302 0.538666 0.612671
0.666748 0.547058 0.620422
0.688965 0.580566 0.632782
0.375732 0.261871 0.335693
0.383911 0.269409 0.343018
0.346252 0.236176 0.310059
0.337616 0.221649 0.306091
0.358795 0.239868 0.324310
0.358795 0.239868 0.324310
0.333313 0.218109 0.302429
0.363373 0.250732 0.324707
0.209564 0.176544 0.218445
0.213623 0.157135 0.209137
0.217926 0.134552 0.196259
0.192352 0.127411 0.188477
0.178680 0.117340 0.177917
0.154083 0.101349 0.160675
0.201874 0.134064 0.195404
0.269958 0.185516 0.248444
0.708038 0.577209 0.626282
0.726929 0.573853 0.616058
0.724304 0.582001 0.619751
0.719543 0.593933 0.641785
0.727966 0.586182 0.623627
0.766815 0.616211 0.651703
0.797455 0.638000 0.660675
0.830658 0.693726 0.692413
0.836823 0.689667 0.692719
0.858002 0.715729 0.708862
0.867157 0.703186 0.713043
0.905884 0.759888 0.737732
0.940796 0.799774 0.773712
0.939880 0.791168 0.762268
0.960022 0.809052 0.774597
0.979462 0.818329 0.779419
1.000000 0.842407 0.806915
1.000000 0.864807 0.813049
1.000000 0.845154 0.795837
1.000000 0.857635 0.819427
0.987701 0.844757 0.798981
0.994293 0.849304 0.803162
0.964966 0.791870 0.759583
0.964294 0.787567 0.748138
1.000000 0.967773 0.955902
1.000000 0.951874 0.932556
1.000000 0.930664 0.905121
1.000000 0.931763 0.912994
1.000000 0.950470 0.936829
1.000000 0.983307 0.977203
1.000000 0.954926 0.941925
1.000000 0.948273 0.936646
0.605438 0.488434 0.591156
0.601654 0.484283 0.587250
0.594055 0.476074 0.579559
0.593475 0.476257 0.572174
0.593201 0.476349 0.568512
0.604401 0.492737 0.572845
0.623505 0.513306 0.592255
0.626892 0.517487 0.588806
0.595398 0.460510 0.564911
0.582916 0.467865 0.571625
0.608093 0.505066 0.565735
0.632050 0.525482 0.611176
0.653717 0.546539 0.623444
0.678406 0.563660 0.635895
0.689636 0.576202 0.647644
0.693878 0.597046 0.644226
0.343048 0.243134 0.306488
0.355652 0.254211 0.317352
0.321564 0.225006 0.288208
0.354767 0.243500 0.317383
0.363373 0.250732 0.324707
0.388214 0.273102 0.346741
0.380066 0.265533 0.339417
0.354767 0.243500 0.317383
0.261810 0.185364 0.244781
0.244324 0.148315 0.217346
0.178680 0.117340 0.177917
0.210968 0.134094 0.205597
0.217102 0.150543 0.209320
0.244995 0.154938 0.217377
0.207031 0.137177 0.198914
0.246033 0.177917 0.243713
0.721863 0.581696 0.634430
0.716919 0.573578 0.611938
0.718781 0.589966 0.630615
0.722473 0.594177 0.634552
0.732544 0.594421 0.638763
0.757080 0.624298 0.643738
0.784515 0.650391 0.648865
0.827240 0.697906 0.684753
0.863617 0.698792 0.709076
0.854797 0.711334 0.712494
0.863953 0.703125 0.712921
0.889740 0.750793 0.740753
0.957855 0.822021 0.782257
0.950104 0.808868 0.762756
0.970032 0.813660 0.782776
0.984161 0.831390 0.802612
1.000000 0.858887 0.812653
1.000000 0.865021 0.820801
1.000000 0.844116 0.810150
1.000000 0.863525 0.819885
1.000000 0.845154 0.795837
0.996582 0.840637 0.791718
0.968658 0.805023 0.759796
0.960480 0.783234 0.736572
1.000000 0.958099 0.935730
1.000000 0.945709 0.923950
1.000000 0.937988 0.920898
1.000000 0.957520 0.939087
1.000000 0.945313 0.921570
1.000000 0.989655 0.983704
1.000000 0.936829 0.913513
1.000000 0.955353 0.938812
0.608795 0.492615 0.587708
0.605042 0.488525 0.583832
0.597412 0.480316 0.576111
0.601105 0.484436 0.579956
0.608551 0.492676 0.584015
0.615936 0.505066 0.584473
0.623505 0.513306 0.592255
0.626892 0.517487 0.588806
0.580811 0.452209 0.553162
0.614044 0.500427 0.610107
0.631287 0.517426 0.607361
0.620667 0.513000 0.599396
0.642487 0.533966 0.611725
0.670959 0.555237 0.628082
0.678406 0.563660 0.635895
0.688965 0.580566 0.632782
0.371094 0.258270 0.325043
0.362457 0.250977 0.317719
0.366699 0.254669 0.321381
0.371582 0.258179 0.332031
0.358856 0.247192 0.320892
0.333405 0.225281 0.299072
0.312286 0.207153 0.281006
0.333405 0.225281 0.299072
0.196198 0.139923 0.204742
0.249298 0.151520 0.220795
0.251617 0.188110 0.250793
0.245911 0.167542 0.250458
0.220123 0.156677 0.229095
0.291351 0.220245 0.283234
0.221436 0.147278 0.215973
0.396332 0.305969 0.371521
0.725525 0.585876 0.638397
0.716919 0.573578 0.611938
0.718781 0.589966 0.630615
0.722473 0.594177 0.634552
0.732544 0.594421 0.638763
0.753387 0.620117 0.639862
0.780914 0.646057 0.644958
0.820221 0.684967 0.684418
0.874329 0.711884 0.720947
0.854797 0.711334 0.712494
0.860382 0.698761 0.708954
0.899414 0.751068 0.745026
0.964874 0.830902 0.790192
0.977234 0.831329 0.786987
0.987518 0.835907 0.802826
0.983978 0.831421 0.798737
0.997803 0.853790 0.807129
1.000000 0.865021 0.820801
1.000000 0.842407 0.806915
1.000000 0.863525 0.819885
1.000000 0.845154 0.795837
1.000000 0.863525 0.819885
0.942535 0.786896 0.754700
0.495514 0.324463 0.355225
1.000000 0.958099 0.935730
1.000000 0.939575 0.915375
1.000000 0.931763 0.912994
1.000000 0.963684 0.947845
1.000000 0.957520 0.939087
1.000000 0.985352 0.977295
1.000000 0.943024 0.921936
1.000000 0.959747 0.944244
0.616119 0.500885 0.591797
0.608551 0.492676 0.584015
0.608551 0.492676 0.584015
0.612610 0.496735 0.591553
0.616119 0.500885 0.591797
0.619720 0.509125 0.588379
0.631104 0.521576 0.600067
0.626892 0.517487 0.588806
0.566956 0.447754 0.552368
0.591125 0.475891 0.586731
0.616119 0.500885 0.591797
0.613068 0.504761 0.591644
0.631104 0.521576 0.600067
0.667175 0.551056 0.624115
0.697144 0.584595 0.655487
0.692078 0.576538 0.632904
0.340698 0.225525 0.295990
0.349152 0.232788 0.303284
0.323669 0.211090 0.281525
0.350647 0.239716 0.313690
0.346252 0.236176 0.310059
0.367401 0.254486 0.328308
0.354767 0.243500 0.317383
0.346252 0.236176 0.310059
0.274292 0.205841 0.275543
0.329315 0.221619 0.295471
0.350739 0.289581 0.351593
0.318054 0.248230 0.342743
0.386444 0.297821 0.388458
0.279053 0.243256 0.316223
0.267151 0.178223 0.264984
0.312134 0.231384 0.297943
0.725525 0.585876 0.638397
0.724304 0.582001 0.619751
0.718781 0.589966 0.630615
0.722473 0.594177 0.634552
0.732544 0.594421 0.638763
0.753387 0.620117 0.639862
0.784515 0.650391 0.648865
0.805939 0.667633 0.672394
0.870697 0.707520 0.716980
0.847595 0.702637 0.704559
0.863953 0.703125 0.712921
0.902374 0.746857 0.745148
0.975006 0.839935 0.798370
0.994293 0.849304 0.803162
0.997192 0.840546 0.807068
0.996887 0.840607 0.799438
1.000000 0.863800 0.827179
1.000000 0.869995 0.834961
1.000000 0.845306 0.803864
1.000000 0.857635 0.819427
1.000000 0.851471 0.811554
0.989899 0.831696 0.791382
0.771851 0.587891 0.584839
0.496613 0.358215 0.397675
1.000000 0.934113 0.898865
1.000000 0.939575 0.915375
1.000000 0.956787 0.944824
1.000000 0.957520 0.939087
1.000000 0.945313 0.921570
1.000000 0.981079 0.971222
1.000000 0.955353 0.938812
1.000000 0.955353 0.938812
0.623749 0.509125 0.599579
0.616119 0.500885 0.591797
0.608551 0.492676 0.584015
0.616425 0.500793 0.595490
0.623749 0.509125 0.599579
0.619720 0.509125 0.588379
0.631104 0.521576 0.600067
0.626892 0.517487 0.588806
0.473358 0.356232 0.464111
0.516571 0.403564 0.498840
0.548798 0.424225 0.504242
0.563202 0.451691 0.541351
0.589203 0.476349 0.557343
0.652191 0.534393 0.608551
0.697144 0.584595 0.655487
0.718018 0.606110 0.660370
0.361725 0.243835 0.314270
0.378815 0.258423 0.328918
0.370209 0.251129 0.321503
0.363373 0.250732 0.324707
0.375732 0.261871 0.335693
0.375732 0.261871 0.335693
0.358856 0.247192 0.320892
0.337891 0.228821 0.302765
0.276794 0.212311 0.289063
0.270172 0.178589 0.258545
0.276917 0.236481 0.302582
0.257263 0.206940 0.311279
0.375061 0.282440 0.391266
0.393799 0.371704 0.441437
0.272217 0.181610 0.275421
0.320648 0.238770 0.305267
0.725525 0.585876 0.638397
0.720612 0.577759 0.615845
0.718781 0.589966 0.630615
0.722473 0.594177 0.634552
0.732544 0.594421 0.638763
0.757080 0.624298 0.643738
0.781097 0.645996 0.648743
0.806213 0.667603 0.679871
0.899170 0.742371 0.748749
0.844025 0.698273 0.700623
0.871124 0.711823 0.720825
0.916565 0.764435 0.761078
0.991516 0.849121 0.810699
1.000000 0.857635 0.819427
1.000000 0.848846 0.821869
1.000000 0.852844 0.807465
1.000000 0.869995 0.834961
1.000000 0.851471 0.811554
1.000000 0.865021 0.820801
1.000000 0.851593 0.819244
1.000000 0.864044 0.834320
0.958832 0.791656 0.763123
0.494720 0.294983 0.309540
0.364258 0.226807 0.266357
1.000000 0.940094 0.908112
1.000000 0.939575 0.915375
1.000000 0.956787 0.944824
1.000000 0.957520 0.939087
1.000000 0.981079 0.971222
1.000000 0.981079 0.971222
1.000000 0.955353 0.938812
1.000000 0.955353 0.938812
0.619995 0.505035 0.595734
0.631287 0.517426 0.607361
0.619995 0.505035 0.595734
0.619720 0.509125 0.588379
0.619720 0.509125 0.588379
0.619720 0.509125 0.588379
0.623505 0.513306 0.592255
0.623810 0.521423 0.588623
0.512756 0.399536 0.495087
0.581696 0.464142 0.556915
0.649292 0.530090 0.619446
0.634186 0.513519 0.603851
0.663879 0.546844 0.627716
0.663483 0.546875 0.620270
0.689636 0.576202 0.647644
0.695770 0.580719 0.636902
0.519653 0.399811 0.495453
0.532288 0.419464 0.514191
0.536774 0.427277 0.521698
0.549683 0.451111 0.540588
0.571686 0.467651 0.552734
0.585815 0.476166 0.557159
0.589203 0.476349 0.557343
0.574249 0.455963 0.552856
0.253418 0.171326 0.247589
0.258179 0.174683 0.251221
0.243561 0.180847 0.250305
0.341675 0.288666 0.368347
0.364716 0.336609 0.418427
0.471130 0.424500 0.503387
0.262695 0.218536 0.288177
0.299744 0.220367 0.293884
0.712646 0.598022 0.630371
0.710968 0.581573 0.615387
0.721863 0.581696 0.634430
0.724884 0.590210 0.623444
0.746185 0.607422 0.639496
0.766632 0.624725 0.640503
0.792023 0.658936 0.660461
0.798492 0.659088 0.660767
0.904846 0.729675 0.745178
0.860382 0.698761 0.708954
0.861206 0.715820 0.709015
0.926361 0.782104 0.750122
0.991516 0.849121 0.810699
1.000000 0.858887 0.812653
1.000000 0.857635 0.819427
0.994446 0.844849 0.810822
1.000000 0.863525 0.819885
1.000000 0.845306 0.803864
1.000000 0.857849 0.826874
1.000000 0.845398 0.811798
1.000000 0.863800 0.827179
0.992767 0.831818 0.783905
0.540100 0.325745 0.332336
0.530273 0.374268 0.420532
1.000000 0.939575 0.915375
1.000000 0.927368 0.898285
1.000000 0.939575 0.915375
1.000000 0.958557 0.937958
1.000000 0.981354 0.969299
1.000000 0.968994 0.952850
1.000000 0.964172 0.949738
1.000000 0.968048 0.953552
0.631287 0.517426 0.607361
0.635132 0.521545 0.611298
0.631287 0.517426 0.607361
0.634827 0.525757 0.603973
0.634827 0.525757 0.603973
0.627380 0.517365 0.596130
0.623505 0.513306 0.592255
0.623810 0.521423 0.588623
0.578918 0.467834 0.560425
0.623749 0.509125 0.599579
0.634186 0.513519 0.603851
0.634186 0.513519 0.603851
0.660095 0.542664 0.623749
0.674713 0.559418 0.631958
0.704468 0.593079 0.663330
0.662079 0.543091 0.601715
0.601837 0.480225 0.594666
0.580109 0.463562 0.582336
0.576721 0.463470 0.582184
0.535400 0.430756 0.546997
0.564911 0.455322 0.563232
0.575226 0.459717 0.563843
0.570465 0.451843 0.548981
0.578064 0.459991 0.556702
0.150299 0.097900 0.163544
0.198364 0.130402 0.198334
0.280182 0.199371 0.265747
0.304626 0.207001 0.280548
0.249268 0.167725 0.243927
0.261688 0.178406 0.247986
0.166412 0.113647 0.177216
0.334198 0.256989 0.319763
0.709137 0.589569 0.633850
0.710968 0.581573 0.615387
0.721405 0.581787 0.627014
0.732361 0.598663 0.631317
0.760925 0.624359 0.655182
0.773987 0.633270 0.648346
0.792023 0.658936 0.660461
0.809357 0.671967 0.672577
0.880554 0.712128 0.717468
0.863831 0.707428 0.705322
0.871613 0.729004 0.713348
0.922821 0.777710 0.746155
1.000000 0.863525 0.824829
1.000000 0.858887 0.812653
1.000000 0.857635 0.819427
0.994446 0.844849 0.810822
0.996582 0.840637 0.791718
1.000000 0.845306 0.803864
1.000000 0.857849 0.826874
1.000000 0.845398 0.811798
1.000000 0.863800 0.827179
0.961365 0.791870 0.748047
0.966553 0.809204 0.778778
0.567200 0.398376 0.440186
1.000000 0.964172 0.949738
1.000000 0.927368 0.898285
1.000000 0.951874 0.932556
1.000000 0.952515 0.928955
1.000000 0.975433 0.959534
1.000000 0.968994 0.952850
1.000000 0.964172 0.949738
1.000000 0.968048 0.953552
