Assets/LUTs/Warm.CUBE
#Created by: Adobe Photoshop Export Color Lookup Plugin
TITLE "Warm"
#LUT size
LUT_3D_SIZE 32
#data domain
DOMAIN_MIN 0.0 0.0 0.0
DOMAIN_MAX 1.0 1.0 1.0
#LUT data points
0.597412 0.480316 0.576111
0.597412 0.480316 0.576111
0.597412 0.480316 0.576111
0.593475 0.476257 0.572174
0.593475 0.476257 0.572174
0.593475 0.476257 0.572174
0.589600 0.472229 0.568298
0.589600 0.472229 0.568298
0.589600 0.472229 0.568298
0.593475 0.476257 0.572174
0.593475 0.476257 0.572174
0.593475 0.476257 0.572174
0.589600 0.472229 0.568298
0.589600 0.472229 0.568298
0.589600 0.472229 0.568298
0.585754 0.468109 0.564392
0.585754 0.468109 0.564392
0.589600 0.472229 0.568298
0.589600 0.472229 0.568298
0.589600 0.472229 0.568298
0.593475 0.476257 0.572174
0.593475 0.476257 0.572174
0.593475 0.476257 0.572174
0.597412 0.480316 0.576111
0.597412 0.480316 0.576111
0.600830 0.484528 0.576294
0.604401 0.492737 0.572845
0.612152 0.500854 0.580627
0.619720 0.509125 0.588379
0.623505 0.513306 0.592255
0.623505 0.513306 0.592255
0.626892 0.517487 0.588806
0.638947 0.525635 0.615204
0.635132 0.521545 0.611298
0.635132 0.521545 0.611298
0.635132 0.521545 0.611298
0.635132 0.521545 0.611298
0.638947 0.525635 0.615204
0.638947 0.525635 0.615204
0.638947 0.525635 0.615204
0.638947 0.525635 0.615204
0.638702 0.529846 0.607819
0.638702 0.529846 0.607819
0.638702 0.529846 0.607819
0.638702 0.529846 0.607819
0.638702 0.529846 0.607819
0.638702 0.529846 0.607819
0.638702 0.529846 0.607819
0.638702 0.529846 0.607819
0.642487 0.533966 0.611725
0.638702 0.529846 0.607819
0.638702 0.529846 0.607819
0.638702 0.529846 0.607819
0.638702 0.529846 0.607819
0.634827 0.525757 0.603973
0.634827 0.525757 0.603973
0.634827 0.525757 0.603973
0.631287 0.529755 0.596375
0.631287 0.529755 0.596375
0.631287 0.529755 0.596375
0.631287 0.529755 0.596375
0.631287 0.529755 0.596375
0.631287 0.529755 0.596375
0.631287 0.529755 0.596375
0.594421 0.480133 0.583221
0.594208 0.484222 0.575928
0.594208 0.484222 0.575928
0.594208 0.484222 0.575928
0.594208 0.484222 0.575928
0.598022 0.488342 0.579803
0.605713 0.496521 0.587555
0.609253 0.500702 0.587830
0.613068 0.504761 0.591644
0.623505 0.513306 0.592255
0.627380 0.517365 0.596130
0.631104 0.521576 0.600067
0.638702 0.529846 0.607819
0.642487 0.533966 0.611725
0.642487 0.533966 0.611725
0.642487 0.533966 0.611725
0.642487 0.533966 0.611725
0.646301 0.538147 0.615631
0.646301 0.538147 0.615631
0.646301 0.538147 0.615631
0.646301 0.538147 0.615631
0.646301 0.538147 0.615631
0.646301 0.538147 0.615631
0.646301 0.538147 0.615631
0.646301 0.538147 0.615631
0.655914 0.538574 0.612457
0.655914 0.538574 0.612457
0.645844 0.538177 0.608185
0.645844 0.538177 0.608185
0.645844 0.538177 0.608185
0.641998 0.534119 0.604340
0.641998 0.534119 0.604340
0.586761 0.471924 0.575439
0.590332 0.480164 0.572052
0.590332 0.480164 0.572052
0.594208 0.484222 0.575928
0.601868 0.492371 0.583710
0.605713 0.496521 0.587555
0.609436 0.500671 0.591492
0.613068 0.504761 0.591644
0.616882 0.508942 0.595581
0.623932 0.509064 0.603271
0.627838 0.513184 0.607147
0.631500 0.517365 0.611053
0.635406 0.521454 0.614990
0.639191 0.525574 0.618927
0.639191 0.525574 0.618927
0.635132 0.521545 0.611298
0.635132 0.521545 0.611298
0.642700 0.529816 0.619049
0.642700 0.529816 0.619049
0.642487 0.533966 0.611725
0.646301 0.538147 0.615631
0.646301 0.538147 0.615631
0.646301 0.538147 0.615631
0.650024 0.542297 0.619537
0.650024 0.542297 0.619537
0.648407 0.530243 0.604614
0.648407 0.530243 0.604614
0.641998 0.534119 0.604340
0.645844 0.538177 0.608185
0.645844 0.538177 0.608185
0.645844 0.538177 0.608185
0.649567 0.542389 0.612122
0.486908 0.360748 0.457703
0.480316 0.360382 0.460938
0.484741 0.364197 0.471893
0.492767 0.371948 0.479523
0.496674 0.375946 0.483337
0.503998 0.384003 0.483734
0.511841 0.391846 0.487793
0.522003 0.396240 0.484741
0.525879 0.400238 0.488556
0.515625 0.395874 0.491608
0.519653 0.399811 0.495453
0.523499 0.403809 0.499207
0.527374 0.407806 0.503082
0.535278 0.415741 0.510742
0.539124 0.419769 0.514496
0.549408 0.424133 0.511536
0.553253 0.428070 0.515381
0.576385 0.452332 0.538361
0.580353 0.456360 0.542236
0.590942 0.464691 0.542847
0.602417 0.476868 0.554413
0.606232 0.480988 0.558228
0.609985 0.485107 0.562134
0.613831 0.489166 0.566010
0.613831 0.489166 0.566010
0.670746 0.559479 0.620728
0.677765 0.567932 0.621063
0.685211 0.576324 0.628876
0.696442 0.588959 0.640625
0.703857 0.597443 0.648499
0.711273 0.605896 0.656311
0.715027 0.610138 0.660217
0.594208 0.484222 0.575928
0.597412 0.480316 0.576111
0.605042 0.488525 0.583832
0.612335 0.496796 0.587921
0.619995 0.505035 0.595734
0.616119 0.500885 0.591797
0.616119 0.500885 0.591797
0.626709 0.505249 0.596100
0.630432 0.509399 0.599915
0.630432 0.509399 0.599915
0.634186 0.513519 0.603851
0.634186 0.513519 0.603851
0.637939 0.517670 0.607727
0.641846 0.521790 0.611664
0.645569 0.525879 0.615540
0.648926 0.530182 0.612091
0.648926 0.530182 0.612091
0.652618 0.534363 0.615997
0.656372 0.538483 0.619873
0.659698 0.542694 0.616333
0.663483 0.546875 0.620270
0.670959 0.555237 0.628082
0.678406 0.563660 0.635895
0.682129 0.567780 0.639771
0.685883 0.572021 0.643707
0.696167 0.580627 0.644318
0.695770 0.580719 0.636902
0.699554 0.584961 0.640747
0.706909 0.593384 0.648621
0.710602 0.597626 0.652588
0.714325 0.601868 0.656494
0.718018 0.606110 0.660370
0.606659 0.500397 0.598633
0.606659 0.500397 0.598633
0.606659 0.500397 0.598633
0.602875 0.496246 0.594788
0.599030 0.492157 0.590851
0.595154 0.488068 0.587006
0.595154 0.488068 0.587006
0.595154 0.488068 0.587006
0.595154 0.488068 0.587006
0.595154 0.488068 0.587006
0.595154 0.488068 0.587006
0.599030 0.492157 0.590851
0.599030 0.492157 0.590851
0.605713 0.496521 0.587555
0.609436 0.500671 0.591492
0.609436 0.500671 0.591492
0.609436 0.500671 0.591492
0.608795 0.492615 0.587708
0.616425 0.500793 0.595490
0.619995 0.505035 0.595734
0.619995 0.505035 0.595734
0.623749 0.509125 0.599579
0.627625 0.513245 0.603516
0.645569 0.525879 0.615540
0.656891 0.538361 0.627289
0.656372 0.538483 0.619873
0.663483 0.546875 0.620270
0.670746 0.559479 0.620728
0.674530 0.563599 0.624603
0.674530 0.563599 0.624603
0.678253 0.567810 0.628510
0.681976 0.572021 0.632385
0.354156 0.236237 0.313904
0.311157 0.200348 0.277496
0.315430 0.203888 0.281128
0.315430 0.203888 0.281128
0.315430 0.203888 0.281128
0.315430 0.203888 0.281128
0.311157 0.200348 0.277496
0.306854 0.196777 0.273834
0.306366 0.196838 0.267181
0.300476 0.183136 0.256744
0.300476 0.183136 0.256744
0.300476 0.183136 0.256744
0.300476 0.183136 0.256744
0.296295 0.183014 0.249756
0.296295 0.183014 0.249756
0.291718 0.179626 0.246185
0.287415 0.176147 0.242523
0.277924 0.169312 0.228851
0.282379 0.172729 0.232391
0.286804 0.176208 0.235931
0.290955 0.179810 0.239441
0.295410 0.186676 0.236328
0.299652 0.190247 0.239960
0.299652 0.190247 0.239960
0.299957 0.186707 0.246643
0.304688 0.190155 0.256927
0.300629 0.186554 0.253326
0.296295 0.183014 0.249756
0.291718 0.179626 0.246185
0.291718 0.179626 0.246185
0.287415 0.176147 0.242523
0.287415 0.176147 0.242523
0.225708 0.144928 0.190216
0.257660 0.168793 0.214691
0.244141 0.158478 0.204163
0.234772 0.151733 0.197205
0.239838 0.154968 0.200562
0.244141 0.158478 0.204163
0.234772 0.151733 0.197205
0.234772 0.151733 0.197205
0.239838 0.154968 0.200562
0.256622 0.162140 0.211304
0.266235 0.168915 0.225037
0.274963 0.175934 0.232117
0.288208 0.186340 0.242676
0.292572 0.189911 0.246216
0.292572 0.189911 0.246216
0.292572 0.189911 0.246216
0.288208 0.186340 0.242676
0.335815 0.225616 0.282166
0.340179 0.229218 0.285736
0.348785 0.236420 0.293060
0.361115 0.247620 0.303955
0.369598 0.254913 0.311249
0.373840 0.258575 0.314850
0.378052 0.262299 0.318512
0.378052 0.262299 0.318512
0.358093 0.247345 0.310638
0.362457 0.250977 0.317719
0.366699 0.254669 0.321381
0.371094 0.258270 0.325043
0.366699 0.254669 0.321381
0.362457 0.250977 0.317719
0.358368 0.247253 0.314117
0.598053 0.476074 0.590729
0.587280 0.471863 0.582825
0.583405 0.467743 0.578888
0.576233 0.459503 0.578491
0.568481 0.451416 0.570679
0.561340 0.447235 0.566711
0.557404 0.443207 0.562775
0.557404 0.443207 0.562775
0.557404 0.443207 0.562775
0.554871 0.450867 0.566315
0.551025 0.446838 0.562469
0.547180 0.442749 0.558563
0.543213 0.438751 0.554718
0.553619 0.439148 0.558929
0.557404 0.443207 0.562775
0.561096 0.451263 0.559387
0.568787 0.459381 0.567078
0.579620 0.463684 0.575043
0.579620 0.463684 0.575043
0.579071 0.463776 0.567688
0.579071 0.463776 0.567688
0.582489 0.463928 0.567932
0.578552 0.459900 0.564056
0.570862 0.451752 0.556274
0.570862 0.451752 0.556274
0.574249 0.455963 0.552856
0.574249 0.455963 0.552856
0.570465 0.451843 0.548981
0.570465 0.451843 0.548981
0.570465 0.451843 0.548981
0.566650 0.447754 0.545135
0.566650 0.447754 0.545135
0.649292 0.530090 0.619446
0.616425 0.500793 0.595490
0.608795 0.492615 0.587708
0.601654 0.484283 0.587250
0.594055 0.476074 0.579559
0.591125 0.475891 0.586731
0.587280 0.471863 0.582825
0.583405 0.467743 0.578888
0.575775 0.459564 0.571167
0.598328 0.484161 0.587128
0.590698 0.475983 0.579346
0.579071 0.463776 0.567688
0.563629 0.447571 0.552216
0.559845 0.443512 0.548370
0.559845 0.443512 0.548370
0.563507 0.451630 0.544952
0.567352 0.455688 0.548859
0.578918 0.467834 0.560425
0.582672 0.471985 0.564270
0.586243 0.476135 0.564575
0.590149 0.480194 0.568329
0.586243 0.476135 0.564575
0.582458 0.472015 0.560577
0.574768 0.463837 0.552887
0.567078 0.455750 0.545166
0.589386 0.472260 0.564697
0.577942 0.460022 0.553040
0.562347 0.443909 0.537628
0.554382 0.439880 0.522644
0.554382 0.439880 0.522644
0.558350 0.443848 0.526550
0.558350 0.443848 0.526550
0.671814 0.539307 0.602142
0.674713 0.535400 0.598663
0.674713 0.535400 0.598663
0.674713 0.535400 0.598663
0.674713 0.535400 0.598663
0.671814 0.539307 0.602142
0.675598 0.543488 0.606110
0.675598 0.543488 0.606110
0.679108 0.547699 0.606262
0.681946 0.547943 0.599030
0.681580 0.548004 0.591614
0.681946 0.547943 0.599030
0.685760 0.552063 0.602936
0.678680 0.547791 0.598877
0.664063 0.531097 0.590698
0.645325 0.510345 0.571320
0.630310 0.493896 0.559509
0.619354 0.485596 0.551636
0.616089 0.481323 0.555084
0.612213 0.477295 0.551208
0.604584 0.469147 0.543488
0.597321 0.460968 0.543121
0.593597 0.456909 0.539307
0.579346 0.452484 0.531281
0.579346 0.452484 0.531281
0.568695 0.444244 0.530731
0.562286 0.447876 0.530365
0.558350 0.443848 0.526550
0.554382 0.439880 0.522644
0.553253 0.428070 0.515381
0.549408 0.424133 0.511536
0.549408 0.424133 0.511536
0.243927 0.191254 0.243622
0.161285 0.128906 0.179993
0.260040 0.195221 0.251251
0.250305 0.184875 0.240753
0.155548 0.107391 0.163879
0.192352 0.127411 0.188477
0.129669 0.085358 0.143555
0.215149 0.140869 0.202667
0.224243 0.147675 0.209656
0.178680 0.117340 0.177917
0.183228 0.120728 0.181488
0.192352 0.127411 0.188477
0.211182 0.140747 0.202423
0.211182 0.140747 0.202423
0.201874 0.134064 0.195404
0.207031 0.137177 0.198914
0.220337 0.147552 0.209503
0.247620 0.168091 0.230682
0.242950 0.164703 0.227081
0.247620 0.168091 0.230682
0.242950 0.164703 0.227081
0.229858 0.154205 0.216522
0.252197 0.171509 0.234253
0.274200 0.189148 0.252106
0.265717 0.181946 0.244904
0.233948 0.157806 0.220032
0.215576 0.144196 0.205933
0.252197 0.171509 0.234253
0.229858 0.154205 0.216522
0.220337 0.147552 0.209503
0.225128 0.150848 0.213043
0.178680 0.117340 0.177917
0.318481 0.224701 0.294891
0.304626 0.207001 0.280548
0.252075 0.164642 0.237579
0.225769 0.150696 0.219513
0.310059 0.217407 0.287659
0.306427 0.220856 0.287476
0.235962 0.164154 0.230042
0.255157 0.184814 0.251007
0.259338 0.188477 0.254700
0.264069 0.191895 0.258148
0.244873 0.171173 0.237122
0.310699 0.224548 0.291077
0.266998 0.188751 0.254974
0.248596 0.174805 0.234009
0.266479 0.188782 0.248322
0.261871 0.185303 0.241455
0.402466 0.306488 0.361450
0.447266 0.348846 0.402405
0.252960 0.178253 0.234314
0.157928 0.116577 0.170288
0.241364 0.177856 0.233582
0.401184 0.317230 0.378815
0.297455 0.234314 0.293732
0.435364 0.359344 0.415894
0.445953 0.359772 0.420074
0.211182 0.140747 0.202423
0.269318 0.182129 0.245117
0.265717 0.181946 0.244904
0.340179 0.250183 0.309784
0.321381 0.245880 0.308746
0.340881 0.271179 0.337280
0.285400 0.226837 0.293091
0.238251 0.157745 0.220215
0.201080 0.130829 0.192200
0.205688 0.134247 0.195526
0.210388 0.137543 0.199127
0.224243 0.147675 0.209656
0.246826 0.164795 0.227325
0.269318 0.182129 0.245117
0.291077 0.199951 0.263000
0.304199 0.210632 0.273834
0.282257 0.192780 0.252411
0.282257 0.192780 0.252411
0.277740 0.189270 0.248932
0.277740 0.189270 0.248932
0.269043 0.182190 0.241821
0.264435 0.178772 0.238312
0.255676 0.171722 0.231018
0.251129 0.168304 0.227509
0.233185 0.154480 0.213318
0.233185 0.154480 0.213318
0.233185 0.154480 0.213318
0.233185 0.154480 0.213318
0.228424 0.151123 0.209930
0.228424 0.151123 0.209930
0.228424 0.151123 0.209930
0.228424 0.151123 0.209930
0.245667 0.165100 0.217346
0.241333 0.161591 0.213776
0.232513 0.154633 0.206787
0.232513 0.154633 0.206787
0.232513 0.154633 0.206787
0.241333 0.161591 0.213776
0.258179 0.168701 0.221375
0.344086 0.246643 0.316772
0.339813 0.242920 0.313171
0.344086 0.246643 0.316772
0.348114 0.250397 0.320465
0.352539 0.254028 0.324066
0.344086 0.246643 0.316772
0.335632 0.239288 0.309479
0.322784 0.228333 0.298523
0.314178 0.221069 0.291260
0.326447 0.232147 0.295441
0.326447 0.232147 0.295441
0.326447 0.232147 0.295441
0.326447 0.232147 0.295441
0.326447 0.232147 0.295441
0.330750 0.235748 0.299011
0.330750 0.235748 0.299011
0.330750 0.235748 0.299011
0.326447 0.232147 0.295441
0.330750 0.235748 0.299011
0.339325 0.243011 0.306213
0.343414 0.246796 0.309937
0.339325 0.243011 0.306213
0.335083 0.239410 0.302643
0.330750 0.235748 0.299011
0.326447 0.232147 0.295441
0.343048 0.243134 0.306488
0.343048 0.243134 0.306488
0.343048 0.243134 0.306488
0.334351 0.235901 0.299133
0.317383 0.221283 0.284668
0.308502 0.214172 0.277435
0.300018 0.206909 0.270203
0.708038 0.577209 0.626282
0.714386 0.573273 0.626648
0.714020 0.573364 0.619202
0.717316 0.573486 0.619354
0.721008 0.577698 0.623260
0.720612 0.577759 0.615845
0.720612 0.577759 0.615845
0.724091 0.582062 0.616028
0.730652 0.582275 0.616364
0.726929 0.573853 0.616058
0.726929 0.573853 0.616058
0.734375 0.582214 0.623901
0.727966 0.586182 0.623627
0.731476 0.590485 0.623810
0.731476 0.590485 0.623810
0.727783 0.586212 0.619934
0.724091 0.582062 0.616028
0.727783 0.586212 0.619934
0.746185 0.607422 0.639496
0.749756 0.615845 0.635925
0.738739 0.603119 0.624237
0.734955 0.598938 0.620300
0.753387 0.620117 0.639862
0.789886 0.662872 0.679108
0.811676 0.688751 0.702789
0.793701 0.662842 0.690552
0.844879 0.731995 0.749847
0.873474 0.767029 0.781738
0.790741 0.666962 0.690399
0.616058 0.470001 0.511322
0.444397 0.304352 0.352905
0.386841 0.251984 0.301605
0.709473 0.589508 0.641266
0.719543 0.593933 0.641785
0.719543 0.593933 0.641785
0.718781 0.589966 0.630615
0.703949 0.573090 0.615021
0.710114 0.573395 0.607849
0.717468 0.581818 0.615692
0.724731 0.590271 0.619781
0.721191 0.585999 0.619537
0.721405 0.581787 0.627014
0.721405 0.581787 0.627014
0.721191 0.585999 0.619537
0.728607 0.594421 0.627380
0.739014 0.598938 0.635376
0.746368 0.607361 0.643219
0.753601 0.615875 0.647339
0.760925 0.624359 0.655182
0.770660 0.628876 0.651886
0.770660 0.628876 0.651886
0.770264 0.628998 0.644409
0.770264 0.628998 0.644409
0.773834 0.637482 0.640839
0.777435 0.641754 0.644775
0.781097 0.645996 0.648743
0.784760 0.650360 0.652649
0.798676 0.659088 0.664581
0.802277 0.663391 0.668457
0.805725 0.667725 0.668640
0.812958 0.676361 0.676483
0.819458 0.680817 0.673096
0.823059 0.685089 0.677063
0.832916 0.685364 0.681244
0.686981 0.551819 0.625183
0.693634 0.556152 0.621857
0.697083 0.560425 0.622040
0.711823 0.581390 0.630280
0.729889 0.602600 0.642334
0.747040 0.615631 0.646942
0.739777 0.607056 0.639130
0.739532 0.607178 0.635406
0.742767 0.611511 0.631897
0.738739 0.603119 0.624237
0.746063 0.611603 0.631989
0.746063 0.611603 0.631989
0.746063 0.611603 0.631989
0.766632 0.624725 0.640503
0.792175 0.654572 0.667969
0.816742 0.680603 0.684204
0.823944 0.689209 0.692078
0.823822 0.689240 0.688354
0.823822 0.689240 0.688354
0.830292 0.693756 0.684937
0.841095 0.706726 0.696777
0.854431 0.711395 0.704926
0.858002 0.715729 0.708862
0.857880 0.720093 0.701324
0.850739 0.711395 0.693451
0.857605 0.711548 0.705109
0.854004 0.707153 0.701111
0.850525 0.702789 0.697174
0.846893 0.698456 0.693268
0.840088 0.694031 0.689148
0.836487 0.689697 0.685181
0.825989 0.676727 0.680878
0.595245 0.440491 0.579437
0.557617 0.396240 0.555298
0.546478 0.384277 0.550995
0.531891 0.372223 0.546539
0.531891 0.372223 0.546539
0.544342 0.395660 0.558228
0.574341 0.431854 0.574615
0.612152 0.472412 0.606140
0.640076 0.501648 0.604095
0.652344 0.510529 0.579010
0.721405 0.581787 0.627014
0.768402 0.632874 0.666748
0.778351 0.637360 0.667267
0.781006 0.633362 0.659882
0.815552 0.659454 0.680389
0.847198 0.694122 0.704529
0.850647 0.698456 0.704681
0.863831 0.707428 0.705322
0.862854 0.698975 0.693970
0.862854 0.698975 0.693970
0.862854 0.698975 0.693970
0.866455 0.703278 0.697876
0.870056 0.707611 0.701904
0.870972 0.716095 0.713287
0.874207 0.720520 0.709656
0.887726 0.733765 0.714142
0.901581 0.751282 0.722351
0.905518 0.755646 0.733948
0.894836 0.742493 0.722046
0.877808 0.724884 0.713684
0.874207 0.720520 0.709656
0.874207 0.720520 0.709656
0.811157 0.651062 0.665131
0.839874 0.685486 0.692841
0.844025 0.698273 0.700623
0.851227 0.706970 0.708496
0.857758 0.707184 0.712646
0.857758 0.707184 0.712646
0.863953 0.703125 0.712921
0.867096 0.698883 0.716797
0.870697 0.707520 0.716980
0.877808 0.724884 0.713684
0.880951 0.729340 0.710022
0.895233 0.746796 0.725830
0.905884 0.759888 0.737732
0.923187 0.777649 0.753784
0.930206 0.786499 0.761749
0.937286 0.795319 0.769806
0.940796 0.799774 0.773712
0.932892 0.782288 0.754272
0.929382 0.777863 0.750305
0.922302 0.769073 0.742371
0.918793 0.764679 0.738403
0.922302 0.773468 0.738556
0.929382 0.782257 0.746582
0.939941 0.795502 0.758453
0.953125 0.800110 0.766693
0.959381 0.804779 0.763184
0.968994 0.805023 0.767456
0.969299 0.804993 0.775116
0.972839 0.809387 0.779114
0.972839 0.809387 0.779114
0.969299 0.804993 0.775116
0.965790 0.800537 0.771088
0.887848 0.729401 0.721680
0.870667 0.716217 0.705719
0.881348 0.729218 0.717529
0.884918 0.733643 0.721588
0.877808 0.724884 0.713684
0.868042 0.724609 0.709381
0.875153 0.733368 0.717316
0.882294 0.742065 0.725189
0.888458 0.737976 0.725494
0.891327 0.738129 0.718079
0.898071 0.746948 0.718414
0.908691 0.760071 0.730316
0.926361 0.782104 0.750122
0.946960 0.804321 0.766388
0.960999 0.822113 0.782349
0.981018 0.835724 0.798615
0.988037 0.844696 0.806641
0.987701 0.844757 0.798981
0.987701 0.844757 0.798981
0.994293 0.849304 0.803162
0.997803 0.853790 0.807129
1.000000 0.857422 0.811920
1.000000 0.857422 0.811920
1.000000 0.857422 0.811920
1.000000 0.857635 0.819427
1.000000 0.854523 0.820282
0.997925 0.849274 0.814758
0.994446 0.844849 0.810822
0.990967 0.840363 0.806763
0.993439 0.836151 0.795380
0.989899 0.831696 0.791382
0.992889 0.827393 0.791565
0.970581 0.822388 0.786682
0.970581 0.822388 0.786682
0.967072 0.817932 0.782654
0.963593 0.813507 0.778656
0.960022 0.809052 0.774597
0.960022 0.809052 0.774597
0.960022 0.809052 0.774597
0.960022 0.809052 0.774597
0.963593 0.813507 0.778656
0.963684 0.813477 0.782471
0.963684 0.813477 0.782471
0.963684 0.813477 0.782471
0.963684 0.813477 0.782471
0.963593 0.813507 0.778656
0.960022 0.809052 0.774597
0.960022 0.809052 0.774597
0.960022 0.809052 0.774597
0.959717 0.809113 0.766968
0.973785 0.826904 0.782990
0.991211 0.849121 0.803009
0.994690 0.853668 0.807007
0.991089 0.853638 0.795319
0.991089 0.853638 0.795319
1.000000 0.867767 0.809387
1.000000 0.889130 0.843262
0.982483 0.853241 0.814056
1.000000 0.906799 0.881439
1.000000 0.929993 0.909882
1.000000 0.905121 0.878082
0.993958 0.870941 0.845367
0.944977 0.808472 0.789185
0.838379 0.677185 0.670166
0.976990 0.822510 0.790771
0.976898 0.826996 0.783142
0.976898 0.826996 0.783142
0.976898 0.826996 0.783142
0.976898 0.826996 0.783142
0.976532 0.827026 0.775421
0.976532 0.827026 0.775421
0.976532 0.827026 0.775421
0.976532 0.827026 0.775421
0.973419 0.822479 0.779144
0.983887 0.835907 0.791138
0.994293 0.849304 0.803162
1.000000 0.865021 0.820801
1.000000 0.869995 0.834961
1.000000 0.869995 0.834961
1.000000 0.857422 0.811920
1.000000 0.851257 0.803772
1.000000 0.859009 0.815460
1.000000 0.852844 0.807465
1.000000 0.846771 0.799622
1.000000 0.846771 0.799622
1.000000 0.846771 0.799622
1.000000 0.846771 0.799622
1.000000 0.851257 0.803772
1.000000 0.857635 0.819427
0.956177 0.795898 0.770630
1.000000 0.850372 0.839569
1.000000 0.936829 0.932709
1.000000 0.914368 0.913055
0.959686 0.821655 0.824402
0.851501 0.702637 0.719849
0.737396 0.582458 0.620361
0.999847 0.836304 0.799530
1.000000 0.851257 0.803772
0.997437 0.853821 0.799408
1.000000 0.858734 0.804749
1.000000 0.864807 0.813049
1.000000 0.864807 0.813049
1.000000 0.864807 0.813049
1.000000 0.861633 0.805084
1.000000 0.857422 0.811920
1.000000 0.848663 0.814453
1.000000 0.848663 0.814453
1.000000 0.857635 0.819427
1.000000 0.857635 0.819427
1.000000 0.858887 0.812653
0.997803 0.853790 0.807129
0.991211 0.849121 0.803009
0.987701 0.844757 0.798981
0.991211 0.849121 0.803009
0.991211 0.849121 0.803009
0.997803 0.853790 0.807129
0.994293 0.849304 0.803162
0.996887 0.840607 0.799438
0.993439 0.836151 0.795380
0.989380 0.822937 0.787537
0.982422 0.814026 0.779572
0.978241 0.805298 0.764038
0.974792 0.800842 0.760040
0.974792 0.800842 0.760040
0.971252 0.796448 0.756104
0.971252 0.796448 0.756104
0.974792 0.800842 0.760040
0.978241 0.805298 0.764038
0.996582 0.840637 0.791718
0.993439 0.836151 0.795380
0.996887 0.840607 0.799438
0.996887 0.840607 0.799438
1.000000 0.845306 0.803864
1.000000 0.845398 0.811798
1.000000 0.851593 0.819244
1.000000 0.851593 0.819244
1.000000 0.857849 0.826874
0.997925 0.849274 0.814758
0.997925 0.849274 0.814758
1.000000 0.851593 0.819244
1.000000 0.845398 0.811798
1.000000 0.851471 0.811554
1.000000 0.857635 0.819427
1.000000 0.869995 0.834961
1.000000 0.876190 0.842804
0.978821 0.813995 0.767944
0.968353 0.800751 0.755981
0.957855 0.787415 0.744019
0.961365 0.791870 0.748047
0.967773 0.791992 0.752106
0.964294 0.787567 0.748138
0.960480 0.783234 0.736572
0.961365 0.791870 0.748047
0.967285 0.817902 0.786530
0.986053 0.848785 0.829529
0.996582 0.862213 0.841614
0.866058 0.699036 0.694092
0.619354 0.419434 0.435272
0.503052 0.302429 0.323853
0.608368 0.411285 0.427612
1.000000 0.889526 0.853241
1.000000 0.889526 0.853241
1.000000 0.883362 0.845062
1.000000 0.882385 0.850616
1.000000 0.876190 0.842804
1.000000 0.876190 0.842804
1.000000 0.869995 0.834961
1.000000 0.863800 0.827179
1.000000 0.863800 0.827179
1.000000 0.858887 0.812653
1.000000 0.863434 0.816986
1.000000 0.863434 0.816986
1.000000 0.869507 0.825104
1.000000 0.873779 0.818024
1.000000 0.879791 0.826782
1.000000 0.885864 0.835388
1.000000 0.885864 0.835388
1.000000 0.897919 0.852783
1.000000 0.897919 0.852783
1.000000 0.891510 0.837189
1.000000 0.891510 0.837189
1.000000 0.915466 0.873169
1.000000 0.933533 0.900299
1.000000 0.927521 0.891235
1.000000 0.903961 0.861450
1.000000 0.869507 0.825104
1.000000 0.869507 0.825104
1.000000 0.863434 0.816986
0.998138 0.858124 0.811005
0.994690 0.853668 0.807007
0.994690 0.853668 0.807007
0.991211 0.849121 0.803009
1.000000 0.907806 0.875244
1.000000 0.907318 0.868866
1.000000 0.901215 0.860291
1.000000 0.900177 0.866058
1.000000 0.906311 0.874237
1.000000 0.910004 0.870209
1.000000 0.910004 0.870209
1.000000 0.916046 0.878906
1.000000 0.916046 0.878906
1.000000 0.937134 0.915558
1.000000 0.932678 0.910461
1.000000 0.930939 0.907288
1.000000 0.930939 0.907288
1.000000 0.954437 0.934723
1.000000 0.967041 0.949738
1.000000 0.946198 0.920258
1.000000 0.910004 0.866608
1.000000 0.922028 0.884430
