Assets/LUTs/Warm.CUBE
#Created by: Adobe Photoshop Export Color Lookup Plugin
TITLE "Warm"
#LUT size
LUT_3D_SIZE 5
#data domain
#LUT data points
DOMAIN_MIN 0.000000 0.000000 0.000000
DOMAIN_MAX 0.903226 0.903226 0.903226
0.597412 0.480316 0.576111
0.589600 0.472229 0.568298
0.589600 0.472229 0.568298
0.593475 0.476257 0.572174
0.619720 0.509125 0.588379
0.354156 0.236237 0.313904
0.306854 0.196777 0.273834
0.296295 0.183014 0.249756
0.295410 0.186676 0.236328
0.291718 0.179626 0.246185
0.238251 0.157745 0.220215
0.291077 0.199951 0.263000
0.264435 0.178772 0.238312
0.228424 0.151123 0.209930
0.232513 0.154633 0.206787
0.887848 0.729401 0.721680
0.882294 0.742065 0.725189
0.960999 0.822113 0.782349
1.000000 0.857422 0.811920
0.990967 0.840363 0.806763
1.000000 0.943054 0.922241
1.000000 0.955353 0.938812
1.000000 0.943390 0.924286
1.000000 0.989655 0.983704
1.000000 0.941071 0.924438
0.605438 0.488434 0.591156
0.594055 0.476074 0.579559
0.593475 0.476257 0.572174
0.608246 0.496857 0.576721
0.626892 0.517487 0.588806
0.319824 0.214600 0.277893
0.311432 0.207336 0.274200
0.310638 0.204010 0.267334
0.306366 0.200378 0.263824
0.290741 0.183319 0.232788
0.287445 0.199738 0.262878
0.256531 0.175049 0.237793
0.255188 0.171753 0.224457
0.271698 0.179077 0.231934
0.246460 0.164886 0.224030
0.932892 0.782288 0.754272
0.915222 0.760315 0.734344
0.968018 0.831024 0.790405
1.000000 0.858734 0.804749
0.996887 0.840607 0.799438
1.000000 0.958099 0.935730
1.000000 0.940948 0.930664
1.000000 0.968048 0.953552
1.000000 0.963684 0.947845
1.000000 0.955353 0.938812
0.612610 0.496735 0.591553
0.608795 0.492615 0.587708
0.612610 0.496735 0.591553
0.619720 0.509125 0.588379
0.626892 0.517487 0.588806
0.234283 0.151794 0.190582
0.214630 0.145081 0.154175
0.232758 0.151978 0.170959
0.214020 0.138641 0.157227
0.175476 0.112366 0.123962
0.296539 0.206696 0.270050
0.296539 0.206696 0.270050
0.282654 0.192657 0.255829
0.276367 0.179138 0.245392
0.264435 0.178772 0.238312
0.967285 0.817902 0.786530
0.946167 0.791351 0.762512
0.971527 0.835480 0.794403
0.994049 0.849304 0.795502
1.000000 0.851471 0.811554
1.000000 0.946136 0.917297
1.000000 0.947296 0.938080
1.000000 0.951447 0.930328
1.000000 0.957520 0.939087
1.000000 0.955353 0.938812
0.623749 0.509125 0.599579
0.608551 0.492676 0.584015
0.619995 0.505035 0.595734
0.619720 0.509125 0.588379
0.626892 0.517487 0.588806
0.338867 0.240326 0.258667
0.219574 0.145081 0.163940
0.219177 0.138519 0.167145
0.241760 0.155518 0.184479
0.266052 0.179260 0.211761
0.339325 0.243011 0.306213
0.313660 0.221191 0.284424
0.313263 0.214142 0.287811
0.304626 0.207001 0.280548
0.299744 0.207001 0.266785
0.980652 0.826996 0.798553
0.952667 0.791504 0.766632
0.960999 0.822113 0.782349
0.997437 0.853821 0.799408
1.000000 0.845306 0.803864
1.000000 0.946136 0.917297
1.000000 0.950470 0.936829
1.000000 0.946136 0.917297
1.000000 0.957520 0.939087
1.000000 0.955353 0.938812
0.631287 0.517426 0.607361
0.635132 0.521545 0.611298
0.634827 0.525757 0.603973
0.623505 0.513306 0.592255
0.623810 0.521423 0.588623
0.219482 0.145264 0.170410
0.247284 0.165619 0.191132
0.219696 0.138428 0.173645
0.265167 0.172516 0.208405
0.193481 0.121490 0.165924
0.326874 0.232086 0.302185
0.352539 0.254028 0.324066
0.318024 0.224792 0.288147
0.287445 0.199738 0.262878
0.317383 0.221283 0.284668
0.974091 0.826813 0.790619
0.963593 0.813507 0.778656
0.967072 0.817932 0.782654
0.980591 0.840240 0.783325
1.000000 0.852844 0.807465
1.000000 0.964172 0.949738
1.000000 0.951874 0.932556
1.000000 0.981079 0.971222
1.000000 0.958557 0.937958
1.000000 0.968048 0.953552
